sakibchowdhury131/FrankaEmikaControl_lowerLevel/ball_throw/actual_trajectory.csv
t,q0,q1,q2,q3,q4,q5,q6,dq0,dq1,dq2,dq3,dq4,dq5,dq6,tau_ext0,tau_ext1,tau_ext2,tau_ext3,tau_ext4,tau_ext5,tau_ext6,tau_cmd0,tau_cmd1,tau_cmd2,tau_cmd3,tau_cmd4,tau_cmd5,tau_cmd6,sigma_min,tau_ext_max
0.00000000,0.00035383,-0.78629196,-0.00014980,-2.23606934,0.00401511,1.58467616,0.78553109,-0.00078194,-0.04700797,-0.00219501,0.40999578,0.01948435,0.05419976,0.00081626,-0.11398025,-1.25617506,-0.37164883,0.91837439,0.50669073,0.30969433,-0.05085873,-0.01913427,-1.88715546,-0.55472558,1.81404741,0.40484152,0.57766860,-0.03991116,0.21650037,1.25617506
0.00100015,0.00035789,-0.78634619,-0.00015497,-2.23566565,0.00403608,1.58472877,0.78553457,0.00141449,-0.04911665,-0.00257039,0.40722468,0.01928481,0.05437342,0.00121060,-0.11287973,-1.26356662,-0.36918278,0.91923559,0.50824048,0.31009172,-0.05069367,-0.03622920,-1.35241193,-0.53399459,1.31193988,0.40429499,0.56805809,-0.04281109,0.21646968,1.26356662
0.00200029,0.00035534,-0.78639164,-0.00015426,-2.23525612,0.00405636,1.58478194,0.78552992,0.00005670,-0.04806335,-0.00117363,0.40853257,0.01914971,0.05409251,-0.00073998,-0.11215259,-1.26899133,-0.36700277,0.92107036,0.50982400,0.31056843,-0.05049551,-0.00191834,-0.86321718,-0.53722342,0.75107513,0.40340630,0.56128307,-0.02886928,0.21643854,1.26899133
0.00300044,0.00035515,-0.78644244,-0.00015923,-2.23485603,0.00407986,1.58483068,0.78553291,-0.00013893,-0.04938549,-0.00235976,0.40647123,0.02034773,0.05226005,0.00020614,-0.11184100,-1.27295156,-0.36557199,0.92354200,0.51143641,0.31100596,-0.05028605,0.01557766,-0.34063181,-0.50497655,0.51060742,0.39298661,0.56530510,-0.03558107,0.21640809,1.27295156
0.00400058,0.00035351,-0.78649213,-0.00015856,-2.23445283,0.00410022,1.58487978,0.78553442,-0.00117839,-0.04935524,-0.00098708,0.40609848,0.01994946,0.05155490,-0.00001061,-0.11147632,-1.27592209,-0.36444356,0.92670649,0.51311481,0.31139879,-0.05006767,0.04590272,-0.17564074,-0.50825388,0.42490272,0.39397693,0.56111891,-0.03406071,0.21637739,1.27592209
0.00500073,0.00035620,-0.78654539,-0.00016383,-2.23403975,0.00412369,1.58493580,0.78553214,-0.00007762,-0.05037082,-0.00232388,0.40702394,0.02044349,0.05170501,-0.00129004,-0.11100112,-1.27729027,-0.36354666,0.92982692,0.51483338,0.31173643,-0.04985571,0.04550042,-0.14719842,-0.47456129,0.31927764,0.38853501,0.55022481,-0.02489985,0.21634591,1.27729027
0.00600088,0.00035443,-0.78659271,-0.00015896,-2.23364510,0.00414218,1.58498845,0.78553593,-0.00045373,-0.04949694,0.00012656,0.40483020,0.01979047,0.05188428,-0.00032970,-0.11082632,-1.27716199,-0.36354360,0.93234315,0.51651668,0.31203582,-0.04967381,0.06723831,-0.14367964,-0.49358452,0.25877870,0.39146578,0.53916273,-0.03171454,0.21631582,1.27716199
0.00700102,0.00035822,-0.78664211,-0.00016352,-2.23323696,0.00416331,1.58504340,0.78553138,0.00122259,-0.04900424,-0.00100143,0.40474745,0.01938526,0.05342349,-0.00137648,-0.11156154,-1.27799827,-0.36553547,0.93556565,0.51810575,0.31246994,-0.04953521,0.05921642,-0.13650107,-0.46330321,0.16667162,0.39248730,0.51809131,-0.02404963,0.21628468,1.27799827
0.00800117,0.00035453,-0.78668723,-0.00016613,-2.23283668,0.00417782,1.58510027,0.78553289,-0.00042762,-0.04801771,-0.00127330,0.40567367,0.01798820,0.05415459,-0.00056415,-0.11289854,-1.28140970,-0.36880042,0.93978884,0.51955132,0.31308186,-0.04944238,0.09929991,-0.13757023,-0.44405180,0.06066300,0.40083112,0.50226584,-0.02968251,0.21625411,1.28140970
0.00900131,0.00035283,-0.78673074,-0.00017235,-2.23243171,0.00418876,1.58516046,0.78553289,-0.00052150,-0.04660231,-0.00347956,0.40575225,0.01539589,0.05735318,-0.00101460,-0.11341385,-1.28761958,-0.37064809,0.94397061,0.52083195,0.31375807,-0.04937333,0.11718903,-0.14473117,-0.39854159,-0.03449389,0.41770676,0.46875630,-0.02639396,0.21622316,1.28761958
0.01000146,0.00035654,-0.78677366,-0.00017244,-2.23203036,0.00419536,1.58522298,0.78553607,0.00102022,-0.04579344,-0.00266578,0.40395798,0.01281777,0.06017606,0.00011288,-0.11256100,-1.29746310,-0.36985830,0.94816153,0.52192460,0.31446780,-0.04930897,0.11231096,-0.14312147,-0.39570146,-0.10374546,0.43476646,0.43750217,-0.03430037,0.21619247,1.29746310
0.01100161,0.00035654,-0.78681356,-0.00017074,-2.23162878,0.00419604,1.58528686,0.78553395,0.00091655,-0.04394635,-0.00077100,0.40398989,0.01000310,0.06091363,-0.00065198,-0.11154178,-1.31176110,-0.36861535,0.95309007,0.52274698,0.31522383,-0.04925178,0.13150877,-0.15727906,-0.40747722,-0.19921229,0.45381765,0.42045984,-0.02867894,0.21616174,1.31176110
0.01200175,0.00035654,-0.78684884,-0.00017711,-2.23123723,0.00419601,1.58534927,0.78553097,0.00075808,-0.04184605,-0.00249746,0.39970100,0.00738410,0.06151815,-0.00204500,-0.11104430,-1.33222197,-0.36853942,0.96022141,0.52332001,0.31605905,-0.04920025,0.15102964,-0.17346863,-0.36892240,-0.23374178,0.47148466,0.40426913,-0.01861924,0.21613175,1.33222197
0.01300190,0.00035655,-0.78687186,-0.00017556,-2.23084249,0.00419219,1.58541131,0.78552998,0.00026301,-0.03638247,-0.00088989,0.39980180,0.00452990,0.06133625,-0.00225259,-0.11058246,-1.36301904,-0.36893937,0.97209752,0.52381210,0.31704734,-0.04913328,0.17622449,-0.23954747,-0.37693371,-0.33048588,0.49107494,0.39327814,-0.01693793,0.21610151,1.36301904
0.01400204,0.00036081,-0.78690090,-0.00017564,-2.23044797,0.00419208,1.58546731,0.78553763,0.00101593,-0.03397422,-0.00066696,0.39762996,0.00338241,0.06022921,0.00021766,-0.11025576,-1.40740013,-0.37017359,0.98987423,0.52430874,0.31814733,-0.04902019,0.18347396,-0.26276709,-0.36631333,-0.39627616,0.49852003,0.38872625,-0.03442239,0.21607126,1.40740013
0.01500219,0.00036010,-0.78692283,-0.00017181,-2.23005074,0.00419326,1.58552327,0.78553548,0.00068092,-0.03089188,0.00112199,0.39598698,0.00230359,0.05859948,-0.00044429,-0.11070533,-1.46436633,-0.37349293,1.01273160,0.52479521,0.31926076,-0.04885598,0.20712471,-0.29674621,-0.37741453,-0.47033425,0.50547129,0.38754536,-0.02947707,0.21604079,1.46436633
0.01600234,0.00036370,-0.78694188,-0.00017182,-2.22966611,0.00419315,1.58558543,0.78552946,0.00156123,-0.02740399,0.00025423,0.39332527,0.00157368,0.05899262,-0.00221251,-0.11215436,-1.53190990,-0.37917100,1.03980520,0.52527095,0.32037708,-0.04867083,0.21304132,-0.33673334,-0.35217377,-0.52932503,0.51002044,0.37164045,-0.01658768,0.21601127,1.53190990
0.01700248,0.00036275,-0.78695869,-0.00017568,-2.22928261,0.00419783,1.58564729,0.78553074,0.00056105,-0.02375654,-0.00124723,0.38998662,0.00210878,0.05891453,-0.00059495,-0.11383730,-1.60956924,-0.38532730,1.07101688,0.52581015,0.32155775,-0.04847163,0.24607428,-0.37927344,-0.31745791,-0.57938134,0.50549418,0.35877112,-0.02775137,0.21598181,1.60956924
0.01800263,0.00036567,-0.78697782,-0.00017568,-2.22889427,0.00419975,1.58570773,0.78554066,0.00088992,-0.02288349,-0.00077918,0.38850225,0.00216424,0.05952316,0.00204118,-0.11481170,-1.69482527,-0.38989076,1.10521745,0.52645693,0.32278370,-0.04823012,0.26075436,-0.38556966,-0.31059914,-0.65661289,0.50452094,0.34072919,-0.04645303,0.21595196,1.69482527
0.01900277,0.00036227,-0.78699228,-0.00017747,-2.22851279,0.00419918,1.58576972,0.78553548,0.00012281,-0.02041009,-0.00098733,0.38751119,0.00239027,0.05975149,-0.00019455,-0.11499203,-1.78190477,-0.39280239,1.13906877,0.52711232,0.32385349,-0.04795912,0.29166603,-0.41483724,-0.29413540,-0.74057772,0.50248754,0.32501456,-0.03028643,0.21592262,1.78190477
0.02000292,0.00036250,-0.78701107,-0.00017955,-2.22812498,0.00420305,1.58583564,0.78553340,-0.00032996,-0.01987034,-0.00124248,0.38660059,0.00251096,0.06216305,-0.00036651,-0.11435759,-1.86537324,-0.39420677,1.16909489,0.52765267,0.32451685,-0.04771424,0.31813296,-0.41804015,-0.27719754,-0.82697951,0.50100060,0.29347186,-0.02870372,0.21589277,1.86537324
0.02100307,0.00037122,-0.78702403,-0.00017747,-2.22775248,0.00420455,1.58589931,0.78553180,0.00198236,-0.01754563,0.00026368,0.38308969,0.00223055,0.06234023,-0.00076072,-0.11347243,-1.94250482,-0.39507780,1.19398436,0.52797202,0.32468627,-0.04751365,0.30533070,-0.44511696,-0.28570518,-0.87598435,0.50247200,0.27751611,-0.02558831,0.21586409,1.94250482
0.02200321,0.00036746,-0.78704852,-0.00018519,-2.22737800,0.00420242,1.58596235,0.78553405,0.00078479,-0.01941290,-0.00264618,0.38021507,0.00066608,0.06292044,0.00045718,-0.11288720,-2.01166713,-0.39598885,1.21413998,0.52803611,0.32443624,-0.04732577,0.34285490,-0.41485772,-0.23181497,-0.93488928,0.51307146,0.25834092,-0.03392661,0.21583523,2.01166713
0.02300336,0.00037557,-0.78706890,-0.00018341,-2.22700433,0.00420175,1.58602240,0.78553151,0.00368982,-0.01967806,-0.00138407,0.37748881,0.00033454,0.06230420,-0.00098121,-0.11237620,-2.06933677,-0.39595303,1.22920799,0.52787014,0.32378549,-0.04713402,0.32240357,-0.40724261,-0.23733700,-0.99637678,0.51504476,0.24744179,-0.02342401,0.21580642,2.06933677
0.02400350,0.00037860,-0.78709082,-0.00018346,-2.22664331,0.00420102,1.58607369,0.78553218,0.00345809,-0.02035940,-0.00053786,0.37180106,-0.00008613,0.05956342,-0.00000620,-0.11269634,-2.11390072,-0.39622292,1.24004622,0.52747248,0.32285695,-0.04695218,0.34679764,-0.39265883,-0.23634855,-1.01579003,0.51765831,0.25162800,-0.02996587,0.21577858,2.11390072
0.02500365,0.00038374,-0.78710613,-0.00018412,-2.22628236,0.00420027,1.58613109,0.78553291,0.00465023,-0.01836976,-0.00117740,0.36690248,-0.00030029,0.05834871,0.00001242,-0.11444841,-2.14910107,-0.39819551,1.25054956,0.52694069,0.32203083,-0.04678087,0.35096968,-0.41604940,-0.21538590,-1.04670700,0.51882447,0.24459451,-0.02980968,0.21575073,2.14910107
0.02600380,0.00038533,-0.78713745,-0.00018157,-2.22592798,0.00419941,1.58618862,0.78553214,0.00351150,-0.02289347,-0.00015190,0.36458898,0.00002277,0.05759484,-0.00054283,-0.11717264,-2.17612721,-0.40134989,1.26223787,0.52637093,0.32151393,-0.04661814,0.38904940,-0.35112417,-0.21721215,-1.11395821,0.51629696,0.23377659,-0.02552560,0.21572336,2.17612721
0.02700394,0.00038923,-0.78715809,-0.00018141,-2.22556530,0.00420103,1.58624488,0.78552987,0.00418232,-0.02260341,-0.00028698,0.36299550,0.00105892,0.05758633,-0.00141509,-0.12043410,-2.19038615,-0.40528760,1.27215243,0.52571072,0.32116172,-0.04647594,0.40146855,-0.35350690,-0.20340353,-1.19258357,0.50865407,0.21763974,-0.01894615,0.21569534,2.19038615
0.02800409,0.00039108,-0.78718497,-0.00017957,-2.22520720,0.00420027,1.58630147,0.78553517,0.00302275,-0.02408987,0.00027880,0.36010916,0.00082234,0.05667580,0.00091593,-0.12382341,-2.19029967,-0.40964758,1.27842540,0.52492228,0.32088207,-0.04634788,0.44028156,-0.33076129,-0.19910276,-1.25336779,0.51007249,0.20750160,-0.03515318,0.21566766,2.19029967
0.02900423,0.00039549,-0.78721040,-0.00018307,-2.22486033,0.00420103,1.58635918,0.78553517,0.00304010,-0.02465613,-0.00099283,0.35654642,0.00102971,0.05716845,0.00073312,-0.12665724,-2.17825352,-0.41344261,1.28185405,0.52406743,0.32077880,-0.04622444,0.46225950,-0.32093611,-0.16939545,-1.30402127,0.50830077,0.18724293,-0.03349101,0.21564083,2.17825352
0.03000438,0.00039553,-0.78723589,-0.00018235,-2.22450704,0.00420255,1.58641640,0.78553062,0.00274674,-0.02497136,-0.00027305,0.35633799,0.00114447,0.05714163,-0.00118072,-0.12839609,-2.15643975,-0.41575257,1.28287326,0.52318798,0.32087671,-0.04612871,0.48972292,-0.31655515,-0.16753841,-1.40292075,0.50719531,0.17027991,-0.01946369,0.21561348,2.15643975
0.03100453,0.00039718,-0.78726572,-0.00018425,-2.22417088,0.00420255,1.58647633,0.78553456,0.00172656,-0.02623187,-0.00050950,0.35186166,0.00125368,0.05811986,-0.00078020,-0.12892923,-2.12659323,-0.41657330,1.28126474,0.52226832,0.32108486,-0.04607532,0.52734596,-0.29728261,-0.15224735,-1.44090641,0.50621097,0.14594800,-0.02205531,0.21558745,2.12659323
0.03200467,0.00040379,-0.78729900,-0.00018696,-2.22382088,0.00420255,1.58653053,0.78553941,0.00332624,-0.02838159,-0.00117467,0.35175482,0.00099932,0.05783492,0.00115113,-0.12831326,-2.08879948,-0.41597670,1.27634317,0.52127937,0.32126480,-0.04604253,0.52792467,-0.26792485,-0.13171574,-1.54223204,0.50777880,0.13032164,-0.03538831,0.21556034,2.08879948
0.03300482,0.00041197,-0.78733811,-0.00018717,-2.22348258,0.00420417,1.58658816,0.78553582,0.00506322,-0.03195365,-0.00047855,0.34720665,0.00111700,0.05763454,0.00108698,-0.12731406,-2.04088855,-0.41468954,1.26642173,0.52013661,0.32119970,-0.04602700,0.52685825,-0.21684379,-0.13038467,-1.58084458,0.50669607,0.11372939,-0.03432513,0.21553411,2.04088855
0.03400496,0.00041468,-0.78737793,-0.00018902,-2.22314861,0.00420417,1.58664019,0.78552871,0.00422787,-0.03434153,-0.00100403,0.34367276,0.00098510,0.05604404,-0.00101309,-0.12662501,-1.98174226,-0.41368223,1.25102774,0.51880659,0.32077727,-0.04605565,0.56266260,-0.18255763,-0.11157411,-1.63381400,0.50744665,0.10687362,-0.01882071,0.21550821,1.98174226
0.03500511,0.00042892,-0.78741927,-0.00018518,-2.22281616,0.00420331,1.58668987,0.78553547,0.00710620,-0.03627379,0.00114750,0.34075135,0.00047358,0.05353971,0.00117811,-0.12665686,-1.91310107,-0.41392361,1.23105497,0.51730438,0.31998483,-0.04612465,0.54573082,-0.15494138,-0.13127991,-1.69582300,0.51094537,0.10624712,-0.03403806,0.21548242,1.91310107
0.03600526,0.00043231,-0.78746151,-0.00018306,-2.22248429,0.00420179,1.58674265,0.78553794,0.00623312,-0.03779059,0.00087315,0.33774542,-0.00002672,0.05296170,0.00163430,-0.12803385,-1.83772604,-0.41674580,1.20702856,0.51561563,0.31877702,-0.04619699,0.58263108,-0.13332015,-0.11664358,-1.75712629,0.51439804,0.09172150,-0.03688254,0.21545666,1.83772604
0.03700540,0.00044478,-0.78750647,-0.00018834,-2.22216154,0.00420179,1.58679017,0.78553599,0.00848949,-0.03956186,-0.00115365,0.33388960,0.00007619,0.05106462,0.00031315,-0.13023730,-1.75847020,-0.42094876,1.17953104,0.51382884,0.31713939,-0.04625641,0.57459319,-0.10786648,-0.07802345,-1.80623980,0.51353232,0.08642480,-0.02705793,0.21543160,1.75847020
0.03800555,0.00045210,-0.78756055,-0.00018703,-2.22183695,0.00420417,1.58684092,0.78554064,0.00814415,-0.04381474,-0.00073708,0.33067831,0.00088475,0.05125137,0.00294177,-0.13235439,-1.67579419,-0.42429949,1.14841489,0.51204959,0.31506035,-0.04630923,0.60440481,-0.04843219,-0.07323692,-1.86530090,0.50767927,0.06601015,-0.04518891,0.21540638,1.67579419
0.03900569,0.00046146,-0.78760795,-0.00018511,-2.22152692,0.00420255,1.58688649,0.78553447,0.00890352,-0.04470870,0.00022158,0.32427367,0.00004773,0.04990182,0.00062794,-0.13438376,-1.58978821,-0.42701862,1.11405148,0.51031100,0.31262062,-0.04637038,0.61872731,-0.03431692,-0.07637001,-1.87852846,0.51356181,0.05651953,-0.02818311,0.21538228,1.58978821
0.04000584,0.00046460,-0.78765785,-0.00018690,-2.22121707,0.00420493,1.58693270,0.78553342,0.00699630,-0.04622805,-0.00057973,0.32034466,0.00045837,0.04855242,-0.00031765,-0.13610331,-1.50427648,-0.42952750,1.07900487,0.50869740,0.31005366,-0.04645579,0.67131504,-0.01301083,-0.05430290,-1.92704974,0.51052019,0.04663162,-0.02099126,0.21535818,1.50427648
0.04100599,0.00047594,-0.78770857,-0.00018442,-2.22090775,0.00420493,1.58697936,0.78553701,0.00813017,-0.04725453,0.00022051,0.31678697,-0.00061435,0.04783014,0.00045754,-0.13692704,-1.42261195,-0.43126852,1.04479980,0.50727275,0.30746542,-0.04656194,0.68079202,0.00105663,-0.05569285,-1.98125475,0.51801399,0.03206584,-0.02606632,0.21533411,1.42261195
0.04200613,0.00049086,-0.78775401,-0.00018805,-2.22060039,0.00420569,1.58702885,0.78553871,0.01028044,-0.04640638,-0.00101825,0.31439742,-0.00010207,0.04837082,0.00036599,-0.13716610,-1.34668635,-0.43242236,1.01135612,0.50597471,0.30480375,-0.04667840,0.67561725,-0.01212813,-0.02870505,-2.05201577,0.51437135,0.00826507,-0.02497122,0.21531018,1.34668635
0.04300628,0.00049500,-0.78780265,-0.00018590,-2.22029392,0.00420569,1.58707501,0.78553448,0.00850570,-0.04622415,0.00022252,0.31175520,-0.00012625,0.04765961,-0.00145779,-0.13722984,-1.27900027,-0.43329078,0.97876301,0.50472959,0.30201543,-0.04680393,0.72741055,-0.01610549,-0.03560240,-2.11981819,0.51458423,-0.00688967,-0.01143573,0.21528632,1.27900027
0.04400642,0.00050629,-0.78785183,-0.00018795,-2.21999716,0.00420569,1.58712037,0.78553746,0.00981570,-0.04731498,-0.00051797,0.30764197,0.00015357,0.04691213,-0.00012301,-0.13694496,-1.22036511,-0.43381599,0.94714327,0.50351967,0.29909101,-0.04692785,0.73508478,-0.00248961,-0.01572059,-2.16667309,0.51264799,-0.02202721,-0.02036362,0.21526320,1.22036511
0.04500657,0.00051842,-0.78789895,-0.00018586,-2.21969839,0.00420173,1.58716201,0.78553492,0.01046376,-0.04686518,0.00033771,0.30394514,-0.00057846,0.04568755,-0.00121527,-0.13651828,-1.17054553,-0.43431857,0.91708919,0.50233915,0.29609882,-0.04703838,0.75248807,-0.01069777,-0.01821781,-2.22004712,0.51803414,-0.03387235,-0.01201422,0.21523991,1.17054553
0.04600672,0.00053114,-0.78794790,-0.00018794,-2.21940324,0.00420462,1.58720452,0.78553321,0.01170274,-0.04735743,-0.00053965,0.30018394,-0.00045199,0.04431790,-0.00251827,-0.13634853,-1.12984157,-0.43515143,0.88940041,0.50118814,0.29312436,-0.04715101,0.76159313,-0.00624941,0.00331999,-2.27279571,0.51706479,-0.04504399,-0.00221919,0.21521690,1.12984157
0.04700686,0.00054388,-0.78799808,-0.00018972,-2.21911337,0.00420382,1.58724370,0.78553250,0.01171177,-0.04816438,-0.00086996,0.29768437,-0.00095634,0.04289451,-0.00103895,-0.13629020,-1.09710139,-0.43578351,0.86367653,0.50007329,0.29016799,-0.04726734,0.78840124,0.00161479,0.01748251,-2.34325302,0.52072765,-0.05598383,-0.01193281,0.21519428,1.09710139
0.04800701,0.00056202,-0.78805187,-0.00018972,-2.21882185,0.00420243,1.58728184,0.78553630,0.01403150,-0.04904876,-0.00098006,0.29460423,-0.00131498,0.04123964,0.00054810,-0.13624849,-1.06962185,-0.43579247,0.83855356,0.49897063,0.28716318,-0.04735772,0.78245506,0.01087460,0.02765626,-2.40636421,0.52340986,-0.06550550,-0.02261814,0.21517154,1.06962185
0.04900715,0.00057263,-0.78810451,-0.00018759,-2.21853197,0.00420327,1.58731866,0.78553544,0.01298827,-0.05024142,-0.00028760,0.29179015,-0.00062789,0.03965865,0.00046780,-0.13646937,-1.04502498,-0.43573175,0.81302555,0.49784617,0.28407473,-0.04742182,0.82499518,0.02359390,0.02726255,-2.47360470,0.51870368,-0.07576293,-0.02138230,0.21514891,1.04502498
0.05000730,0.00058876,-0.78815234,-0.00018688,-2.21825215,0.00420253,1.58735602,0.78553490,0.01389860,-0.04986182,0.00041069,0.28816799,-0.00073997,0.03847721,-0.00017229,-0.13694710,-1.02274488,-0.43628456,0.78720388,0.49671055,0.28093525,-0.04748477,0.83975563,0.01409970,0.02635028,-2.52888335,0.51968531,-0.08904736,-0.01623729,0.21512705,1.02274488
0.05100745,0.00060745,-0.78820294,-0.00018872,-2.21797468,0.00420254,1.58738850,0.78553508,0.01570340,-0.05068356,-0.00039113,0.28400943,-0.00067615,0.03672491,0.00054782,-0.13771325,-1.00404355,-0.43774916,0.76242785,0.49560319,0.27784969,-0.04754149,0.84178033,0.02120584,0.04601150,-2.57709411,0.51939163,-0.09838000,-0.02063827,0.21510538,1.00404355
0.05200759,0.00062209,-0.78825191,-0.00018864,-2.21770759,0.00420255,1.58742411,0.78553655,0.01513487,-0.04976647,0.00047483,0.27922334,-0.00048784,0.03509190,0.00074365,-0.13872714,-0.99078085,-0.43990554,0.74066420,0.49458852,0.27498039,-0.04757337,0.87808353,0.00410717,0.04299017,-2.61584832,0.51827974,-0.10890793,-0.02142247,0.21508450,0.99078085
0.05300774,0.00063899,-0.78830709,-0.00019040,-2.21743064,0.00420417,1.58745413,0.78553032,0.01527811,-0.05092906,-0.00029427,0.27814502,0.00011314,0.03363292,-0.00158765,-0.13944285,-0.98322563,-0.44209495,0.72234389,0.49370719,0.27236485,-0.04758378,0.90430663,0.01427221,0.06234237,-2.70828852,0.51419281,-0.12077873,-0.00411192,0.21506285,0.98322563
0.05400788,0.00065849,-0.78836067,-0.00019039,-2.21715456,0.00420417,1.58748069,0.78553330,0.01644121,-0.05193899,-0.00011485,0.27720538,-0.00013611,0.03209123,0.00001478,-0.13942115,-0.97754352,-0.44357978,0.70455977,0.49288052,0.26976812,-0.04757154,0.91631999,0.02165795,0.06802260,-2.80311608,0.51616546,-0.13215944,-0.01478562,0.21504126,0.97754352
0.05500803,0.00067834,-0.78841390,-0.00019247,-2.21689016,0.00420103,1.58750302,0.78553530,0.01742359,-0.05294201,-0.00067456,0.27402055,-0.00129171,0.02910647,0.00133232,-0.13875254,-0.96978561,-0.44417485,0.68466736,0.49200876,0.26701229,-0.04752539,0.93101049,0.02949455,0.08405705,-2.86587213,0.52464351,-0.13343566,-0.02340882,0.21502058,0.96978561
0.05600818,0.00069988,-0.78846608,-0.00019668,-2.21662726,0.00420650,1.58752770,0.78553309,0.01842053,-0.05236762,-0.00171178,0.27040110,0.00078899,0.02733779,-0.00118352,-0.13746208,-0.96052920,-0.44357042,0.66348101,0.49112024,0.26421435,-0.04745893,0.94554684,0.01532766,0.10683166,-2.92279460,0.51006010,-0.14355405,-0.00497953,0.21500001,0.96052920
0.05700832,0.00071654,-0.78851860,-0.00019704,-2.21637458,0.00420210,1.58755378,0.78553174,0.01780301,-0.05288150,-0.00148132,0.26595608,0.00022408,0.02738331,-0.00233161,-0.13525924,-0.95269059,-0.44123705,0.64326934,0.49031588,0.26156683,-0.04738608,0.98372943,0.01580480,0.11193961,-2.96764266,0.51452697,-0.16670732,0.00384778,0.21498023,0.95269059
0.05800847,0.00074053,-0.78857478,-0.00019270,-2.21612090,0.00420214,1.58757281,0.78554052,0.01946704,-0.05405594,0.00030580,0.26266749,0.00015167,0.02502079,0.00178395,-0.13247208,-0.94710963,-0.43833531,0.62500764,0.48961541,0.25914511,-0.04728257,0.98954194,0.02496382,0.09426140,-3.02945126,0.51534531,-0.17295922,-0.02466392,0.21496037,0.94710963
0.05900861,0.00076116,-0.78863422,-0.00019641,-2.21586616,0.00420191,1.58759378,0.78553761,0.02007380,-0.05579760,-0.00127593,0.26012767,0.00007055,0.02410865,0.00067111,-0.12975681,-0.94134120,-0.43624968,0.60742515,0.48895770,0.25684858,-0.04713885,1.01049616,0.04165804,0.12412284,-3.10245903,0.51622508,-0.18974279,-0.01597926,0.21494041,0.94134120
0.06000876,0.00078365,-0.78869618,-0.00019636,-2.21562288,0.00420183,1.58760998,0.78553613,0.02012555,-0.05791094,-0.00080498,0.25519957,-0.00009253,0.02241285,-0.00025479,-0.12686451,-0.93240921,-0.43428870,0.58891076,0.48833592,0.25452803,-0.04699166,1.03955507,0.06423230,0.12521777,-3.14140580,0.51770963,-0.20101806,-0.00866478,0.21492135,0.93240921
0.06100891,0.00080344,-0.78875656,-0.00019248,-2.21537589,0.00420256,1.58762124,0.78553690,0.01999674,-0.05890543,0.00076379,0.25369099,0.00008786,0.01998814,-0.00010822,-0.12357644,-0.91888848,-0.43243436,0.56871772,0.48774804,0.25208060,-0.04686521,1.07185565,0.06952402,0.11064190,-3.22907187,0.51678312,-0.20724626,-0.00895343,0.21490200,0.91888848
0.06200905,0.00083060,-0.78882318,-0.00019633,-2.21513947,0.00420493,1.58763461,0.78553372,0.02236652,-0.06059338,-0.00090823,0.24889209,0.00115601,0.01765936,-0.00020935,-0.12018739,-0.90070696,-0.43138735,0.54646572,0.48715141,0.24943333,-0.04675358,1.06816316,0.08609671,0.14090721,-3.27021409,0.50952906,-0.21445013,-0.00730842,0.21488347,0.90070696
0.06300920,0.00085454,-0.78888754,-0.00019841,-2.21490183,0.00420650,1.58764626,0.78552877,0.02232890,-0.06235294,-0.00158500,0.24535716,0.00086425,0.01605969,-0.00183180,-0.11648045,-0.87836563,-0.43006248,0.52246059,0.48655924,0.24660659,-0.04664806,1.09907599,0.10240183,0.15772303,-3.32968395,0.51187600,-0.22695012,0.00509190,0.21486483,0.87836563
0.06400934,0.00088494,-0.78895144,-0.00020019,-2.21467008,0.00420599,1.58765469,0.78553534,0.02501818,-0.06296525,-0.00169343,0.24089155,0.00106978,0.01444453,0.00031661,-0.11227387,-0.85304618,-0.42762892,0.49750018,0.48599462,0.24367472,-0.04653111,1.09130029,0.10283799,0.16585345,-3.37592833,0.51086041,-0.23938565,-0.00947368,0.21484666,0.85304618
0.06500949,0.00091358,-0.78902218,-0.00019628,-2.21444871,0.00420772,1.58766256,0.78553295,0.02660478,-0.06575696,0.00009856,0.23623784,0.00083095,0.01221947,-0.00032566,-0.10849531,-0.82581358,-0.42571024,0.47233196,0.48540410,0.24071795,-0.04639761,1.09968693,0.13355175,0.14710124,-3.41917268,0.51287488,-0.24782871,-0.00403949,0.21482929,0.82581358
0.06600964,0.00094243,-0.78909203,-0.00019384,-2.21422910,0.00420373,1.58766540,0.78552826,0.02708407,-0.06709765,0.00134005,0.23077038,-0.00027572,0.01074876,-0.00230261,-0.10618244,-0.79679067,-0.42667077,0.44761918,0.48472921,0.23782908,-0.04627952,1.12383902,0.14419223,0.13635280,-3.45123396,0.52126994,-0.26148987,0.01086145,0.21481206,0.79679067
0.06700978,0.00097773,-0.78916102,-0.00019817,-2.21400787,0.00420218,1.58766847,0.78553229,0.02944198,-0.06715951,0.00016560,0.22775387,-0.00101329,0.00794333,-0.00088143,-0.10525434,-0.76732907,-0.43066686,0.42414628,0.48400220,0.23505928,-0.04618011,1.12098331,0.13603817,0.15921092,-3.51824601,0.52695006,-0.26608552,0.00154953,0.21479470,0.76732907
0.06800993,0.00100785,-0.78923520,-0.00019833,-2.21380386,0.00420360,1.58766863,0.78553547,0.02955187,-0.06946770,-0.00011985,0.22114629,-0.00029833,0.00546951,0.00023956,-0.10488056,-0.73925125,-0.43576618,0.40268137,0.48332391,0.23242615,-0.04605420,1.15061139,0.16014031,0.16966248,-3.53389709,0.52234249,-0.27309536,-0.00560661,0.21477868,0.73925125
0.06901007,0.00103990,-0.78930777,-0.00019838,-2.21359659,0.00420290,1.58767136,0.78553567,0.03030469,-0.06972794,-0.00016500,0.21663534,0.00061633,0.00532057,0.00010172,-0.10424176,-0.71342306,-0.44036444,0.38402701,0.48279651,0.22997000,-0.04588637,1.17132491,0.15464058,0.17657217,-3.57950917,0.51647188,-0.29673998,-0.00379022,0.21476241,0.71342306
0.07001022,0.00107297,-0.78937724,-0.00019805,-2.21339729,0.00420140,1.58767147,0.78553180,0.03092461,-0.06946792,-0.00030802,0.21121023,0.00043259,0.00409690,-0.00015562,-0.10292028,-0.69184814,-0.44394984,0.36924408,0.48248109,0.22771917,-0.04570263,1.19406715,0.14152158,0.18474355,-3.61194308,0.51834567,-0.31294384,-0.00092396,0.21474675,0.69184814
0.07101037,0.00111185,-0.78944902,-0.00019770,-2.21320840,0.00420191,1.58766985,0.78553253,0.03247202,-0.06954364,0.00013085,0.20467625,0.00060363,0.00338377,-0.00023765,-0.10098877,-0.67751213,-0.44677547,0.35988927,0.48240595,0.22573620,-0.04551431,1.20350523,0.13314097,0.18447983,-3.62827548,0.51765448,-0.33287017,0.00049562,0.21473191,0.67751213
0.07201051,0.00114767,-0.78952377,-0.00019782,-2.21301456,0.00420335,1.58767122,0.78553317,0.03399994,-0.07043283,0.00006670,0.20101710,0.00071582,0.00218831,-0.00037132,-0.09889414,-0.67104774,-0.44954448,0.35635809,0.48253939,0.22402655,-0.04531746,1.21377421,0.13498985,0.19102574,-3.68599806,0.51733766,-0.34988496,0.00229675,0.21471668,0.67104774
0.07301066,0.00118518,-0.78960117,-0.00019549,-2.21283409,0.00420738,1.58766875,0.78552859,0.03519368,-0.07227015,0.00066798,0.19543862,0.00146223,0.00129493,-0.00153681,-0.09705312,-0.66952608,-0.45281404,0.35670992,0.48277674,0.22243358,-0.04511263,1.22889075,0.15033673,0.18798008,-3.71601995,0.51247170,-0.36905513,0.01159326,0.21470250,0.66952608
0.07401080,0.00122325,-0.78967717,-0.00019709,-2.21265691,0.00420437,1.58766955,0.78553568,0.03684015,-0.07280047,-0.00022021,0.18891356,0.00069819,0.00120828,0.00034138,-0.09554769,-0.67065725,-0.45653786,0.35977771,0.48305871,0.22089554,-0.04488174,1.23773790,0.14751961,0.20588686,-3.73282246,0.51853843,-0.39421943,-0.00099298,0.21468856,0.67065725
0.07501095,0.00126192,-0.78975488,-0.00019703,-2.21248809,0.00420686,1.58767079,0.78553877,0.03730852,-0.07468656,-0.00008008,0.18327207,0.00111814,0.00107446,0.00072472,-0.09407780,-0.67412325,-0.46001514,0.36570867,0.48340186,0.21945638,-0.04460592,1.26345396,0.16273800,0.20941771,-3.76173209,0.51606975,-0.41936976,-0.00289873,0.21467529,0.67412325
0.07601110,0.00130479,-0.78983236,-0.00019909,-2.21232318,0.00420373,1.58767308,0.78553677,0.03901668,-0.07528459,-0.00060882,0.17796455,0.00054202,0.00196172,-0.00013414,-0.09233139,-0.67919677,-0.46268628,0.37384532,0.48380614,0.21806367,-0.04431153,1.27154646,0.15967166,0.22211210,-3.79525428,0.52086435,-0.45192797,0.00415431,0.21466231,0.67919677
0.07701124,0.00134663,-0.78991415,-0.00019908,-2.21216500,0.00420614,1.58767139,0.78553444,0.03943642,-0.07707565,-0.00002427,0.17171436,0.00125213,0.00099607,-0.00085584,-0.09028794,-0.68523551,-0.46461537,0.38336151,0.48425230,0.21664310,-0.04404052,1.29819920,0.17346132,0.21924247,-3.81552284,0.51640184,-0.47156957,0.01027655,0.21464987,0.68523551
0.07801139,0.00138513,-0.78999462,-0.00020294,-2.21201488,0.00420450,1.58767194,0.78553886,0.03896251,-0.07745200,-0.00159836,0.16620679,0.00068248,0.00050241,-0.00025216,-0.08749440,-0.69233867,-0.46524794,0.39397019,0.48477663,0.21517426,-0.04380624,1.33788610,0.16706483,0.24696535,-3.84571589,0.52111285,-0.49483750,0.00679394,0.21463805,0.69233867
0.07901153,0.00143487,-0.79007844,-0.00020086,-2.21187199,0.00420370,1.58767310,0.78553265,0.04227963,-0.07927118,-0.00007805,0.15882885,0.00105385,0.00064527,-0.00248540,-0.08383059,-0.70102180,-0.46442275,0.40578846,0.48540440,0.21367609,-0.04361888,1.32360702,0.18080454,0.22988891,-3.84949263,0.51920416,-0.52283351,0.02371077,0.21462680,0.70102180
0.08001168,0.00148175,-0.79016014,-0.00020294,-2.21172985,0.00420344,1.58767450,0.78553830,0.04383327,-0.07991792,-0.00140447,0.15358831,0.00020099,0.00026520,0.00003450,-0.08028731,-0.71143712,-0.46346196,0.41882395,0.48607550,0.21216483,-0.04348003,1.33451005,0.17732506,0.25318674,-3.88355300,0.52585209,-0.54741667,0.00677513,0.21461561,0.71143712
0.08101183,0.00153076,-0.79024576,-0.00019908,-2.21160352,0.00420655,1.58767290,0.78553914,0.04493353,-0.08226430,0.00059356,0.14578866,0.00089133,-0.00005850,0.00071938,-0.07753661,-0.72297898,-0.46337733,0.43263169,0.48673907,0.21062627,-0.04336723,1.35202935,0.19777274,0.22951052,-3.88070604,0.52155856,-0.57248393,0.00293777,0.21460566,0.72297898
0.08201197,0.00157640,-0.79033165,-0.00020472,-2.21148114,0.00420752,1.58767497,0.78553144,0.04515596,-0.08297427,-0.00126510,0.13895390,0.00109582,0.00071585,-0.00111577,-0.07536920,-0.73533523,-0.46408284,0.44715125,0.48741724,0.20907786,-0.04328070,1.38228890,0.19527190,0.26073387,-3.89133690,0.52078125,-0.60562046,0.01717648,0.21459602,0.73533523
0.08301212,0.00162678,-0.79041295,-0.00020472,-2.21136616,0.00420848,1.58767049,0.78553433,0.04649377,-0.08272468,-0.00052224,0.13205263,0.00058166,0.00031761,-0.00024415,-0.07315286,-0.75012328,-0.46452563,0.46304096,0.48816923,0.20755378,-0.04322094,1.39681747,0.17823360,0.25484251,-3.90052598,0.52506341,-0.63043649,0.01195059,0.21458697,0.75012328
0.08401226,0.00168194,-0.79049755,-0.00020858,-2.21125174,0.00421007,1.58767329,0.78553807,0.04929353,-0.08325780,-0.00167582,0.12721763,0.00057134,0.00079515,0.00105331,-0.07086632,-0.76904259,-0.46430379,0.48028070,0.48897513,0.20600673,-0.04315834,1.39048336,0.17160691,0.27517014,-3.93918060,0.52578345,-0.66201992,0.00371266,0.21457795,0.76904259
0.08501241,0.00173160,-0.79058118,-0.00021245,-2.21114427,0.00420958,1.58767198,0.78553830,0.04945392,-0.08286361,-0.00238613,0.12163280,0.00002639,-0.00001923,0.00087850,-0.06858968,-0.79193974,-0.46307226,0.49759169,0.48977813,0.20429907,-0.04307760,1.42209642,0.15182568,0.28996399,-3.96698453,0.53038258,-0.68454820,0.00596743,0.21456948,0.79193974
0.08601256,0.00178561,-0.79066656,-0.00020893,-2.21105052,0.00420724,1.58767075,0.78553611,0.05095937,-0.08325661,0.00010591,0.11373850,-0.00018363,-0.00033041,0.00000304,-0.06634150,-0.81916940,-0.46118566,0.51481723,0.49056920,0.20240853,-0.04299638,1.43477878,0.14289783,0.25887764,-3.96143510,0.53274718,-0.71081957,0.01325889,0.21456210,0.81916940
0.08701270,0.00184196,-0.79075041,-0.00021350,-2.21096092,0.00420864,1.58767243,0.78553538,0.05220786,-0.08311730,-0.00100620,0.10620796,0.00064646,-0.00009345,-0.00002356,-0.06465529,-0.85197603,-0.46027442,0.53342242,0.49135177,0.20046124,-0.04292966,1.45094980,0.12618619,0.27887447,-3.96102403,0.52765189,-0.74129038,0.01454473,0.21455503,0.85197603
0.08801285,0.00189525,-0.79083219,-0.00021161,-2.21087112,0.00420936,1.58766952,0.78553614,0.05257966,-0.08220269,-0.00075883,0.10180748,0.00048106,-0.00115343,0.00054382,-0.06331395,-0.89084161,-0.46005010,0.55381514,0.49214786,0.19844774,-0.04286143,1.48006797,0.09719308,0.27927290,-4.00478907,0.52958444,-0.76270271,0.01161255,0.21454796,0.89084161
0.08901299,0.00195736,-0.79091222,-0.00021276,-2.21078744,0.00420960,1.58766592,0.78553690,0.05523838,-0.08150100,-0.00127672,0.09633500,0.00042539,-0.00258799,0.00101975,-0.06189895,-0.93524812,-0.45957385,0.57481486,0.49294716,0.19620156,-0.04276985,1.47640778,0.07078796,0.29006423,-4.03335660,0.53077300,-0.78167170,0.00932963,0.21454136,0.93524812
0.09001314,0.00200918,-0.79099447,-0.00021255,-2.21071283,0.00420649,1.58765994,0.78553842,0.05419689,-0.08163873,-0.00042125,0.08934510,-0.00075051,-0.00355492,0.00135200,-0.06038910,-0.98436047,-0.45881426,0.59577297,0.49374079,0.19367086,-0.04265225,1.52605983,0.05611323,0.28220977,-4.04025374,0.54000345,-0.80401089,0.00802779,0.21453548,0.98436047
0.09101329,0.00207217,-0.79106914,-0.00021248,-2.21064585,0.00420469,1.58765448,0.78553842,0.05709286,-0.07924325,-0.00033265,0.08356225,-0.00219294,-0.00501815,0.00113417,-0.05879396,-1.03866673,-0.45807563,0.61748680,0.49456514,0.19097155,-0.04252229,1.51955776,0.00452680,0.28434173,-4.06333908,0.55104169,-0.82309387,0.01066140,0.21453021,1.03866673
0.09201343,0.00213079,-0.79114712,-0.00022053,-2.21058612,0.00420586,1.58764786,0.78553387,0.05748384,-0.07858091,-0.00237391,0.07638310,-0.00163886,-0.00615019,-0.00113308,-0.05699955,-1.09986320,-0.45682651,0.64124009,0.49547481,0.18824168,-0.04239687,1.54885983,-0.02245231,0.31738784,-4.06684441,0.54797156,-0.84467053,0.02787934,0.21452550,1.09986320
0.09301358,0.00219180,-0.79122688,-0.00021524,-2.21052979,0.00420574,1.58763832,0.78553387,0.05810101,-0.07924079,0.00009166,0.07024015,-0.00151579,-0.00707201,-0.00071319,-0.05477647,-1.16693220,-0.45445777,0.66708812,0.49648471,0.18553753,-0.04227484,1.57510093,-0.03198244,0.28566878,-4.08491389,0.54799622,-0.86782964,0.02607427,0.21452107,1.16693220
0.09401372,0.00225532,-0.79130780,-0.00021268,-2.21048313,0.00420814,1.58762754,0.78553842,0.05944119,-0.07946566,0.00067174,0.06305243,-0.00144859,-0.00846920,0.00102303,-0.05267921,-1.23621080,-0.45260619,0.69395179,0.49750427,0.18286253,-0.04213327,1.59114826,-0.04746265,0.28036465,-4.08777652,0.54829603,-0.88779538,0.01483666,0.21451740,1.23621080
0.09501387,0.00231710,-0.79138159,-0.00021461,-2.21044681,0.00420920,1.58761871,0.78553225,0.06009477,-0.07719622,-0.00007589,0.05475084,-0.00085594,-0.00904220,-0.00156491,-0.05103889,-1.30744424,-0.45209864,0.72257348,0.49851539,0.18033529,-0.04195820,1.61729939,-0.09878327,0.29448560,-4.07410408,0.54501758,-0.91379119,0.03441371,0.21451454,1.30744424
0.09601402,0.00238097,-0.79146021,-0.00021634,-2.21040140,0.00420955,1.58760398,0.78553691,0.06094775,-0.07820047,-0.00028939,0.05172502,-0.00053711,-0.01121978,0.00066146,-0.04922268,-1.38112119,-0.45152510,0.75327947,0.49956205,0.17796598,-0.04174743,1.64060679,-0.10511083,0.30039563,-4.13604640,0.54368198,-0.92857213,0.01976390,0.21451097,1.38112119
0.09701416,0.00244316,-0.79153628,-0.00022231,-2.21037121,0.00420804,1.58758607,0.78553766,0.06197227,-0.07721325,-0.00173695,0.04517732,-0.00082219,-0.01247285,0.00063035,-0.04658982,-1.45407263,-0.44936740,0.78363813,0.50061145,0.17552434,-0.04149369,1.66197402,-0.13929863,0.32425123,-4.14729119,0.54669415,-0.94981243,0.02111967,0.21450860,1.45407263
0.09801431,0.00251347,-0.79161274,-0.00021524,-2.21034433,0.00420656,1.58756361,0.78553539,0.06404473,-0.07667109,0.00099969,0.03970766,-0.00097729,-0.01529484,-0.00036336,-0.04346324,-1.52488915,-0.44607936,0.81276803,0.50161870,0.17294869,-0.04121392,1.66811320,-0.16835684,0.28772851,-4.17357443,0.54879962,-0.96007708,0.02937813,0.21450651,1.52488915
0.09901445,0.00258390,-0.79169683,-0.00021868,-2.21032581,0.00420809,1.58753965,0.78553387,0.06541840,-0.07891469,0.00000545,0.03354893,0.00037201,-0.01781697,-0.00050560,-0.04090470,-1.59228376,-0.44373062,0.84058049,0.50252380,0.17029661,-0.04093986,1.68419445,-0.15736766,0.30421728,-4.19021153,0.54022483,-0.97260205,0.03164764,0.21450507,1.59228376
0.10001460,0.00265492,-0.79177021,-0.00022131,-2.21031269,0.00420658,1.58751594,0.78553842,0.06726537,-0.07623705,-0.00098716,0.02787395,-0.00039084,-0.02038166,0.00137130,-0.03892565,-1.65483176,-0.44205845,0.86674085,0.50334165,0.16759598,-0.04066708,1.69393384,-0.21699733,0.32104514,-4.21286430,0.54663001,-0.98498097,0.01949103,0.21450405,1.65483176
0.10101475,0.00272588,-0.79184933,-0.00021941,-2.21030625,0.00420810,1.58748563,0.78553918,0.06800594,-0.07739340,-0.00029909,0.02188092,0.00000306,-0.02326035,0.00152181,-0.03695246,-1.71419541,-0.43984173,0.89213506,0.50415230,0.16492884,-0.04038440,1.71938463,-0.22291402,0.31340996,-4.23113037,0.54478110,-0.99509142,0.01962056,0.21450357,1.71419541
0.10201489,0.00279540,-0.79192681,-0.00021769,-2.21030588,0.00420734,1.58745622,0.78553301,0.06789993,-0.07738107,0.00069892,0.01531379,-0.00025202,-0.02498871,-0.00108713,-0.03484092,-1.77057445,-0.43756099,0.91707132,0.50497399,0.16234432,-0.04012125,1.75713427,-0.24576151,0.30165552,-4.24096711,0.54761321,-1.01348072,0.03942319,0.21450357,1.77057445
0.10301504,0.00287252,-0.79201123,-0.00021771,-2.21030930,0.00420734,1.58742386,0.78553301,0.07038064,-0.07942842,0.00009007,0.00991692,-0.00005852,-0.02841432,-0.00059409,-0.03258296,-1.82186484,-0.43576541,0.94076288,0.50578025,0.15980716,-0.03989668,1.75800081,-0.23922286,0.31167846,-4.26747384,0.54725376,-1.02007581,0.03721269,0.21450387,1.82186484
0.10401518,0.00294654,-0.79209428,-0.00021772,-2.21031859,0.00420734,1.58738724,0.78554164,0.07151631,-0.08031815,-0.00020742,0.00444219,-0.00012887,-0.03093222,0.00220316,-0.03022523,-1.86547456,-0.43413626,0.96177232,0.50653017,0.15719875,-0.03967857,1.77832305,-0.24945862,0.31761175,-4.29252604,0.54877029,-1.03299519,0.01845258,0.21450463,1.86547456
0.10501533,0.00302188,-0.79218213,-0.00021950,-2.21033477,0.00420583,1.58734427,0.78554101,0.07288997,-0.08215691,-0.00091789,-0.00132188,-0.00130214,-0.03495162,0.00163919,-0.02758495,-1.89980494,-0.43190715,0.97909358,0.50721790,0.15440975,-0.03944619,1.79538989,-0.24605378,0.32922821,-4.31333441,0.55808680,-1.03529262,0.02369398,0.21450595,1.89980494
0.10601548,0.00309498,-0.79227581,-0.00021950,-2.21035835,0.00420507,1.58729761,0.78553337,0.07373101,-0.08614065,-0.00054168,-0.00808605,-0.00152216,-0.03864576,-0.00117220,-0.02441986,-1.92314460,-0.42869011,0.99227310,0.50786122,0.15139815,-0.03923593,1.82034113,-0.21225705,0.32509273,-4.31997643,0.56069144,-1.03990134,0.04502809,0.21450785,1.92314460
0.10701562,0.00317014,-0.79237117,-0.00022158,-2.21038043,0.00420658,1.58724558,0.78553237,0.07406732,-0.08881208,-0.00100746,-0.01175545,-0.00065574,-0.04253702,-0.00094951,-0.02054329,-1.93233080,-0.42450251,1.00007900,0.50844364,0.14807586,-0.03907622,1.85240948,-0.19708430,0.33301735,-4.37040703,0.55560256,-1.04305404,0.04480202,0.21450964,1.93233080
0.10801577,0.00325724,-0.79246618,-0.00021950,-2.21041006,0.00420507,1.58719124,0.78553619,0.07821726,-0.09091167,-0.00008152,-0.01701681,-0.00112542,-0.04674687,0.00041882,-0.01635063,-1.92619040,-0.42012464,1.00152123,0.50889173,0.14434239,-0.03893479,1.83002561,-0.19050534,0.32028784,-4.39792727,0.56001097,-1.04404292,0.03632577,0.21451203,1.92619040
0.10901591,0.00334412,-0.79256379,-0.00022337,-2.21043933,0.00420826,1.58712604,0.78553862,0.08099904,-0.09280537,-0.00123895,-0.02078071,-0.00066109,-0.05203605,0.00104567,-0.01297044,-1.90657102,-0.41689011,0.99711985,0.50912130,0.14022277,-0.03877770,1.82710778,-0.18654837,0.33752721,-4.44693339,0.55767295,-1.03712487,0.03311921,0.21451439,1.90657102
0.11001606,0.00342532,-0.79265595,-0.00022337,-2.21047123,0.00420933,1.58706227,0.78554044,0.08056988,-0.09270536,-0.00085775,-0.02408567,0.00017213,-0.05595415,0.00229728,-0.01043761,-1.87700053,-0.41455554,0.98804338,0.50914522,0.13578926,-0.03860438,1.87007479,-0.21185760,0.33350557,-4.50213518,0.55289978,-1.04004023,0.02558170,0.21451697,1.87700053
0.11101621,0.00351651,-0.79275480,-0.00022337,-2.21051122,0.00420968,1.58698728,0.78554156,0.08385204,-0.09432948,-0.00023421,-0.02904331,0.00117866,-0.06149397,0.00226234,-0.00823449,-1.84168901,-0.41275800,0.97591088,0.50901967,0.13115766,-0.03842351,1.86017070,-0.21245838,0.32507449,-4.53388076,0.54692749,-1.03125072,0.02709478,0.21452019,1.84168901
0.11201635,0.00360432,-0.79284904,-0.00022158,-2.21055419,0.00420661,1.58691290,0.78553997,0.08403629,-0.09456608,0.00031870,-0.03356054,0.00020095,-0.06539165,0.00123174,-0.00648888,-1.80417375,-0.41226825,0.96283404,0.50877961,0.12653413,-0.03824857,1.89431868,-0.23344943,0.31804960,-4.57166974,0.55505415,-1.03415049,0.03572301,0.21452365,1.80417375
0.11301650,0.00369490,-0.79295641,-0.00022545,-2.21060141,0.00420471,1.58683116,0.78554140,0.08604279,-0.09800891,-0.00132455,-0.03797235,-0.00039523,-0.06966376,0.00128693,-0.00471005,-1.76542535,-0.41236820,0.94974035,0.50849097,0.12203948,-0.03809977,1.90279301,-0.20763770,0.34147228,-4.61141805,0.56043344,-1.03428025,0.03660736,0.21452744,1.76542535
0.11401664,0.00378373,-0.79305240,-0.00022723,-2.21065047,0.00420210,1.58674524,0.78554364,0.08734882,-0.09732235,-0.00123648,-0.04207491,-0.00139975,-0.07382362,0.00114967,-0.00209030,-1.72528886,-0.41138830,0.93661644,0.50822322,0.11768326,-0.03799549,1.92159047,-0.24203671,0.34107391,-4.65494889,0.56875385,-1.03512542,0.03881115,0.21453139,1.72528886
0.11501679,0.00388063,-0.79316302,-0.00022936,-2.21070349,0.00420426,1.58665430,0.78553858,0.08981169,-0.10136556,-0.00163729,-0.04511912,-0.00105559,-0.07933186,-0.00012147,0.00141578,-1.68361692,-0.40904154,0.92307199,0.50798145,0.11341387,-0.03795011,1.92341541,-0.20829455,0.34632484,-4.71396006,0.56735839,-1.02652109,0.04932433,0.21453565,1.68361692
0.11601694,0.00397100,-0.79326949,-0.00022829,-2.21076368,0.00420742,1.58655763,0.78553923,0.09026138,-0.10215307,-0.00100908,-0.04931339,0.00005386,-0.08437985,0.00085220,0.00554410,-1.63877787,-0.40595346,0.90794462,0.50772047,0.10911695,-0.03796074,1.95446614,-0.22134171,0.33764403,-4.75594683,0.56060715,-1.02099036,0.04385087,0.21454049,1.63877787
0.11701708,0.00407054,-0.79337655,-0.00023204,-2.21082771,0.00420452,1.58645608,0.78553591,0.09276427,-0.10373492,-0.00242077,-0.05379202,-0.00025236,-0.08954993,-0.00097551,0.01033915,-1.59134392,-0.40222683,0.89145088,0.50744379,0.10477371,-0.03799981,1.95604939,-0.22312250,0.35753740,-4.79406000,0.56406719,-1.01454407,0.05819359,0.21454563,1.59134392
0.11801723,0.00417190,-0.79349420,-0.00022576,-2.21089520,0.00420543,1.58634746,0.78553640,0.09591603,-0.10845585,0.00063895,-0.05715256,0.00023654,-0.09431234,-0.00091832,0.01512446,-1.54107457,-0.39900776,0.87347134,0.50710102,0.10035937,-0.03805520,1.94828630,-0.18051550,0.31247758,-4.84806660,0.56172511,-1.01082637,0.05916137,0.21455105,1.54107457
0.11901737,0.00427757,-0.79360378,-0.00023155,-2.21096796,0.00420594,1.58624121,0.78553660,0.09860481,-0.10917511,-0.00112027,-0.06154198,0.00027928,-0.09751461,-0.00156540,0.01870794,-1.48567014,-0.39822168,0.85262448,0.50657605,0.09577055,-0.03811616,1.94713663,-0.19468401,0.33735175,-4.88706495,0.56260519,-1.01825761,0.06508339,0.21455688,1.48567014
0.12001752,0.00437774,-0.79372342,-0.00023397,-2.21105035,0.00420906,1.58613263,0.78553911,0.09842264,-0.11240967,-0.00140066,-0.06731185,0.00040096,-0.10029087,0.00001557,0.02164355,-1.42651343,-0.39867839,0.82945465,0.50592902,0.09102796,-0.03813877,1.98690267,-0.17254764,0.34101840,-4.90644783,0.56280113,-1.02875204,0.05530237,0.21456347,1.42651343
0.12101767,0.00447997,-0.79384672,-0.00023032,-2.21113057,0.00420934,1.58602451,0.78553985,0.09945009,-0.11605250,-0.00018532,-0.07083408,0.00029413,-0.10280418,-0.00054471,0.02513388,-1.36413959,-0.39862093,0.80420041,0.50525502,0.08612283,-0.03810512,2.00958117,-0.14484859,0.32234801,-4.95784963,0.56472068,-1.04129399,0.06060754,0.21456989,1.36413959
0.12201781,0.00458490,-0.79397328,-0.00022826,-2.21121743,0.00420882,1.58590600,0.78553833,0.10012020,-0.11953627,0.00057520,-0.07567746,0.00032213,-0.10673216,-0.00055377,0.02925105,-1.29642935,-0.39865379,0.77540699,0.50452181,0.08091668,-0.03804897,2.03725779,-0.11913243,0.31028593,-4.99038870,0.56575449,-1.04357740,0.06217702,0.21457684,1.29642935
0.12301796,0.00469714,-0.79410261,-0.00022965,-2.21131678,0.00421132,1.58578684,0.78554085,0.10407268,-0.12228666,-0.00007205,-0.08234631,0.00100476,-0.11092591,-0.00006756,0.03350879,-1.22375032,-0.39945522,0.74328526,0.50372756,0.07542747,-0.03799046,2.01850780,-0.10353623,0.31789445,-4.99625336,0.56206451,-1.04412564,0.06008709,0.21458478,1.22375032
0.12401810,0.00480295,-0.79422442,-0.00022947,-2.21141084,0.00420898,1.58566676,0.78554097,0.10420640,-0.12223093,0.00038092,-0.08633172,0.00025046,-0.11359083,-0.00056617,0.03761079,-1.15042332,-0.40085578,0.71006642,0.50293991,0.06981753,-0.03792029,2.05417811,-0.12899436,0.31090793,-5.04007209,0.56872815,-1.05545981,0.06502199,0.21459230,1.15042332
0.12501825,0.00490921,-0.79435465,-0.00022620,-2.21151842,0.00420986,1.58554386,0.78553888,0.10385383,-0.12395170,0.00062058,-0.09233449,-0.00009169,-0.11681820,0.00003062,0.04211312,-1.08166178,-0.40210481,0.67768511,0.50225480,0.06416352,-0.03782455,2.09680962,-0.12852021,0.30625877,-5.05486093,0.57234377,-1.06289816,0.06240847,0.21460089,1.08166178
0.12601840,0.00503066,-0.79448897,-0.00022961,-2.21162418,0.00420986,1.58541023,0.78554284,0.10933194,-0.12692727,-0.00034664,-0.09604826,-0.00039527,-0.12137017,0.00182493,0.04719776,-1.01847119,-0.40274836,0.64615003,0.50169896,0.05840980,-0.03768597,2.05630594,-0.11003803,0.31765214,-5.10238584,0.57569488,-1.06071703,0.05111732,0.21460934,1.01847119
0.12701854,0.00514207,-0.79461671,-0.00022837,-2.21173120,0.00420986,1.58527126,0.78554654,0.10906988,-0.12642205,-0.00009011,-0.09953880,-0.00019303,-0.12603092,0.00098516,0.05225815,-0.95973090,-0.40289941,0.61425023,0.50120596,0.05242824,-0.03750684,2.09761719,-0.14202321,0.31307990,-5.15258895,0.57558646,-1.05762031,0.05829044,0.21461789,0.95973090
0.12801869,0.00525359,-0.79475216,-0.00023241,-2.21185617,0.00421213,1.58513205,0.78554211,0.11020533,-0.12901447,-0.00107772,-0.10710250,0.00097603,-0.13022130,-0.00080647,0.05762850,-0.90682742,-0.40198540,0.58248193,0.50080510,0.04625279,-0.03732102,2.11956373,-0.12929045,0.32582786,-5.14474753,0.56858050,-1.05799806,0.07254093,0.21462786,0.90682742
0.12901883,0.00537809,-0.79489061,-0.00023247,-2.21198397,0.00421289,1.58499671,0.78554093,0.11500186,-0.13123813,-0.00050126,-0.11273683,0.00109157,-0.13169874,-0.00066253,0.06328183,-0.86031374,-0.40007204,0.55226589,0.50052672,0.04007665,-0.03715220,2.08894004,-0.12213324,0.31511813,-5.16370939,0.56899379,-1.07772203,0.07308879,0.21463804,0.86031374
0.13001898,0.00549549,-0.79502186,-0.00023428,-2.21211119,0.00421062,1.58486375,0.78554948,0.11470861,-0.13075264,-0.00103166,-0.11781357,-0.00020687,-0.13145918,0.00219900,0.06849940,-0.82014140,-0.39812696,0.52411197,0.50030956,0.03399561,-0.03697526,2.13077462,-0.15412393,0.32171776,-5.19047501,0.57954076,-1.10969365,0.05413694,0.21464818,0.82014140
0.13101913,0.00561977,-0.79515153,-0.00023042,-2.21224725,0.00421306,1.58472288,0.78554497,0.11780635,-0.13102998,0.00069451,-0.12425587,0.00005699,-0.13370784,0.00004218,0.07320924,-0.78883768,-0.39677406,0.49907049,0.50014359,0.02806768,-0.03677308,2.12445163,-0.17661408,0.29496695,-5.19731103,0.57887951,-1.12403466,0.07097812,0.21465901,0.78883768
0.13201927,0.00574627,-0.79528911,-0.00023042,-2.21238447,0.00421006,1.58457585,0.78554347,0.12041934,-0.13253181,0.00038943,-0.12819656,-0.00108749,-0.13791300,-0.00039395,0.07700766,-0.76719190,-0.39710944,0.47769679,0.50000602,0.02232640,-0.03657904,2.12488343,-0.18047650,0.29677532,-5.23973350,0.58835366,-1.12452861,0.07562977,0.21466994,0.76719190
0.13301942,0.00587635,-0.79542036,-0.00023429,-2.21252776,0.00421022,1.58442839,0.78554574,0.12328519,-0.13255438,-0.00123663,-0.13266226,-0.00140538,-0.14065188,0.00015732,0.07984366,-0.75296655,-0.39872181,0.45880925,0.49987403,0.01668685,-0.03640344,2.12180963,-0.20616087,0.31795635,-5.27419391,0.59192685,-1.13539928,0.07319137,0.21468135,0.75296655
0.13401956,0.00600323,-0.79555851,-0.00023043,-2.21267875,0.00420608,1.58427588,0.78554650,0.12361521,-0.13340094,0.00017435,-0.13764423,-0.00318335,-0.14324172,0.00047115,0.08247559,-0.74480047,-0.40014838,0.44167792,0.49978924,0.01111323,-0.03622800,2.15454557,-0.22021472,0.29551108,-5.30090399,0.60592101,-1.14722109,0.07249987,0.21469336,0.74480047
0.13501971,0.00613515,-0.79569244,-0.00023043,-2.21283778,0.00420676,1.58412200,0.78554802,0.12572476,-0.13374183,0.00038309,-0.14560051,-0.00224634,-0.14685096,0.00107940,0.08524212,-0.74312756,-0.40164290,0.42759528,0.49981638,0.00579038,-0.03605772,2.16225772,-0.24228037,0.29043923,-5.28523331,0.60069594,-1.15198923,0.06972163,0.21470601,0.74312756
0.13601986,0.00626378,-0.79582414,-0.00022869,-2.21299434,0.00420674,1.58396474,0.78554669,0.12701544,-0.13262769,0.00097586,-0.14816367,-0.00185630,-0.14993186,-0.00027092,0.08808798,-0.74920944,-0.40388922,0.41814694,0.50000169,0.00090660,-0.03591297,2.18186739,-0.28544278,0.27975356,-5.34534030,0.59935187,-1.16041206,0.08080312,0.21471846,0.74920944
0.13702000,0.00639400,-0.79595661,-0.00023327,-2.21315115,0.00421144,1.58380079,0.78554776,0.12762177,-0.13369147,-0.00099333,-0.15096374,-0.00092981,-0.15185666,0.00071668,0.09156573,-0.76182178,-0.40582342,0.41182050,0.50032784,-0.00369567,-0.03579698,2.21119808,-0.29708703,0.30548725,-5.40295622,0.59403119,-1.17674792,0.07540440,0.21473093,0.76182178
0.13802015,0.00653061,-0.79609026,-0.00023345,-2.21331900,0.00421250,1.58364340,0.78554812,0.13063699,-0.13411368,-0.00130718,-0.15589797,0.00049888,-0.15395366,0.00088380,0.09638491,-0.77743085,-0.40559753,0.40598449,0.50075113,-0.00825246,-0.03568220,2.20629547,-0.31867428,0.30708334,-5.42943355,0.58536239,-1.19235475,0.07579632,0.21474426,0.77743085
0.13902029,0.00666280,-0.79622258,-0.00023495,-2.21349794,0.00420814,1.58348117,0.78554662,0.13118427,-0.13365347,-0.00126043,-0.16303926,-0.00061622,-0.15673311,-0.00015482,0.10233167,-0.79585367,-0.40312855,0.40154784,0.50127496,-0.01263514,-0.03553784,2.23666718,-0.35348402,0.30442525,-5.42389462,0.59480821,-1.20307803,0.08473293,0.21475847,0.79585367
0.14002044,0.00680714,-0.79635631,-0.00022738,-2.21367780,0.00420963,1.58331415,0.78555207,0.13494490,-0.13412725,0.00062806,-0.16877142,-0.00036447,-0.15979850,0.00172781,0.10837853,-0.81935935,-0.40042463,0.40134982,0.50191124,-0.01652986,-0.03534649,2.22074515,-0.37569339,0.27361634,-5.43815970,0.59434445,-1.21171910,0.07288156,0.21477275,0.81935935
0.14102059,0.00694013,-0.79648824,-0.00022891,-2.21386339,0.00421038,1.58314805,0.78555208,0.13530869,-0.13326934,-0.00027687,-0.17339861,-0.00030711,-0.16268967,0.00101957,0.11362604,-0.84854735,-0.39924517,0.40636613,0.50263291,-0.01983061,-0.03511234,2.25403114,-0.41643091,0.28416739,-5.46756568,0.59535853,-1.22173331,0.07944606,0.21478747,0.84854735
0.14202073,0.00708192,-0.79662661,-0.00023086,-2.21405220,0.00420977,1.58296580,0.78554531,0.13734307,-0.13468835,-0.00056440,-0.17675980,-0.00021108,-0.16897267,-0.00212919,0.11840432,-0.88154046,-0.39881102,0.41512203,0.50343281,-0.02269547,-0.03487022,2.26298542,-0.42438881,0.28485843,-5.51490793,0.59612757,-1.20735473,0.10343998,0.21480246,0.88154046
0.14302088,0.00721969,-0.79676098,-0.00022938,-2.21424531,0.00420985,1.58278654,0.78555016,0.13684795,-0.13519881,-0.00006432,-0.18180700,-0.00062383,-0.17361210,0.00056739,0.12340885,-0.91492091,-0.39786747,0.42539819,0.50431413,-0.02532200,-0.03462399,2.30799351,-0.44631527,0.27470206,-5.53819541,0.60045574,-1.20475713,0.08594566,0.21481778,0.91492091
0.14402102,0.00736586,-0.79689409,-0.00022889,-2.21444976,0.00421226,1.58259839,0.78555592,0.14060438,-0.13485645,0.00006411,-0.18807252,0.00069758,-0.17669745,0.00231450,0.12849580,-0.94792159,-0.39672801,0.43706491,0.50527975,-0.02771965,-0.03432088,2.29293116,-0.48109864,0.26946894,-5.54316759,0.59252796,-1.21273938,0.07506454,0.21483399,0.94792159
0.14502117,0.00751561,-0.79703405,-0.00022699,-2.21465136,0.00421151,1.58241221,0.78555452,0.14360333,-0.13715598,0.00114054,-0.19227998,0.00024510,-0.17793104,0.00101102,0.13250789,-0.98055711,-0.39689398,0.45044479,0.50625861,-0.02987044,-0.03395193,2.28795240,-0.47745260,0.24966185,-5.57800652,0.59712738,-1.23391875,0.08589659,0.21484997,0.98055711
0.14602132,0.00766525,-0.79717669,-0.00022938,-2.21486628,0.00421076,1.58222525,0.78555608,0.14465396,-0.13873072,-0.00023730,-0.19891658,-0.00006131,-0.18061112,0.00178365,0.13488256,-1.01013263,-0.39879917,0.46422914,0.50716762,-0.03187660,-0.03356831,2.31082562,-0.48362556,0.26574505,-5.57769339,0.60077457,-1.24505424,0.08205888,0.21486699,1.01013263
0.14702146,0.00781298,-0.79732450,-0.00022894,-2.21507972,0.00421623,1.58203021,0.78555466,0.14528453,-0.14220284,0.00017403,-0.20294367,0.00141768,-0.18525189,0.00046831,0.13657436,-1.03338299,-0.40081102,0.47684132,0.50803067,-0.03383613,-0.03321093,2.33959620,-0.46251554,0.25533515,-5.61453426,0.59157230,-1.24219524,0.09299039,0.21488390,1.03338299
0.14802161,0.00796121,-0.79747041,-0.00022770,-2.21530563,0.00421485,1.58183289,0.78555736,0.14652043,-0.14305299,0.00013557,-0.21044344,0.00106683,-0.19038511,0.00130806,0.13836048,-1.04892371,-0.40198263,0.48767980,0.50888197,-0.03575300,-0.03288885,2.36030235,-0.47976823,0.25199991,-5.60104644,0.59557221,-1.23589805,0.08864584,0.21490179,1.04892371
0.14902175,0.00811730,-0.79762019,-0.00022967,-2.21553275,0.00421501,1.58162825,0.78555999,0.14961590,-0.14470164,-0.00070550,-0.21450125,0.00106768,-0.19436842,0.00149292,0.14024379,-1.05852851,-0.40234071,0.49753199,0.50973059,-0.03754664,-0.03258166,2.35426733,-0.48474207,0.25944687,-5.63606127,0.59701636,-1.23739756,0.08889265,0.21491977,1.05852851
0.15002190,0.00826774,-0.79777964,-0.00023359,-2.21576877,0.00421483,1.58141995,0.78555935,0.15013147,-0.14893927,-0.00189607,-0.22152502,-0.00019353,-0.19790765,0.00114927,0.14236733,-1.06229159,-0.40119762,0.50604441,0.51056748,-0.03922991,-0.03228110,2.38506401,-0.45174842,0.27182173,-5.62946201,0.60731089,-1.24196671,0.09300744,0.21493844,1.06229159
0.15102205,0.00842635,-0.79793107,-0.00023148,-2.21601095,0.00421338,1.58122470,0.78555625,0.15233623,-0.15032724,-0.00103727,-0.22708596,-0.00050485,-0.19674740,-0.00044132,0.14499341,-1.05868052,-0.39818878,0.51213234,0.51138349,-0.04088238,-0.03200546,2.39147907,-0.46121891,0.25479062,-5.64210080,0.61101791,-1.28018805,0.10598511,0.21495758,1.05868052
0.15202219,0.00858057,-0.79809189,-0.00023291,-2.21625820,0.00421264,1.58102235,0.78556111,0.15353088,-0.15313848,-0.00085644,-0.23181340,-0.00003064,-0.19829810,0.00088810,0.14782373,-1.04813053,-0.39447033,0.51516301,0.51213916,-0.04263796,-0.03175755,2.41260748,-0.44904879,0.24731523,-5.66644374,0.60919359,-1.29919319,0.09813005,0.21497711,1.04813053
0.15302234,0.00874229,-0.79824921,-0.00023725,-2.21650809,0.00421554,1.58081171,0.78556056,0.15522674,-0.15493164,-0.00196744,-0.23805422,0.00090638,-0.20202508,0.00025300,0.15079680,-1.03160759,-0.39051884,0.51459481,0.51281018,-0.04465310,-0.03151626,2.42641705,-0.45209061,0.25878709,-5.66927219,0.60399512,-1.30266702,0.10430913,0.21499685,1.03160759
0.15402248,0.00890371,-0.79840595,-0.00023740,-2.21676273,0.00421627,1.58059761,0.78556092,0.15753532,-0.15484104,-0.00141747,-0.24289201,0.00051050,-0.20603781,0.00049797,0.15408774,-1.01213170,-0.38604978,0.51142443,0.51342471,-0.04693947,-0.03125911,2.43168947,-0.48285766,0.24636783,-5.69082595,0.60823471,-1.30406865,0.10429324,0.21501696,1.01213170
0.15502263,0.00906943,-0.79856804,-0.00023959,-2.21702300,0.00421579,1.58037579,0.78556498,0.15989890,-0.15779244,-0.00161272,-0.24815374,-0.00006805,-0.21053381,0.00159422,0.15733908,-0.99260479,-0.38171881,0.50658838,0.51396685,-0.04948441,-0.03097064,2.43581584,-0.46938121,0.24367804,-5.70673391,0.61378260,-1.30183193,0.09813610,0.21503751,0.99260479
0.15602278,0.00923724,-0.79873139,-0.00024240,-2.21729233,0.00421689,1.58015407,0.78556997,0.16120294,-0.15883775,-0.00212550,-0.25425956,0.00077593,-0.21390543,0.00285617,0.16047339,-0.97320203,-0.37774012,0.49993775,0.51443736,-0.05229871,-0.03064448,2.45497051,-0.48330144,0.24639515,-5.70966704,0.60934859,-1.30757239,0.09078415,0.21505875,0.97320203
0.15702292,0.00940136,-0.79890497,-0.00024828,-2.21757301,0.00421701,1.57994289,0.78557034,0.16276951,-0.16285269,-0.00390412,-0.26179419,0.00093503,-0.21286321,0.00237494,0.16422849,-0.95352406,-0.37282175,0.49162988,0.51492138,-0.05534569,-0.03029698,2.47097717,-0.45309545,0.26644591,-5.69246053,0.60972921,-1.34486420,0.09586625,0.21508087,0.95352406
0.15802307,0.00957168,-0.79907561,-0.00025049,-2.21785148,0.00421856,1.57971890,0.78556596,0.16483187,-0.16500714,-0.00312436,-0.26764657,0.00113254,-0.21567891,0.00010585,0.16908159,-0.93248533,-0.36614237,0.48163061,0.51546618,-0.05860793,-0.02997144,2.47931140,-0.45096424,0.24989525,-5.69842806,0.60976117,-1.35460765,0.11371353,0.21510282,0.93248533
0.15902321,0.00973354,-0.79924526,-0.00025331,-2.21813486,0.00422020,1.57949612,0.78557402,0.16458812,-0.16590920,-0.00278935,-0.27291692,0.00148740,-0.21873870,0.00268957,0.17488000,-0.91036033,-0.35856672,0.46994967,0.51604139,-0.06209115,-0.02967899,2.52106684,-0.46689324,0.24040681,-5.71195736,0.60873948,-1.36278578,0.09697714,0.21512514,0.91036033
0.16002336,0.00991612,-0.79942038,-0.00025569,-2.21843093,0.00421858,1.57926318,0.78557783,0.17043533,-0.16780088,-0.00250904,-0.27965046,0.00051079,-0.22365509,0.00382249,0.18092915,-0.88942462,-0.35161482,0.45753611,0.51658866,-0.06572357,-0.02938242,2.47556952,-0.46880253,0.23014097,-5.70378703,0.61714046,-1.35759986,0.09062021,0.21514845,0.88942462
0.16102351,0.01008798,-0.79958649,-0.00026039,-2.21872800,0.00421707,1.57903218,0.78557679,0.16974677,-0.16803732,-0.00301914,-0.28557265,-0.00006759,-0.22619083,0.00259753,0.18652862,-0.87203439,-0.34603520,0.44588964,0.51708231,-0.06935525,-0.02906921,2.52303764,-0.49510316,0.23302848,-5.70689260,0.62284994,-1.36924177,0.10101716,0.21517183,0.87203439
0.16202365,0.01026313,-0.79975661,-0.00026736,-2.21903838,0.00421707,1.57880209,0.78557695,0.17230468,-0.16821329,-0.00455607,-0.29316020,-0.00047956,-0.22627508,0.00240581,0.19236536,-0.86134020,-0.34037660,0.43687727,0.51762661,-0.07284255,-0.02875056,2.52510098,-0.52207389,0.25031588,-5.68542206,0.62731821,-1.39821071,0.10413185,0.21519623,0.86134020
0.16302380,0.01044130,-0.79991963,-0.00026488,-2.21934432,0.00421707,1.57857154,0.78558022,0.17371163,-0.16642016,-0.00176924,-0.29730911,-0.00013951,-0.22764008,0.00237896,0.19873626,-0.86089041,-0.33425107,0.43210903,0.51828626,-0.07610492,-0.02842879,2.54252072,-0.57940663,0.20533660,-5.71178081,0.62648573,-1.41826372,0.10594586,0.21522027,0.86089041
0.16402394,0.01063056,-0.80008705,-0.00026207,-2.21966213,0.00422264,1.57833864,0.78557817,0.17922967,-0.16687988,-0.00055785,-0.30335951,0.00104980,-0.23017384,0.00064961,0.20387733,-0.87221280,-0.33087405,0.43184512,0.51892324,-0.07912881,-0.02811018,2.50158245,-0.60413617,0.18137384,-5.71085926,0.61939668,-1.43015020,0.11995116,0.21524524,0.87221280
0.16502409,0.01081296,-0.80025476,-0.00026069,-2.21998499,0.00422371,1.57809248,0.78558247,0.18038980,-0.16666446,0.00045640,-0.30906552,0.00127414,-0.23515970,0.00184739,0.20614656,-0.89418195,-0.33277191,0.43569405,0.51940064,-0.08187166,-0.02779163,2.52252277,-0.63859629,0.16116874,-5.71425884,0.61934669,-1.42428669,0.11315679,0.21527059,0.89418195
0.16602424,0.01099354,-0.80042693,-0.00025979,-2.22031034,0.00422320,1.57784700,0.78558755,0.17960359,-0.16890797,0.00117823,-0.31449855,0.00143498,-0.23908757,0.00285595,0.20612741,-0.92353277,-0.33900775,0.44269084,0.51973598,-0.08429614,-0.02744880,2.57085969,-0.63683110,0.14444492,-5.72204246,0.61979839,-1.42594824,0.10764685,0.21529613,0.92353277
0.16702438,0.01118161,-0.80059526,-0.00025904,-2.22064551,0.00422494,1.57760762,0.78558946,0.18164755,-0.16869703,0.00144935,-0.31947274,0.00185254,-0.23770887,0.00225026,0.20530187,-0.95627572,-0.34737550,0.45093372,0.51998680,-0.08647465,-0.02707699,2.57922675,-0.67088787,0.13447895,-5.73478447,0.61836364,-1.46514730,0.11360678,0.21532241,0.95627572
0.16802453,0.01136585,-0.80075329,-0.00026008,-2.22098617,0.00422650,1.57736910,0.78558664,0.18274438,-0.16540956,0.00050668,-0.32623444,0.00212739,-0.23808634,-0.00037845,0.20442089,-0.99374840,-0.35601155,0.46071247,0.52022522,-0.08840478,-0.02670492,2.60189719,-0.75107487,0.14344965,-5.72128211,0.61803964,-1.49219385,0.13398229,0.21534911,0.99374840
0.16902467,0.01155592,-0.80092733,-0.00025483,-2.22132392,0.00423209,1.57713161,0.78559093,0.18504494,-0.16795999,0.00198435,-0.32932659,0.00342172,-0.23899631,0.00089412,0.20346727,-1.03804946,-0.36409054,0.47258770,0.52046843,-0.09009100,-0.02634934,2.60626464,-0.74500646,0.11423240,-5.76075398,0.61020391,-1.51562428,0.12668087,0.21537556,1.03804946
0.17002482,0.01174049,-0.80109240,-0.00025952,-2.22167992,0.00423153,1.57688658,0.78560251,0.18485669,-0.16618895,-0.00014862,-0.33721571,0.00218720,-0.24120405,0.00484076,0.20241056,-1.08676523,-0.37108387,0.48527640,0.52068031,-0.09164637,-0.02598508,2.64725042,-0.80276792,0.14008838,-5.73046024,0.62057147,-1.52971175,0.10032113,0.21540343,1.08676523
0.17102497,0.01193231,-0.80126282,-0.00025772,-2.22204157,0.00423357,1.57663223,0.78560421,0.18699937,-0.16782209,0.00038346,-0.34570737,0.00237367,-0.24420009,0.00311167,0.20169535,-1.13981522,-0.37573895,0.50006201,0.52095527,-0.09297458,-0.02559770,2.65438810,-0.81216203,0.12546973,-5.69164009,0.62073773,-1.53793710,0.11418855,0.21543173,1.13981522
0.17202511,0.01212072,-0.80143452,-0.00025216,-2.22240441,0.00423004,1.57638583,0.78560113,0.18771165,-0.16906736,0.00162140,-0.34998354,0.00091269,-0.24496218,0.00153470,0.20092381,-1.19594680,-0.37867861,0.51748324,0.52131737,-0.09405089,-0.02522524,2.68167463,-0.82610425,0.10002732,-5.71180733,0.63269393,-1.56221572,0.12722728,0.21546010,1.19594680
0.17302526,0.01231988,-0.80160412,-0.00025398,-2.22277369,0.00422851,1.57614145,0.78560488,0.19110959,-0.16886986,0.00030118,-0.35560918,-0.00046788,-0.24508486,0.00226666,0.19925558,-1.25142308,-0.38128345,0.53498460,0.52167077,-0.09513153,-0.02488143,2.67106619,-0.86099129,0.11223396,-5.71224710,0.64405410,-1.59116249,0.12377654,0.21548894,1.25142308
0.17402541,0.01252220,-0.80177840,-0.00025607,-2.22315586,0.00423234,1.57589189,0.78561002,0.19414948,-0.17155349,-0.00062685,-0.36341117,0.00032881,-0.24786485,0.00369581,0.19632786,-1.30454863,-0.38330433,0.55138804,0.52200606,-0.09632762,-0.02452491,2.66514123,-0.85467120,0.11799762,-5.68145640,0.63986937,-1.60136074,0.11538107,0.21551878,1.30454863
0.17502555,0.01271560,-0.80195726,-0.00024448,-2.22354175,0.00423561,1.57562731,0.78561907,0.19373616,-0.17335829,0.00358904,-0.36833333,0.00160129,-0.25355695,0.00558247,0.19162687,-1.35303631,-0.38593907,0.56635044,0.52229603,-0.09761477,-0.02413761,2.70756651,-0.86184424,0.04890992,-5.68998529,0.63231462,-1.59047667,0.10359335,0.21554890,1.35303631
0.17602570,0.01291757,-0.80214417,-0.00024835,-2.22392855,0.00423838,1.57534972,0.78561909,0.19614607,-0.17684059,0.00098511,-0.37423907,0.00180709,-0.26024565,0.00397924,0.18507310,-1.39336306,-0.39074528,0.57853450,0.52246734,-0.09904479,-0.02375386,2.71084907,-0.84161387,0.07809387,-5.68573120,0.63235070,-1.57202266,0.11668935,0.21557909,1.39336306
0.17702584,0.01311980,-0.80232031,-0.00025226,-2.22432146,0.00423641,1.57508426,0.78562488,0.19779921,-0.17719920,-0.00016908,-0.37876355,0.00139321,-0.26269615,0.00487802,0.17775177,-1.42386983,-0.39570441,0.58690810,0.52254067,-0.10067076,-0.02339527,2.72475242,-0.86819701,0.08763837,-5.69939074,0.63698410,-1.58389864,0.11199349,0.21560972,1.42386983
0.17802599,0.01332388,-0.80250257,-0.00024698,-2.22471258,0.00423529,1.57481000,0.78563685,0.19936346,-0.17807614,0.00107681,-0.38039468,0.00042005,-0.26546680,0.00752223,0.17050266,-1.44556324,-0.39916398,0.59065482,0.52252877,-0.10256387,-0.02304140,2.73917352,-0.88666861,0.06102166,-5.75371731,0.64541487,-1.59312752,0.09477045,0.21564020,1.44556324
0.17902614,0.01352834,-0.80268647,-0.00024650,-2.22511714,0.00423769,1.57454245,0.78564443,0.20026348,-0.17995648,0.00094834,-0.38802068,0.00055610,-0.26716243,0.00783796,0.16337106,-1.45991636,-0.40207350,0.58949514,0.52241684,-0.10472022,-0.02268668,2.76347562,-0.89173168,0.05498566,-5.72307109,0.64595176,-1.61036532,0.09408072,0.21567170,1.45991636
0.18002628,0.01373734,-0.80287863,-0.00025021,-2.22553051,0.00424331,1.57425782,0.78565143,0.20354403,-0.18341191,-0.00064349,-0.39437881,0.00166460,-0.27236913,0.00862768,0.15655232,-1.46771898,-0.40452564,0.58504501,0.52228342,-0.10692393,-0.02235388,2.75423981,-0.87243219,0.06914331,-5.70968441,0.63950958,-1.60222043,0.09010527,0.21570387,1.46771898
0.18102643,0.01395408,-0.80306061,-0.00025016,-2.22594270,0.00424521,1.57397385,0.78565507,0.20728539,-0.18321398,-0.00029388,-0.39979816,0.00208622,-0.27398648,0.00797924,0.14983881,-1.47020166,-0.40640842,0.57916955,0.52215562,-0.10901098,-0.02205915,2.73779795,-0.90804635,0.05625461,-5.70847832,0.63807416,-1.61929956,0.09637964,0.21573594,1.47020166
0.18202657,0.01417185,-0.80325180,-0.00025400,-2.22635294,0.00424360,1.57369235,0.78566261,0.20845158,-0.18548488,-0.00160210,-0.40257204,0.00079761,-0.27696255,0.00775197,0.14304754,-1.46888601,-0.40800181,0.57200132,0.52197598,-0.11107824,-0.02180311,2.75728182,-0.90499848,0.06640112,-5.74552153,0.64878569,-1.62697873,0.09950054,0.21576782,1.46888601
0.18302672,0.01438542,-0.80344360,-0.00025820,-2.22679073,0.00424489,1.57340067,0.78567430,0.21017785,-0.18717317,-0.00211382,-0.41111330,0.00078972,-0.28143793,0.00888658,0.13702144,-1.46429619,-0.40846979,0.56345456,0.52179051,-0.11320092,-0.02155918,2.76972951,-0.91307060,0.06597587,-5.69845232,0.65041328,-1.62382690,0.09290482,0.21580182,1.46429619
0.18402687,0.01460009,-0.80364450,-0.00025678,-2.22721795,0.00424216,1.57310108,0.78568799,0.21141541,-0.19218535,-0.00106048,-0.41716998,0.00075675,-0.28663037,0.01103626,0.13232010,-1.45570867,-0.40778079,0.55467169,0.52170749,-0.11523732,-0.02128869,2.78823284,-0.87138932,0.04060454,-5.68808490,0.65230067,-1.61527073,0.07909379,0.21583499,1.45570867
0.18502701,0.01482528,-0.80383880,-0.00026022,-2.22765542,0.00424302,1.57279664,0.78569920,0.21496786,-0.19211110,-0.00135585,-0.42179004,0.00165444,-0.29191714,0.01078952,0.12852695,-1.44211890,-0.40738250,0.54607903,0.52173559,-0.11714509,-0.02098960,2.77411720,-0.90407949,0.03674281,-5.69541663,0.64761302,-1.60585788,0.08220332,0.21586894,1.44211890
0.18602716,0.01504858,-0.80403724,-0.00026285,-2.22808918,0.00424356,1.57248536,0.78570685,0.21753150,-0.19335922,-0.00157791,-0.42730012,0.00150017,-0.29681950,0.01006987,0.12515867,-1.42572244,-0.40806265,0.53820301,0.52184693,-0.11897283,-0.02068620,2.77400192,-0.91727202,0.03125625,-5.69107177,0.65028679,-1.59885420,0.08880375,0.21590258,1.42572244
0.18702730,0.01527799,-0.80423089,-0.00026096,-2.22854019,0.00424668,1.57217077,0.78572302,0.22137122,-0.19344478,-0.00080798,-0.43398957,0.00153810,-0.30361214,0.01197944,0.12178654,-1.41079394,-0.41032803,0.53308194,0.52204243,-0.12057801,-0.02038024,2.75552065,-0.94947886,0.01134990,-5.66771075,0.65148638,-1.57854598,0.07659029,0.21593753,1.41079394
0.18802745,0.01550663,-0.80442338,-0.00026315,-2.22900159,0.00424621,1.57184247,0.78573247,0.22454495,-0.19184525,-0.00108488,-0.44138713,0.00071989,-0.31175841,0.01062051,0.11787135,-1.40257760,-0.41492881,0.53411575,0.52235712,-0.12159196,-0.02005426,2.74694684,-1.00660344,0.00778768,-5.63292104,0.65893821,-1.54814697,0.08760635,0.21597326,1.40257760
0.18902760,0.01573837,-0.80461604,-0.00026210,-2.22944179,0.00424807,1.57151969,0.78575284,0.22572757,-0.19216879,-0.00040157,-0.44052738,0.00160030,-0.31280550,0.01379986,0.11351830,-1.40355098,-0.42165900,0.54166103,0.52277876,-0.12193718,-0.01969290,2.76515305,-1.03221613,-0.01163438,-5.71689226,0.65427948,-1.56758878,0.06628232,0.21600734,1.40355098
0.19002774,0.01596517,-0.80481224,-0.00026026,-2.22989984,0.00425132,1.57119482,0.78576329,0.22573066,-0.19287481,0.00057510,-0.44579457,0.00242221,-0.31668934,0.01222337,0.10959569,-1.40974995,-0.42970491,0.55113733,0.52319544,-0.12201582,-0.01929586,2.80070915,-1.05456282,-0.03470097,-5.71304615,0.64999606,-1.56723077,0.07876483,0.21604276,1.40974995
0.19102789,0.01619858,-0.80501120,-0.00026455,-2.23037365,0.00425299,1.57086671,0.78578079,0.22721679,-0.19435245,-0.00108185,-0.45268187,0.00218244,-0.32031365,0.01383015,0.10717887,-1.41787056,-0.43767349,0.56054183,0.52360883,-0.12195236,-0.01887915,2.81552678,-1.06503158,-0.01968723,-5.68525018,0.65326827,-1.56859097,0.06861973,0.21607937,1.41787056
0.19202803,0.01644103,-0.80520175,-0.00026143,-2.23084160,0.00425457,1.57052263,0.78578353,0.23161757,-0.19422990,0.00051233,-0.45780585,0.00204764,-0.32811972,0.01060766,0.10624451,-1.42800044,-0.44491847,0.57128043,0.52405728,-0.12153986,-0.01845727,2.78813231,-1.10151563,-0.05236160,-5.68154345,0.65573194,-1.53993521,0.09303218,0.21611552,1.42800044
0.19302818,0.01667214,-0.80541151,-0.00026346,-2.23131716,0.00425412,1.57018588,0.78580214,0.23135651,-0.19914916,-0.00053309,-0.46255307,0.00102785,-0.32864596,0.01351619,0.10600603,-1.43762759,-0.45203013,0.58245027,0.52445932,-0.12083871,-0.01802451,2.82714638,-1.05941672,-0.04834477,-5.68462780,0.66447042,-1.56256569,0.07370901,0.21615222,1.43762759
0.19402833,0.01691437,-0.80561496,-0.00026567,-2.23179153,0.00425286,1.56983877,0.78581619,0.23462432,-0.19955215,-0.00091802,-0.46660411,0.00069958,-0.33449034,0.01414650,0.10663921,-1.44175009,-0.45824358,0.59100465,0.52476805,-0.12019983,-0.01755200,2.81609736,-1.08516514,-0.05241840,-5.69576238,0.66847091,-1.54751669,0.07058918,0.21618881,1.44175009
0.19502847,0.01716458,-0.80581508,-0.00026254,-2.23228554,0.00425298,1.56947775,0.78583197,0.24008490,-0.20018810,0.00053203,-0.47461325,0.00062517,-0.34355718,0.01450182,0.10732597,-1.44128436,-0.46421540,0.59735478,0.52498638,-0.11972120,-0.01703349,2.77350236,-1.11115824,-0.08354893,-5.64877169,0.67057739,-1.50936547,0.06932988,0.21622689,1.44128436
0.19602862,0.01741023,-0.80602859,-0.00026101,-2.23277658,0.00425302,1.56911180,0.78584251,0.24152245,-0.20417141,0.00122131,-0.47822436,0.00047778,-0.34888906,0.01306446,0.10634255,-1.43853599,-0.47251612,0.60316472,0.52509000,-0.11932993,-0.01649848,2.78722175,-1.08354839,-0.10532495,-5.66521499,0.67314843,-1.49701246,0.08085551,0.21626471,1.43853599
0.19702876,0.01766627,-0.80624330,-0.00026322,-2.23326848,0.00425936,1.56875416,0.78586227,0.24467717,-0.20750456,0.00051975,-0.48360153,0.00203924,-0.35229013,0.01507391,0.10363829,-1.42979322,-0.48326287,0.60612159,0.52504581,-0.11923617,-0.01596699,2.77653867,-1.06540471,-0.10634034,-5.65671715,0.66348698,-1.49865188,0.06780468,0.21630257,1.42979322
0.19802891,0.01791072,-0.80646646,-0.00026188,-2.23378031,0.00425886,1.56837438,0.78586884,0.24543009,-0.21192967,0.00080906,-0.49158198,0.00190629,-0.36143059,0.01310427,0.10013503,-1.41179824,-0.49483966,0.60452135,0.52489169,-0.11953910,-0.01544636,2.80043133,-1.03224038,-0.12214465,-5.60962926,0.66602418,-1.45909700,0.08327745,0.21634193,1.41179824
0.19902906,0.01817027,-0.80668340,-0.00026212,-2.23427090,0.00426286,1.56797835,0.78587667,0.24940224,-0.21498453,0.00064635,-0.49109333,0.00249092,-0.36934027,0.01109617,0.09634072,-1.38297343,-0.50636258,0.59726106,0.52462084,-0.12024123,-0.01494920,2.77761072,-1.01634132,-0.13237692,-5.68302052,0.66327598,-1.42720984,0.09894816,0.21637966,1.38297343
0.20002920,0.01842949,-0.80691166,-0.00026220,-2.23479480,0.00426294,1.56759927,0.78589264,0.25195269,-0.21959054,0.00070329,-0.50142692,0.00181509,-0.37264514,0.01198104,0.09213162,-1.34223406,-0.51784020,0.58272620,0.52414273,-0.12140341,-0.01446265,2.77521126,-0.98049848,-0.14499081,-5.60178451,0.66955614,-1.42864492,0.09398199,0.21641988,1.34223406
0.20102935,0.01869127,-0.80714790,-0.00027030,-2.23531389,0.00426327,1.56721303,0.78590562,0.25600644,-0.22406221,-0.00151805,-0.50531508,0.00148751,-0.37626228,0.01199272,0.08756333,-1.29057365,-0.52864517,0.56179195,0.52347811,-0.12289999,-0.01395696,2.75177731,-0.94187122,-0.12504596,-5.61164016,0.67340420,-1.42741072,0.09526718,0.21645970,1.29057365
0.20202949,0.01896430,-0.80737935,-0.00026894,-2.23583663,0.00426443,1.56681283,0.78590559,0.26054179,-0.22701326,-0.00035216,-0.51082802,0.00144268,-0.38179757,0.00808329,0.08254418,-1.22936983,-0.53834546,0.53511445,0.52264957,-0.12473350,-0.01343976,2.72000046,-0.92895230,-0.15433540,-5.59712808,0.67517440,-1.41214917,0.12467007,0.21649979,1.22936983
0.20302964,0.01922943,-0.80762147,-0.00027131,-2.23637669,0.00426405,1.56641715,0.78591425,0.26064105,-0.23069767,-0.00076547,-0.52048553,0.00076939,-0.38603229,0.00855089,0.07694456,-1.16210611,-0.54763268,0.50455152,0.52171881,-0.12692347,-0.01291850,2.75167792,-0.90450927,-0.15952270,-5.52332393,0.68151963,-1.40628753,0.12300555,0.21654115,1.16210611
0.20402979,0.01949315,-0.80786654,-0.00027597,-2.23691057,0.00426104,1.56600271,0.78592876,0.26163875,-0.23455476,-0.00248951,-0.52513074,-0.00068784,-0.39438310,0.01095231,0.07220893,-1.09261680,-0.55526657,0.47314997,0.52090545,-0.12938011,-0.01235080,2.77094464,-0.87482147,-0.14671663,-5.52038861,0.69348909,-1.37057750,0.10750639,0.21658202,1.09261680
0.20502993,0.01977378,-0.80810252,-0.00028257,-2.23745942,0.00426114,1.56558143,0.78593082,0.26663642,-0.23513837,-0.00350883,-0.53147049,-0.00082721,-0.40320332,0.00853431,0.06954231,-1.02359181,-0.55938544,0.44220304,0.52035516,-0.13209301,-0.01171865,2.73304200,-0.89622913,-0.14263437,-5.49051460,0.69611185,-1.33134329,0.12639531,0.21662400,1.02359181
0.20603008,0.02004927,-0.80833955,-0.00028799,-2.23801166,0.00426460,1.56515336,0.78593574,0.26974184,-0.23583004,-0.00378757,-0.53803041,0.00082500,-0.40993389,0.00801934,0.06822608,-0.96035373,-0.56069058,0.41397038,0.52009574,-0.13493868,-0.01106493,2.72206147,-0.91615827,-0.14905012,-5.45717057,0.68602360,-1.30641355,0.13182393,0.21666621,0.96035373
0.20703022,0.02033005,-0.80857867,-0.00028534,-2.23856235,0.00427113,1.56471205,0.78594059,0.27227212,-0.23733525,-0.00204828,-0.54279418,0.00321053,-0.41920495,0.00678863,0.06708149,-0.90709462,-0.56149094,0.39038591,0.52008878,-0.13776332,-0.01042561,2.71791915,-0.92438295,-0.18634564,-5.44892116,0.67056541,-1.26302084,0.14226512,0.21670827,0.90709462
0.20803037,0.02061498,-0.80881837,-0.00029001,-2.23912530,0.00427288,1.56427319,0.78594543,0.27686232,-0.23735566,-0.00286527,-0.54712233,0.00378092,-0.42484692,0.00593395,0.06521089,-0.86430027,-0.56382183,0.37098001,0.52019595,-0.14050482,-0.00981306,2.68538960,-0.95282869,-0.18560692,-5.44530893,0.66812727,-1.24515258,0.15008249,0.21675122,0.86430027
0.20903052,0.02090271,-0.80906068,-0.00029543,-2.23969279,0.00427216,1.56383951,0.78594553,0.27936483,-0.23853064,-0.00380225,-0.55274780,0.00274275,-0.42724238,0.00406041,0.06250189,-0.83186066,-0.56751475,0.35500154,0.52030130,-0.14308203,-0.00923035,2.68175318,-0.96396691,-0.18327732,-5.42357969,0.67706079,-1.25028755,0.16526589,0.21679447,0.83186066
0.21003066,0.02118955,-0.80929061,-0.00029842,-2.24026050,0.00427061,1.56340025,0.78595227,0.28121883,-0.23569626,-0.00324190,-0.55837945,0.00062363,-0.43330122,0.00463814,0.05966659,-0.81186778,-0.57131629,0.34354269,0.52041945,-0.14528751,-0.00866622,2.68735896,-1.03731962,-0.20075181,-5.39972797,0.69368119,-1.22954122,0.16298298,0.21683770,0.81186778
0.21103081,0.02146793,-0.80952281,-0.00030220,-2.24084097,0.00427336,1.56296177,0.78595351,0.28076868,-0.23464069,-0.00278612,-0.56398095,0.00133963,-0.43240205,0.00329713,0.05759697,-0.80851085,-0.57473941,0.33899881,0.52064697,-0.14688662,-0.00810864,2.72600416,-1.08319401,-0.21708861,-5.37592785,0.69020864,-1.25752572,0.17439712,0.21688184,0.80851085
0.21203095,0.02175962,-0.80975145,-0.00030801,-2.24141875,0.00427478,1.56251603,0.78595502,0.28334045,-0.23320234,-0.00461879,-0.57208954,0.00197185,-0.43468889,0.00233291,0.05726150,-0.82420243,-0.57684661,0.34336113,0.52111574,-0.14776582,-0.00756350,2.72201765,-1.13590577,-0.20000514,-5.31691995,0.68746428,-1.26291400,0.18318001,0.21692575,0.82420243
0.21303110,0.02206525,-0.80998476,-0.00030728,-2.24199972,0.00427449,1.56206466,0.78595899,0.28988416,-0.23362718,-0.00243231,-0.57402989,0.00155219,-0.44221753,0.00229104,0.05796371,-0.85681768,-0.57820474,0.35648691,0.52179918,-0.14798421,-0.00703302,2.65930406,-1.16062061,-0.24494935,-5.34347274,0.69189435,-1.23121421,0.18537143,0.21696987,0.85681768
0.21403125,0.02235377,-0.81021821,-0.00031704,-2.24258564,0.00427389,1.56161709,0.78596764,0.28866275,-0.23342467,-0.00453620,-0.57578840,0.00125151,-0.44157886,0.00481677,0.05854704,-0.89949917,-0.58017451,0.37413706,0.52250353,-0.14794420,-0.00648523,2.70815211,-1.19055757,-0.22486589,-5.37320375,0.69574465,-1.25678800,0.16934375,0.21701431,0.89949917
0.21503139,0.02264989,-0.81045109,-0.00032327,-2.24316717,0.00427471,1.56116841,0.78596689,0.29003033,-0.23306307,-0.00507522,-0.57957455,0.00136036,-0.44559210,0.00294370,0.06036672,-0.94624502,-0.58071747,0.39196906,0.52320777,-0.14806606,-0.00589268,2.71985843,-1.22560694,-0.22800483,-5.37406704,0.69660347,-1.24981979,0.18459692,0.21705838,0.94624502
0.21603154,0.02294474,-0.81068298,-0.00032752,-2.24376149,0.00427624,1.56070622,0.78597133,0.29318343,-0.23255974,-0.00495511,-0.58299736,0.00188500,-0.45129058,0.00339956,0.06429376,-0.99536448,-0.57852886,0.40921150,0.52396494,-0.14835551,-0.00526760,2.70660640,-1.26358445,-0.24129876,-5.37811155,0.69447615,-1.23038882,0.18329734,0.21710337,0.99536448
0.21703168,0.02324808,-0.81092203,-0.00033211,-2.24434749,0.00428014,1.56024916,0.78597977,0.29570698,-0.23491648,-0.00452004,-0.58506070,0.00281490,-0.45122964,0.00465565,0.06922265,-1.04420575,-0.57532580,0.42480656,0.52466479,-0.14874944,-0.00462213,2.70079528,-1.25689659,-0.26099509,-5.40324976,0.68927361,-1.25144832,0.17617574,0.21714770,1.04420575
0.21803183,0.02355307,-0.81117222,-0.00033850,-2.24495257,0.00428258,1.55979447,0.78598166,0.29808386,-0.23838944,-0.00535103,-0.58903728,0.00209137,-0.45396685,0.00311090,0.07440070,-1.08642083,-0.57218252,0.43561880,0.52515104,-0.14934094,-0.00397185,2.69722248,-1.23291599,-0.26269317,-5.39983532,0.69574741,-1.25306259,0.18899366,0.21719340,1.08642083
0.21903198,0.02385342,-0.81141024,-0.00033895,-2.24557054,0.00428051,1.55933086,0.78598810,0.29966198,-0.23871461,-0.00370007,-0.59479499,0.00092249,-0.45190758,0.00500732,0.07963961,-1.11875510,-0.56953579,0.44086160,0.52537723,-0.15006479,-0.00333306,2.70509579,-1.25908135,-0.29892962,-5.36861440,0.70556244,-1.28789347,0.17751675,0.21724003,1.11875510
0.22003212,0.02416259,-0.81165821,-0.00034955,-2.24617630,0.00427783,1.55888085,0.78599372,0.30242970,-0.24328829,-0.00594733,-0.60058990,0.00053616,-0.45220313,0.00555772,0.08496312,-1.14210555,-0.56749673,0.44235845,0.52541710,-0.15075772,-0.00269608,2.69615522,-1.21894794,-0.28016065,-5.33991348,0.70993819,-1.30682786,0.17548795,0.21728569,1.14210555
0.22103227,0.02446624,-0.81190555,-0.00035665,-2.24679921,0.00427952,1.55841354,0.78599296,0.30235884,-0.24517977,-0.00656308,-0.60621549,0.00030618,-0.45972031,0.00352980,0.09113816,-1.15624625,-0.56445346,0.44124446,0.52543103,-0.15137047,-0.00206357,2.72732490,-1.22036637,-0.28363102,-5.31008027,0.71308774,-1.27435985,0.19184742,0.21733259,1.15624625
0.22203241,0.02476944,-0.81216193,-0.00036120,-2.24741541,0.00427987,1.55794976,0.78600239,0.30312380,-0.24780970,-0.00622240,-0.60585546,-0.00069537,-0.45914054,0.00497867,0.09904055,-1.16016301,-0.55910711,0.43645342,0.52552547,-0.15209170,-0.00144199,2.74597795,-1.20599151,-0.30307736,-5.36535461,0.72154973,-1.29855830,0.18333316,0.21737894,1.16016301
0.22303256,0.02508786,-0.81240927,-0.00037401,-2.24803681,0.00428413,1.55749104,0.78601128,0.30778987,-0.24839850,-0.00832252,-0.61206466,0.00106738,-0.46046802,0.00604306,0.10836729,-1.15433247,-0.55176891,0.42629124,0.52567851,-0.15322086,-0.00081008,2.71029756,-1.22579803,-0.28424704,-5.32694094,0.71062750,-1.30983823,0.17758035,0.21742562,1.15433247
0.22403271,0.02539962,-0.81266241,-0.00037803,-2.24867094,0.00428740,1.55702066,0.78601883,0.31094417,-0.24892419,-0.00682064,-0.61801073,0.00147074,-0.46240235,0.00570616,0.11757619,-1.14368642,-0.54390613,0.41309738,0.52587966,-0.15466015,-0.00015879,2.69526476,-1.24784479,-0.31881138,-5.29009983,0.70914933,-1.31629097,0.18170624,0.21747321,1.14368642
0.22503285,0.02571922,-0.81291369,-0.00038775,-2.24929918,0.00429366,1.55656000,0.78602709,0.31307046,-0.25081356,-0.00798232,-0.62334756,0.00241653,-0.46013481,0.00652221,0.12535067,-1.13322462,-0.53730605,0.40015205,0.52611719,-0.15618866,0.00048998,2.69445571,-1.24730500,-0.31475720,-5.26342444,0.70377493,-1.35254937,0.17771448,0.21752030,1.13322462
0.22603300,0.02603528,-0.81316148,-0.00039773,-2.24995037,0.00429718,1.55608833,0.78603321,0.31268448,-0.24994156,-0.00813918,-0.63035151,0.00304189,-0.46560092,0.00609559,0.13208252,-1.12568479,-0.53164985,0.38912161,0.52641610,-0.15771552,0.00111437,2.72931251,-1.29082031,-0.32305108,-5.20913829,0.70090301,-1.33417975,0.18255704,0.21756905,1.12568479
0.22703314,0.02635797,-0.81341312,-0.00041195,-2.25059493,0.00429715,1.55561771,0.78604317,0.31610421,-0.24933234,-0.01015169,-0.63187442,0.00216015,-0.46553484,0.00661343,0.13879499,-1.12410511,-0.52531988,0.38106314,0.52682398,-0.15917946,0.00170604,2.71038042,-1.32528856,-0.30579574,-5.23282408,0.70869199,-1.35439822,0.18057807,0.21761725,1.12410511
0.22803329,0.02667419,-0.81366256,-0.00042848,-2.25124742,0.00429322,1.55515520,0.78605490,0.31616655,-0.24971036,-0.01198618,-0.64001160,0.00095617,-0.46588386,0.00804406,0.14617750,-1.12964540,-0.51664988,0.37572749,0.52737487,-0.16061248,0.00226899,2.73939339,-1.34907450,-0.28981356,-5.16302766,0.71898806,-1.37225012,0.17213712,0.21766597,1.12964540
0.22903344,0.02699739,-0.81391188,-0.00043737,-2.25190024,0.00429586,1.55468077,0.78605684,0.32056828,-0.24947349,-0.01131076,-0.64313332,0.00113127,-0.46891972,0.00588753,0.15415047,-1.14203566,-0.50553531,0.37320687,0.52811014,-0.16197820,0.00279770,2.70602355,-1.38136716,-0.31258314,-5.16228275,0.71913552,-1.37058003,0.18929663,0.21771468,1.14203566
0.23003358,0.02732194,-0.81416170,-0.00045400,-2.25254469,0.00429907,1.55420929,0.78606546,0.32016215,-0.24841689,-0.01332046,-0.64487836,0.00150946,-0.46668963,0.00699921,0.16219997,-1.15994809,-0.49318827,0.37206016,0.52897358,-0.16341672,0.00329546,2.74055234,-1.42226343,-0.29433181,-5.18223966,0.71799586,-1.40578614,0.18323360,0.21776271,1.15994809
0.23103373,0.02765763,-0.81440669,-0.00047064,-2.25321696,0.00429740,1.55374798,0.78607473,0.32367803,-0.24779137,-0.01478929,-0.65234553,0.00122891,-0.46706919,0.00692444,0.17072765,-1.18279822,-0.47920117,0.37102046,0.52996107,-0.16511768,0.00380823,2.71945888,-1.46188672,-0.28390521,-5.11831680,0.72166948,-1.42340881,0.18547345,0.21781272,1.18279822
0.23203387,0.02798831,-0.81465701,-0.00048768,-2.25389498,0.00430019,1.55325904,0.78607780,0.32675011,-0.24786779,-0.01479166,-0.65805940,0.00151352,-0.47256563,0.00519889,0.17951656,-1.21186654,-0.46389916,0.37226272,0.53114628,-0.16690127,0.00436824,2.70438848,-1.49091615,-0.29564021,-5.07782565,0.72110108,-1.40375484,0.19957967,0.21786312,1.21186654
0.23303402,0.02831908,-0.81490270,-0.00050189,-2.25457012,0.00429913,1.55276594,0.78609197,0.32734534,-0.24792929,-0.01461912,-0.66570851,0.00077904,-0.47900981,0.00785377,0.18770746,-1.24763307,-0.44917570,0.37852851,0.53257733,-0.16847600,0.00499259,2.72397677,-1.52206646,-0.30969941,-5.01014942,0.72789416,-1.37726448,0.18247478,0.21791325,1.24763307
0.23403417,0.02865923,-0.81515553,-0.00051554,-2.25525358,0.00429791,1.55227553,0.78610529,0.33362059,-0.24887958,-0.01410127,-0.67029514,0.00021282,-0.48510141,0.00952194,0.19449614,-1.28874220,-0.43695703,0.39095593,0.53424509,-0.16965186,0.00570445,2.66280685,-1.53778331,-0.33097816,-4.98431078,0.73336092,-1.35326523,0.17231517,0.21796393,1.28874220
0.23503431,0.02899563,-0.81540872,-0.00053203,-2.25593146,0.00430118,1.55177995,0.78611031,0.33386287,-0.24917301,-0.01469138,-0.67621283,0.00139751,-0.48664147,0.00765357,0.19916087,-1.33256739,-0.42848428,0.40880704,0.53607258,-0.17036904,0.00648014,2.68693599,-1.56225641,-0.33410759,-4.94069035,0.72649469,-1.36082545,0.18732428,0.21801415,1.33256739
0.23603446,0.02933525,-0.81566456,-0.00054818,-2.25661962,0.00430826,1.55128782,0.78612293,0.33450903,-0.25199001,-0.01515839,-0.67875400,0.00332027,-0.49026606,0.00920232,0.20271944,-1.37505822,-0.42255252,0.42951734,0.53801898,-0.17073134,0.00727570,2.70443853,-1.54703580,-0.34154718,-4.94377909,0.71415957,-1.35377575,0.17801489,0.21806505,1.37505822
0.23703460,0.02967658,-0.81592100,-0.00056249,-2.25731036,0.00431375,1.55078245,0.78613480,0.33696103,-0.25320075,-0.01437840,-0.67971587,0.00303502,-0.49328923,0.00978295,0.20635072,-1.41037466,-0.41789681,0.44865186,0.53993820,-0.17098499,0.00806817,2.69609921,-1.55556576,-0.36723089,-4.96762179,0.71730228,-1.35022556,0.17552683,0.21811608,1.41037466
0.23803475,0.03002043,-0.81618262,-0.00058128,-2.25801362,0.00431179,1.55026502,0.78613909,0.33869855,-0.25637893,-0.01582421,-0.68934752,0.00163869,-0.49867363,0.00708196,0.21014327,-1.43573431,-0.41440132,0.46470574,0.54167391,-0.17111853,0.00882675,2.69873181,-1.53832277,-0.35955996,-4.86917190,0.72870684,-1.32973668,0.19641399,0.21816798,1.43573431
0.23903490,0.03037161,-0.81644447,-0.00059755,-2.25872156,0.00431069,1.54975736,0.78615107,0.34191327,-0.25819043,-0.01585839,-0.69352401,0.00052153,-0.50384373,0.00809847,0.21410854,-1.45271468,-0.41156902,0.48065855,0.54325394,-0.17075927,0.00953119,2.67920566,-1.53905964,-0.37333053,-4.84563878,0.73802159,-1.31103813,0.19088632,0.21822015,1.45271468
0.24003504,0.03071645,-0.81671197,-0.00061853,-2.25944304,0.00430797,1.54924772,0.78616323,0.34345303,-0.26058206,-0.01786032,-0.70173141,0.00002046,-0.50327602,0.00988896,0.21841608,-1.46335325,-0.40864012,0.49889331,0.54476248,-0.16969189,0.01020704,2.68472219,-1.53077875,-0.35709725,-4.76487625,0.74319804,-1.33245025,0.17993834,0.21827323,1.46335325
0.24103519,0.03106526,-0.81697581,-0.00063548,-2.26014661,0.00430913,1.54872813,0.78617624,0.34465229,-0.26179955,-0.01778325,-0.70326155,0.00081241,-0.51128969,0.01118039,0.22365726,-1.46895410,-0.40467458,0.51956159,0.54628693,-0.16802777,0.01088990,2.69345182,-1.53867387,-0.37236872,-4.77795716,0.73906607,-1.29304078,0.17243403,0.21832494,1.46895410
0.24203533,0.03141385,-0.81724074,-0.00065397,-2.26085968,0.00430996,1.54819720,0.78618294,0.34732334,-0.26196333,-0.01782407,-0.70584160,0.00115746,-0.51498191,0.00974249,0.22999387,-1.47025200,-0.39990172,0.54072868,0.54781834,-0.16611501,0.01157793,2.68191290,-1.56228426,-0.38514254,-4.77484805,0.73807748,-1.28332559,0.18436175,0.21837730,1.47025200
0.24303548,0.03176608,-0.81750574,-0.00067360,-2.26156611,0.00431365,1.54766488,0.78619178,0.34891878,-0.26394151,-0.01841136,-0.70692787,0.00160541,-0.51935564,0.00893314,0.23707801,-1.46725043,-0.39522365,0.55938960,0.54924810,-0.16438326,0.01224981,2.68481543,-1.55730403,-0.39127135,-4.79385768,0.73619023,-1.26861292,0.19176763,0.21842910,1.46725043
0.24403563,0.03212300,-0.81777161,-0.00069714,-2.26229062,0.00431437,1.54712426,0.78620910,0.35007830,-0.26380051,-0.01991380,-0.70952867,0.00193590,-0.52665824,0.01161128,0.24527197,-1.45982801,-0.39010520,0.57329830,0.55052166,-0.16313120,0.01290986,2.69409742,-1.58484666,-0.38187356,-4.78849951,0.73541128,-1.23299783,0.17436048,0.21848215,1.45982801
0.24503577,0.03247957,-0.81803686,-0.00071708,-2.26303296,0.00431467,1.54658707,0.78621658,0.35212422,-0.26470889,-0.02023075,-0.71677956,0.00146228,-0.52928943,0.01027035,0.25514842,-1.45080905,-0.38370621,0.58352266,0.55170660,-0.16230062,0.01356557,2.69086306,-1.59999140,-0.39026260,-4.71609700,0.74019034,-1.23036383,0.18559054,0.21853641,1.45080905
0.24603592,0.03283851,-0.81830247,-0.00074255,-2.26376771,0.00431116,1.54604229,0.78622172,0.35394081,-0.26579144,-0.02198092,-0.72215808,-0.00025946,-0.53662528,0.00783827,0.26677036,-1.44414127,-0.37587625,0.59335484,0.55294490,-0.16157745,0.01419241,2.69083868,-1.61090789,-0.37772747,-4.67044257,0.75395307,-1.19426858,0.20457272,0.21859005,1.44414127
0.24703606,0.03319464,-0.81857656,-0.00076150,-2.26450961,0.00431155,1.54549306,0.78623452,0.35594122,-0.26822290,-0.02085544,-0.72750222,-0.00001372,-0.54043268,0.00857766,0.27973470,-1.44019573,-0.36719437,0.60386169,0.55432156,-0.16083655,0.01478188,2.68734466,-1.60181314,-0.40901870,-4.62438400,0.75355103,-1.18258388,0.20096484,0.21864414,1.44019573
0.24803621,0.03356179,-0.81884113,-0.00078224,-2.26524466,0.00431801,1.54492656,0.78624591,0.35949955,-0.26677487,-0.02118628,-0.73073829,0.00250566,-0.54827838,0.00882721,0.29291508,-1.43840198,-0.35952864,0.61423513,0.55580068,-0.16019086,0.01536736,2.66198783,-1.65047519,-0.41670051,-4.60660607,0.73711005,-1.14168543,0.20088223,0.21869767,1.43840198
0.24903636,0.03392536,-0.81910672,-0.00080857,-2.26599918,0.00432063,1.54437957,0.78625575,0.35930248,-0.26687627,-0.02285096,-0.73719544,0.00260218,-0.54744465,0.00853579,0.30590765,-1.44104211,-0.35331121,0.62456294,0.55738261,-0.15974765,0.01597578,2.68987640,-1.67554855,-0.40417159,-4.54290319,0.73785768,-1.16250005,0.20465222,0.21875251,1.44104211
0.25003650,0.03428765,-0.81937637,-0.00082815,-2.26675978,0.00432414,1.54381375,0.78626651,0.36148442,-0.26730192,-0.02181939,-0.74165149,0.00299768,-0.55464894,0.00844050,0.31926631,-1.44993298,-0.34755488,0.63543133,0.55912053,-0.15953339,0.01661537,2.68340941,-1.69704572,-0.43319519,-4.50512644,0.73631012,-1.12600626,0.20700961,0.21880772,1.44993298
0.25103665,0.03465163,-0.81964319,-0.00085539,-2.26751442,0.00432502,1.54325068,0.78628368,0.36155610,-0.26755939,-0.02375120,-0.74901957,0.00325127,-0.55395772,0.01189199,0.33317554,-1.46487663,-0.34198430,0.64723829,0.56100993,-0.15949923,0.01731190,2.70763687,-1.72004904,-0.41679664,-4.42791620,0.73604112,-1.14490159,0.18422126,0.21886242,1.46487663
0.25203679,0.03501618,-0.81991289,-0.00088513,-2.26827452,0.00432750,1.54268785,0.78629150,0.36328462,-0.26725792,-0.02525172,-0.75202583,0.00307825,-0.55849462,0.01021124,0.34806542,-1.48549862,-0.33531055,0.66011809,0.56304152,-0.15962331,0.01808906,2.70811987,-1.74920013,-0.40740949,-4.41023842,0.73863201,-1.12700324,0.19782111,0.21891743,1.48549862
0.25303694,0.03538889,-0.82019816,-0.00090753,-2.26904099,0.00433340,1.54211808,0.78630470,0.36518090,-0.27255440,-0.02478182,-0.75604590,0.00431658,-0.55936784,0.01184958,0.36378112,-1.50702823,-0.32701521,0.67142326,0.56508333,-0.16008582,0.01893204,2.70399864,-1.69346696,-0.43157554,-4.37938175,0.73086537,-1.13427505,0.18788945,0.21897281,1.50702823
0.25403709,0.03576109,-0.82046725,-0.00093932,-2.26979391,0.00433785,1.54155736,0.78632170,0.36562726,-0.27216119,-0.02726337,-0.75702829,0.00438394,-0.56213982,0.01378732,0.37971616,-1.52206059,-0.31754671,0.67685409,0.56693155,-0.16115277,0.01982488,2.72174895,-1.72143868,-0.40789715,-4.39041579,0.73169963,-1.12856578,0.17569186,0.21902714,1.52206059
0.25503723,0.03613123,-0.82074108,-0.00096008,-2.27055707,0.00433849,1.54097842,0.78633020,0.36845564,-0.27197165,-0.02500598,-0.75836820,0.00319816,-0.56276449,0.01217969,0.39535365,-1.52935159,-0.30746158,0.67464300,0.56844773,-0.16292990,0.02074576,2.70450645,-1.74891067,-0.45578511,-4.39417318,0.74119819,-1.13698032,0.18874135,0.21908213,1.52935159
0.25603738,0.03650522,-0.82100939,-0.00098662,-2.27132088,0.00434291,1.54041027,0.78634193,0.37069941,-0.27092283,-0.02573614,-0.76179211,0.00348637,-0.56490740,0.01202175,0.40929824,-1.53281424,-0.29898189,0.66625177,0.56952396,-0.16527001,0.02165232,2.69659067,-1.78965611,-0.45792127,-4.36829105,0.74040064,-1.13527435,0.19149822,0.21913707,1.53281424
0.25703752,0.03689289,-0.82128668,-0.00101256,-2.27209236,0.00434049,1.53984382,0.78636071,0.37547188,-0.27316425,-0.02520425,-0.76421795,0.00150400,-0.56760951,0.01418035,0.42009433,-1.53482176,-0.29391678,0.65392086,0.57013140,-0.16789858,0.02253682,2.65074923,-1.78002863,-0.48197562,-4.35609881,0.75558852,-1.12958162,0.17766682,0.21919247,1.53482176
0.25803767,0.03727342,-0.82156658,-0.00102914,-2.27287239,0.00434418,1.53927723,0.78637045,0.37757596,-0.27454918,-0.02225748,-0.76775272,0.00185888,-0.56694629,0.01238240,0.42636821,-1.53402324,-0.29413668,0.63855414,0.57024700,-0.17061148,0.02340260,2.64224505,-1.78466099,-0.54126220,-4.32660840,0.75406036,-1.14741469,0.19198895,0.21924839,1.53402324
0.25903782,0.03765257,-0.82184150,-0.00104512,-2.27363511,0.00435012,1.53870687,0.78638605,0.37767495,-0.27472388,-0.02041253,-0.76724999,0.00287699,-0.57246131,0.01300656,0.42742586,-1.52891937,-0.30163943,0.62012950,0.56985796,-0.17330950,0.02422764,2.66205509,-1.80521142,-0.58425054,-4.35451247,0.74789268,-1.12154838,0.18905834,0.21930300,1.52891937
0.26003796,0.03803515,-0.82212132,-0.00106616,-2.27442139,0.00435624,1.53815120,0.78640188,0.38096560,-0.27635913,-0.02050650,-0.77215581,0.00407791,-0.56600536,0.01387720,0.42381482,-1.51973505,-0.31594026,0.59885200,0.56904288,-0.17591855,0.02500412,2.63802720,-1.80396368,-0.59847517,-4.30534107,0.74040315,-1.18030626,0.18439807,0.21935917,1.51973505
0.26103811,0.03841932,-0.82239647,-0.00108308,-2.27519576,0.00436383,1.53758110,0.78641320,0.38252240,-0.27648635,-0.01901181,-0.77324868,0.00511289,-0.56759605,0.01246043,0.41603873,-1.50745919,-0.33547193,0.57573737,0.56788411,-0.17834874,0.02572978,2.63719136,-1.82543135,-0.63623110,-4.30903009,0.73400402,-1.18180720,0.19597621,0.21941442,1.50745919
0.26203825,0.03881136,-0.82267499,-0.00110408,-2.27599651,0.00436750,1.53703511,0.78642200,0.38337236,-0.27621354,-0.02005344,-0.78034283,0.00432737,-0.56123966,0.01168579,0.40485940,-1.49513262,-0.35839855,0.55326146,0.56648777,-0.18047004,0.02640594,2.64698297,-1.85378801,-0.63464251,-4.22626554,0.74069134,-1.24025115,0.20320174,0.21947141,1.49513262
0.26303840,0.03920010,-0.82295121,-0.00112178,-2.27679231,0.00436979,1.53646785,0.78643920,0.38614091,-0.27633787,-0.01951259,-0.78247873,0.00373628,-0.56347547,0.01333232,0.39131771,-1.48657457,-0.38255935,0.53454165,0.56499430,-0.18214365,0.02706655,2.62906622,-1.87539634,-0.65860602,-4.21218964,0.74594760,-1.23722289,0.19305145,0.21952798,1.48657457
0.26403855,0.03959254,-0.82322939,-0.00114116,-2.27757156,0.00437454,1.53589777,0.78645079,0.38657654,-0.27787186,-0.01993487,-0.78320733,0.00392348,-0.56296590,0.01280695,0.37594500,-1.48106840,-0.40662908,0.51912711,0.56342565,-0.18350281,0.02774026,2.64336689,-1.87290731,-0.66920175,-4.22030842,0.74563509,-1.25304507,0.19836334,0.21958330,1.48106840
0.26503869,0.03998483,-0.82351073,-0.00115827,-2.27837031,0.00438489,1.53533364,0.78646307,0.38908943,-0.27830810,-0.01911819,-0.78407451,0.00539597,-0.56503820,0.01308786,0.35898497,-1.47462969,-0.43009028,0.50357597,0.56171273,-0.18487248,0.02841350,2.62837225,-1.88812777,-0.69782940,-4.22293077,0.73599961,-1.25104840,0.19801383,0.21963989,1.47462969
0.26603884,0.04038618,-0.82378899,-0.00117463,-2.27918043,0.00438761,1.53476763,0.78646508,0.39049454,-0.27791523,-0.01850209,-0.78942963,0.00484443,-0.56205804,0.00939230,0.34029846,-1.46713438,-0.45336120,0.48740031,0.55984319,-0.18627236,0.02905119,2.62844553,-1.91845736,-0.72201902,-4.16105982,0.74096722,-1.28441461,0.22602947,0.21969717,1.46713438
0.26703898,0.04078456,-0.82406887,-0.00118895,-2.27997988,0.00439520,1.53421667,0.78647940,0.39161817,-0.27979347,-0.01744860,-0.79242060,0.00517747,-0.56104906,0.01067401,0.31983136,-1.46078940,-0.47712637,0.47257648,0.55788378,-0.18748292,0.02964513,2.63195019,-1.91302193,-0.75514416,-4.13367663,0.73937726,-1.30446822,0.21856623,0.21975360,1.46078940
0.26803913,0.04119221,-0.82435279,-0.00120884,-2.28080854,0.00439971,1.53364212,0.78649447,0.39632224,-0.27990750,-0.01794645,-0.80263130,0.00399651,-0.56435580,0.01174226,0.29751619,-1.45748589,-0.50169767,0.46207278,0.55596520,-0.18817932,0.03022283,2.58605498,-1.93901132,-0.76270380,-4.00040222,0.74869796,-1.29339090,0.21261623,0.21981198,1.45748589
0.26903928,0.04160438,-0.82463852,-0.00122062,-2.28161410,0.00440602,1.53306300,0.78650362,0.39994547,-0.28296883,-0.01633656,-0.80501624,0.00399315,-0.56755821,0.01137137,0.27256722,-1.45823322,-0.52787171,0.45874082,0.55418869,-0.18805699,0.03078252,2.55265094,-1.91555068,-0.80610109,-3.97982851,0.74939922,-1.28232797,0.21698211,0.21986866,1.45823322
0.27003942,0.04200787,-0.82492752,-0.00123589,-2.28243116,0.00440999,1.53248285,0.78650812,0.40072194,-0.28381179,-0.01626855,-0.80866842,0.00338848,-0.57368411,0.00981362,0.24485367,-1.46014852,-0.55605982,0.46123624,0.55256522,-0.18719023,0.03129157,2.56087083,-1.92520917,-0.82416065,-3.93910645,0.75465389,-1.25069253,0.22990653,0.21992604,1.46014852
0.27103957,0.04241040,-0.82521838,-0.00125372,-2.28325604,0.00442088,1.53190764,0.78652475,0.39959155,-0.28532808,-0.01699462,-0.81010454,0.00518753,-0.57355366,0.01241653,0.21634242,-1.46003103,-0.58419340,0.46622135,0.55117652,-0.18582962,0.03176304,2.59587142,-1.92092396,-0.83073569,-3.92923618,0.74273400,-1.26283997,0.21307755,0.21998385,1.46003103
0.27203971,0.04282742,-0.82551118,-0.00127521,-2.28407789,0.00443476,1.53133037,0.78653533,0.40274557,-0.28880345,-0.01920124,-0.81616673,0.00737457,-0.57886195,0.01214405,0.18942249,-1.45589074,-0.60895294,0.47173377,0.55015279,-0.18407019,0.03223168,2.57036936,-1.89023458,-0.81633654,-3.85463181,0.72794488,-1.23686594,0.21670224,0.22004134,1.45589074
0.27303986,0.04324619,-0.82580218,-0.00129397,-2.28491063,0.00444341,1.53075098,0.78654363,0.40836359,-0.28883835,-0.01913606,-0.82016025,0.00854467,-0.57788820,0.01099475,0.16416233,-1.44741347,-0.62954183,0.47806851,0.54946988,-0.18181542,0.03269061,2.50952840,-1.91098658,-0.83411823,-3.80594518,0.72042598,-1.25468747,0.22658854,0.22009948,1.44741347
0.27404001,0.04366043,-0.82608770,-0.00130721,-2.28573899,0.00445189,1.53014917,0.78655525,0.40821559,-0.28822640,-0.01697162,-0.82610932,0.00858123,-0.58529297,0.01123371,0.13927661,-1.43894400,-0.64825366,0.48797247,0.54900171,-0.17889134,0.03313448,2.52889745,-1.94617219,-0.88197949,-3.72858495,0.72091535,-1.21269814,0.22660493,0.22015724,1.43894400
0.27504015,0.04408006,-0.82637832,-0.00132886,-2.28657154,0.00445949,1.52956562,0.78657613,0.41083838,-0.28888234,-0.01832191,-0.82542100,0.00863258,-0.58567868,0.01450079,0.11481206,-1.43383014,-0.66648484,0.50231870,0.54864617,-0.17536575,0.03359310,2.50958080,-1.95267964,-0.87990689,-3.74521162,0.72131792,-1.22028573,0.20491828,0.22021515,1.43383014
0.27604030,0.04449397,-0.82667528,-0.00134936,-2.28741396,0.00446895,1.52895327,0.78658347,0.41212036,-0.29079681,-0.01920359,-0.82709705,0.00908553,-0.59589182,0.01211265,0.09194381,-1.42922203,-0.68283804,0.51747477,0.54830746,-0.17162900,0.03407538,2.50935184,-1.94290990,-0.88533210,-3.72676535,0.71883940,-1.15760312,0.22351020,0.22027367,1.42922203
0.27704044,0.04492583,-0.82696497,-0.00137224,-2.28823351,0.00447460,1.52837124,0.78660098,0.41817283,-0.29109456,-0.02030928,-0.82441934,0.00747134,-0.59217114,0.01366790,0.07109124,-1.42037755,-0.69613614,0.52846443,0.54784797,-0.16812342,0.03456011,2.44041464,-1.95275913,-0.88779485,-3.77165152,0.73085658,-1.19370928,0.21396735,0.22033047,1.42037755
0.27804059,0.04534642,-0.82725524,-0.00139563,-2.28909008,0.00447947,1.52776268,0.78661636,0.41871312,-0.28990518,-0.02100768,-0.83266869,0.00674855,-0.59754167,0.01474965,0.05206784,-1.40835995,-0.70645348,0.53476411,0.54725800,-0.16496206,0.03506161,2.45076019,-1.99502882,-0.89176035,-3.65738085,0.73696986,-1.16520287,0.20791146,0.22038972,1.40835995
0.27904074,0.04577835,-0.82754233,-0.00141833,-2.28993359,0.00448647,1.52715576,0.78663308,0.42231282,-0.29022480,-0.02184179,-0.83706365,0.00641758,-0.59771144,0.01523749,0.03522360,-1.39967273,-0.71382809,0.54144209,0.54677624,-0.16183488,0.03560863,2.41660975,-2.01089235,-0.89636634,-3.59902598,0.74004578,-1.17287702,0.20591701,0.22044795,1.39967273
0.28004088,0.04621443,-0.82783882,-0.00144082,-2.29078501,0.00449256,1.52653650,0.78664347,0.42592512,-0.29217010,-0.02207606,-0.84057462,0.00649909,-0.60759832,0.01333937,0.02050138,-1.39638137,-0.71890779,0.55120712,0.54654666,-0.15859850,0.03617635,2.38118392,-2.00220762,-0.91159208,-3.55143642,0.74021873,-1.11172051,0.22093950,0.22050663,1.39638137
