sakibchowdhury131/FrankaEmikaControl_lowerLevel/ball_throw/throw_trajectory.csv
t,q0,q1,q2,q3,q4,q5,q6,dq0,dq1,dq2,dq3,dq4,dq5,dq6,ddq0,ddq1,ddq2,ddq3,ddq4,ddq5,ddq6,tau0,tau1,tau2,tau3,tau4,tau5,tau6
0.000000000000000000e+00,0.000000000000000000e+00,-7.850000000000000311e-01,0.000000000000000000e+00,-2.355999999999999872e+00,0.000000000000000000e+00,1.570999999999999952e+00,7.850000000000000311e-01,0.000000000000000000e+00,0.000000000000000000e+00,0.000000000000000000e+00,0.000000000000000000e+00,0.000000000000000000e+00,0.000000000000000000e+00,0.000000000000000000e+00,0.000000000000000000e+00,0.000000000000000000e+00,0.000000000000000000e+00,0.000000000000000000e+00,0.000000000000000000e+00,0.000000000000000000e+00,0.000000000000000000e+00,2.220446049250313081e-16,-3.180824305444683642e+00,-6.850747565644559334e-01,2.008722847768874331e+01,1.177199975578971713e+00,1.684180799999999811e+00,0.000000000000000000e+00
1.000146005832399819e-03,5.207612504059285398e-09,-7.850000047874273745e-01,1.683978239686145370e-10,-2.356000012698288515e+00,3.688510870325285015e-10,1.570999991597021417e+00,7.850000003118700054e-01,1.561005848949842926e-05,-1.434958410168579899e-05,5.039264279310623173e-07,-3.806073452439515608e-05,1.105409936814106953e-06,-2.518678017240203281e-05,9.348755564012872491e-07,3.117358313321332702e-02,-2.865259106599786498e-02,1.002934912725304654e-03,-7.599612720094964247e-02,2.206571707252202603e-03,-5.029233449991284133e-02,1.867087521057146562e-03,4.955067997869130186e-02,-3.104804847656398969e+00,-6.499985791273082958e-01,1.996118426578734883e+01,1.178222660192643323e+00,1.607302998294875884e+00,-1.801020679028091445e-02
2.000292011664799637e-03,4.157694513526925718e-08,-7.850000382146423705e-01,1.337641512133910345e-09,-2.356000101357844212e+00,2.942957851123633124e-09,1.570999932923917708e+00,7.850000024901786499e-01,6.227241467752014860e-05,-5.722887733931135689e-05,1.996636330639022770e-06,-1.517862680091209724e-04,4.405947216305522027e-06,-1.004517902632713844e-04,3.729944396348046015e-06,6.209563907441866676e-02,-5.705120416375326908e-02,1.977294907039946290e-03,-1.513078198881283032e-01,4.389625219668163297e-03,-1.001420395716689088e-01,3.719849562413087354e-03,9.867845243664463695e-02,-3.029472546029830404e+00,-6.152414000312484976e-01,1.983627346863369212e+01,1.179244568410096061e+00,1.531112661404357755e+00,-3.586595920971735740e-02
3.000438017497199239e-03,1.400391391045091506e-07,-7.850001286886091334e-01,4.482383932318971395e-09,-2.356000341312511015e+00,9.906017051751833679e-09,1.570999774116325742e+00,7.850000083882321400e-01,1.397358346561507431e-04,-1.283842117636507731e-04,4.449600579833325641e-06,-3.404930073839504195e-04,9.878124545437391631e-06,-2.253529393877136194e-04,8.370897293697200444e-06,9.276682774432500056e-02,-8.519653339448586549e-02,2.923179892806215818e-03,-2.259369605366335632e-01,6.549229198408964767e-03,-1.495503213786423813e-01,5.558322809035047378e-03,1.473844483730850641e-01,-2.954824858360933337e+00,-5.808023820276879690e-01,1.971249303569192080e+01,1.180265663183228231e+00,1.455607726224293241e+00,-5.356767272316691197e-02
4.000584023329599274e-03,3.312743950898418557e-07,-7.850003043629341093e-01,1.054879462815684067e-08,-2.356000807213380455e+00,2.341826906668324255e-08,1.570999465751434121e+00,7.850000198450435285e-01,2.477497445345371745e-04,-2.275626136280407418e-04,7.834389971673134592e-06,-6.034992423286070131e-04,1.749852330235889154e-05,-3.994493430003157215e-04,1.484346171262913147e-05,1.231878090636413653e-01,-1.130892728594153490e-01,3.840689779886402849e-03,-2.998854316215631699e-01,8.685452304635689694e-03,-1.985183860842074099e-01,7.382543945890250765e-03,1.956697945427499918e-01,-2.880859264776026940e+00,-5.466806904884249363e-01,1.958983991318947915e+01,1.181285886483192327e+00,1.380786129857104694e+00,-7.111576224941136559e-02
5.000730029161999310e-03,6.457126333499412846e-07,-7.850005931385605207e-01,2.045465975812977600e-08,-2.356001573030676255e+00,4.561656657318395756e-08,1.570998958846777427e+00,7.850000386853699386e-01,3.860642304388874632e-04,-3.545118033883802979e-04,1.212267522676731499e-05,-9.401251452727633169e-04,2.724379353640518859e-05,-6.223013228951451009e-04,2.313340180764764708e-05,1.533592429530767076e-01,-1.407301166597613729e-01,4.729924478142800461e-03,-3.731551156180147877e-01,1.079836319950942466e-02,-2.470474398517381320e-01,9.192549657945921215e-03,2.435356136339280608e-01,-2.807573267168863129e+00,-5.128754932608520223e-01,1.946831104420192204e+01,1.182305159959852858e+00,1.306645809644132239e+00,-8.851064220300311480e-02
6.000876034994398478e-03,1.113534153837520049e-06,-7.850010226644615896e-01,3.508948203460850778e-08,-2.356002712055635495e+00,7.861444322923243121e-08,1.570998204859029634e+00,7.850000667197486459e-01,5.544300385124709520e-04,-5.089801957031309153e-04,1.728622699017444607e-05,-1.349692771396042304e-03,3.909065396809746200e-05,-8.934704072057502887e-04,3.322651842357999467e-05,1.832817893333399950e-01,-1.681197588967435486e-01,5.590983897437696096e-03,-4.457478950010860808e-01,1.288803054419124933e-02,-2.951386888446086432e-01,1.098837663016928590e-02,2.909830244436240054e-01,-2.734964388644710809e+00,-4.793859605254433554e-01,1.934790336873597383e+01,1.183323385592388366e+00,1.233184703197377940e+00,-1.057527265351619200e-01
7.001022040826798513e-03,1.764670296312757652e-06,-7.850016203383365365e-01,5.531458066289155905e-08,-2.356004296902395101e+00,1.245021823547320089e-07,1.570997155682796187e+00,7.850001057445340491e-01,7.525985749156186315e-04,-6.907168994333168525e-04,2.329691583140284635e-05,-1.831526058628018009e-03,5.301589198914294837e-05,-1.212519330405161791e-03,4.510864909557691190e-05,2.129561081251403476e-01,-1.952588936715816126e-01,6.423967947633381533e-03,-5.176656522458746856e-01,1.495452299984224853e-02,-3.427933392261930945e-01,1.277006154752756764e-02,3.380131420498543315e-01,-2.663030172971422527e+00,-4.462112646555294604e-01,1.922861382381108086e+01,1.184340446331106023e+00,1.160400748430673090e+00,-1.228424287736866738e-01
8.001168046659198549e-03,2.628804100456727555e-06,-7.850024133073032484e-01,8.196319128024443275e-08,-2.356006399509870342e+00,1.853468856127232308e-07,1.570995763649410071e+00,7.850001575419344180e-01,9.803219058257222999e-04,-8.994717176425248272e-04,3.012671224441051352e-05,-2.384950827648213683e-03,6.899636366243485687e-05,-1.579012033305890461e-03,5.876566804911251995e-05,2.423828592491865941e-01,-2.221482150854952597e-01,7.228976538592147248e-03,-5.889102698274781833e-01,1.699790922762350540e-02,-3.900125971598659147e-01,1.453764109498799015e-02,3.846270779810952445e-01,-2.591768184037531508e+00,-4.133505800793337293e-01,1.911043934353937956e+01,1.185356206730517226e+00,1.088291883590310594e+00,-1.397801620618496221e-01
9.001314052491597717e-03,3.735370965984822208e-06,-7.850034284685937225e-01,1.158405658949388892e-07,-2.356009091143642653e+00,2.631925416905960425e-07,1.570993981525722782e+00,7.850002238800486420e-01,1.237352757437234618e-03,-1.134995147596903203e-03,3.774768664760516505e-05,-3.009294781886100601e-03,8.700899372205236253e-05,-1.992513663059926853e-03,7.418348619998438450e-05,2.715627026261878130e-01,-2.487884172397039906e-01,8.006109580176284587e-03,-6.594836302209944323e-01,1.901825788869610304e-02,-4.367976688090007831e-01,1.629115195751777712e-02,4.308259403829000633e-01,-2.521176005317002033e+00,-3.808030831442643649e-01,1.899337685920416519e+01,1.186370513573734575e+00,1.016856047285085829e+00,-1.565663391962457407e-01
1.000146005832399862e-02,5.113559312760189462e-06,-7.850046924702477336e-01,1.577240728252924039e-07,-2.356012442397838580e+00,3.600600949813030017e-07,1.570991762512899736e+00,7.850003065129028679e-01,1.523444515961670841e-03,-1.397038380765165027e-03,4.613200938384425176e-05,-3.703887507521104461e-03,1.070307755732608163e-04,-2.452590573158745877e-03,9.134805115431360724e-05,3.004962981768530828e-01,-2.751801942354277219e-01,8.755466982248084895e-03,-7.293876159015211247e-01,2.101563764422112457e-02,-4.831497603369723226e-01,1.803063082008415918e-02,4.766108341816955862e-01,-2.451251239341022625e+00,-3.485679519834432583e-01,1.887742329933683649e+01,1.187383196488242421e+00,9.460911785158326870e-01,-1.732013726635701356e-01
1.100160606415639779e-02,6.792311240907145469e-06,-7.850062317118072786e-01,2.083632966387069271e-07,-2.356016523197014934e+00,4.779475142645701024e-07,1.570989060245212787e+00,7.850004071804865813e-01,1.838351227627606221e-03,-1.685353302818582604e-03,5.525195072043492399e-05,-4.468060473482595406e-03,1.290387712925113791e-04,-2.958810323433300193e-03,1.102453472085446158e-04,3.291843058218911766e-01,-3.013242401738858156e-01,9.477148654669835179e-03,-7.986241093441556194e-01,2.299011715535965311e-02,-5.290700779071543236e-01,1.975611436765435658e-02,5.219828612457754202e-01,-2.381991507176421052e+00,-3.166443663844648593e-01,1.876257558979246554e+01,1.188394068553102922e+00,8.759952167044076088e-01,-1.896856746763000146e-01
1.200175206998879696e-02,8.800323190924618514e-06,-7.850080723450112430e-01,2.684801380907088678e-07,-2.356021402798041287e+00,6.188298613881112527e-07,1.570985828788832528e+00,7.850005276087906880e-01,2.181827598680677847e-03,-1.999692493630992815e-03,6.507988084913402134e-05,-5.301147031449898218e-03,1.530101116274413132e-04,-3.510741680054023893e-03,1.308613953494453127e-04,3.576273854820111731e-01,-3.272212491562982439e-01,1.017125450730382852e-02,-8.671949930239960525e-01,2.494176508327276831e-02,-5.745598276829211315e-01,2.146763928519559300e-02,5.669431205435175869e-01,-2.313394447910725571e+00,-2.850315076603603948e-01,1.864883065382377580e+01,1.189402926897642265e+00,8.065661017221470441e-01,-2.060196572072633681e-01
1.300189807582119786e-02,1.116604660379956615e-05,-7.850102402744891794e-01,3.387689140639878202e-07,-2.356027149791984243e+00,7.846593599488391514e-07,1.570982022640624809e+00,7.850006695098429299e-01,2.553628995383583778e-03,-2.339809227278796464e-03,7.558826988614817440e-05,-6.202482415852288850e-03,1.789219959968740229e-04,-4.107954615530835969e-03,1.531822532541071637e-04,3.858261970779222616e-01,-3.528719152838844519e-01,1.083788445001235452e-02,-9.351021494161396719e-01,2.687065008912156369e-02,-6.196202158276469252e-01,2.316524225767509562e-02,6.114927082988275142e-01,-2.245457718144009629e+00,-2.537285585227673224e-01,1.853618541215388760e+01,1.190409553291688960e+00,7.378017739178261980e-01,-2.222037320230735302e-01
1.400204408165359703e-02,1.391768858112040038e-05,-7.850127611584559739e-01,4.198964575074357402e-07,-2.356033832105986825e+00,9.773654639740776481e-07,1.570977596726941927e+00,7.850008345817448552e-01,2.953511444016084560e-03,-2.705457472040952421e-03,8.674968787213360819e-05,-7.171403743868986179e-03,2.067516924908186751e-04,-4.750020308713131210e-03,1.771940152899448588e-04,4.137814005303331877e-01,-3.782769326578642732e-01,1.147713839265770454e-02,-1.002347460995684392e+00,2.877684083406711196e-02,-6.642524485047055505e-01,2.484895997006008467e-02,6.556327181438343921e-01,-2.178178991487187410e+00,-2.227347029572762094e-01,1.842463678304754993e+01,1.191413714727408202e+00,6.697001741451088508e-01,-2.382383107164166569e-01
1.500219008748599793e-02,1.708321254519043784e-05,-7.850156604094058466e-01,5.125022173751871678e-07,-2.356041517005155850e+00,1.198854926602775797e-06,1.570972506402416480e+00,7.850010245087091221e-01,3.381231630874999977e-03,-3.096391890398987601e-03,9.853680477219638612e-05,-8.207250015429167628e-03,2.364765378704706601e-04,-5.436511144789789307e-03,2.028828125146967052e-04,4.414936557599530853e-01,-4.034369953794572083e-01,1.208911624510217164e-02,-1.068932810237727571e+00,3.066040597927049971e-02,-7.084577318774716304e-01,2.651882910731779078e-02,6.993642412688628740e-01,-2.111555958066963612e+00,-1.920491261009458772e-01,1.831418168238108990e+01,1.192415163992785576e+00,6.022592437894844775e-01,-2.541238047371796593e-01
1.600233609331839710e-02,2.069033889914127715e-05,-7.850189631948070179e-01,6.171983585656566164e-07,-2.356050271094443094e+00,1.451011868766717727e-06,1.570966707448754995e+00,7.850012409610955810e-01,3.836546902274212516e-03,-3.512367839036985902e-03,1.109223904758921728e-04,-9.309362113211953546e-03,2.680739375682112389e-04,-6.167000715289168780e-03,2.302348126764244243e-04,4.689636226874908109e-01,-4.283527975498829243e-01,1.267391791720804024e-02,-1.134860079617367346e+00,3.252141418589281352e-02,-7.522372721093188996e-01,2.817488635441543418e-02,7.426883665696834003e-01,-2.045586324037176773e+00,-1.616710141219767360e-01,1.820481702371100496e+01,1.193413640236832496e+00,5.354769247947384070e-01,-2.698606254224062972e-01
1.700248209915079800e-02,2.476654568704629648e-05,-7.850226944377959315e-01,7.345698618605804630e-07,-2.356060160320527785e+00,1.735697847871737599e-06,1.570960156073531566e+00,7.850014855954481341e-01,4.319215264544664333e-03,-3.953141368841598183e-03,1.238793147972264510e-04,-1.047708280264641675e-02,3.015213656876078148e-04,-6.941063818079108716e-03,2.592362202135131515e-04,4.961919612336554430e-01,-4.530250332703613103e-01,1.323164331883760689e-02,-1.200131151609701297e+00,3.435993411509514345e-02,-7.955922753636218703e-01,2.981716839632024552e-02,7.856061807920809992e-01,-1.980267811096641850e+00,-1.315995541015131665e-01,1.809653971834124775e+01,1.194408869526549788e+00,4.693511596889297088e-01,-2.854491840250764634e-01
1.800262810498319543e-02,2.933906925403400719e-05,-7.850268788178709212e-01,8.651746238640529613e-07,-2.356071249973698656e+00,2.054751926478929473e-06,1.570952808908981924e+00,7.850017600545314833e-01,4.828995384034360724e-03,-4.418469224902032283e-03,1.373805474746542775e-04,-1.170975673191157820e-02,3.367963650034135536e-04,-7.758276457366927031e-03,2.898732762546712733e-04,5.231793313191559491e-01,-4.774543966421116448e-01,1.376239235985315598e-02,-1.264747908689826561e+00,3.617603442803854485e-02,-8.385239478037542771e-01,3.144571191799943460e-02,8.281187686737427889e-01,-1.915598156013388120e+00,-1.018339339175736158e-01,1.798934667538923549e+01,1.195400565395718928e+00,4.038798916099048397e-01,-3.008898917417009988e-01
1.900277411081559634e-02,3.443490490640156330e-05,-7.850315407715875438e-01,1.009543556941569720e-06,-2.356083604689742206e+00,2.409990740985863851e-06,1.570944623010794627e+00,7.850020659673675461e-01,5.365646587108368823e-03,-4.908108846510068207e-03,1.513991581710806219e-04,-1.300673043193641999e-02,3.738765469615681967e-04,-8.618215843699435219e-03,3.221322586189311597e-04,5.499263928647014632e-01,-5.016415817663539833e-01,1.426626495011698581e-02,-1.328712233332841386e+00,3.796978378588412861e-02,-8.810334955930906320e-01,3.306055360442024249e-02,8.702272130834945996e-01,-1.851575110155187387e+00,-7.237334213108530256e-02,1.788323480185059822e+01,1.196388429385565111e+00,3.390610643303249572e-01,-3.161831597387281256e-01
2.000292011664799724e-02,4.008080757172811340e-05,-7.850367044932522465e-01,1.168180689159062445e-06,-2.356097288451818095e+00,2.803208570307794905e-06,1.570935555856908028e+00,7.850024049492730915e-01,5.928928860148814997e-03,-5.421818367160039474e-03,1.659083164738599605e-04,-1.436735231639985760e-02,4.127395916791967603e-04,-9.520460393962912327e-03,3.559994818156481068e-04,5.764338057910007862e-01,-5.255872827443079931e-01,1.474336099949138598e-02,-1.392026008013843352e+00,3.974125084979297090e-02,-9.231221248950051139e-01,3.466173014054987900e-02,9.119325951579062561e-01,-1.788196439026521478e+00,-4.321696787400916562e-02,1.777820100266271552e+01,1.197372151577362098e+00,2.748926222822689058e-01,-3.313293991777622738e-01
2.100306612248039467e-02,4.630329245898823389e-05,-7.850423939356170333e-01,1.341563264221940564e-06,-2.356112364592348296e+00,3.236177404558873838e-06,1.570925565346300345e+00,7.850027786018951570e-01,6.518602849554885718e-03,-5.959356614548842225e-03,1.808812918947966144e-04,-1.579097268173076593e-02,4.533632479446107820e-04,-1.046458973138311883e-02,3.914612970445009331e-04,6.027022300187629966e-01,-5.492921936771928415e-01,1.519378041783863743e-02,-1.454691115207929597e+00,4.149050428092614790e-02,-9.647910418728712356e-01,3.624927821135559558e-02,9.532359944352825076e-01,-1.725459921811635322e+00,-1.436400073953525425e-02,1.767424218076696363e+01,1.198351411117021037e+00,2.113725105813536453e-01,-3.463290212395933043e-01
2.200321212831279558e-02,5.312863571866546385e-05,-7.850486328105729106e-01,1.530141841414131584e-06,-2.356128895794896927e+00,3.710647013733368181e-06,1.570914609797786188e+00,7.850031885132482401e-01,7.134429861742833633e-03,-6.520483110575942161e-03,1.962914538701446146e-04,-1.727694370710796887e-02,4.957253332173076161e-04,-1.145018468552530359e-02,4.285040921954922505e-04,6.287323254686970619e-01,-5.727570086662288062e-01,1.561762311502104192e-02,-1.516709437390198589e+00,4.321761274044474965e-02,-1.006041452690064064e+00,3.782323450180458124e-02,9.941384889870601427e-01,-1.663363350924004225e+00,1.418636932566094688e-02,1.757135523716988601e+01,1.199325876731725415e+00,1.484986750504266872e-01,-3.611824371470400141e-01
2.300335813414519648e-02,6.058287510286556888e-05,-7.850554445898454414e-01,1.734340395537118370e-06,-2.356146944096054519e+00,4.228345016386864147e-06,1.570902647948806852e+00,7.850036362577518245e-01,7.776171863145968019e-03,-7.104958071343362401e-03,2.121122717606075661e-04,-1.882461945446024451e-02,5.398037336279707049e-04,-1.247682729229419168e-02,4.671142918489477056e-04,6.545247520615119496e-01,-5.959824218126351658e-01,1.601498900090088384e-02,-1.578082857035747910e+00,4.492264488950985929e-02,-1.046874563509957223e+00,3.938363569686408744e-02,1.034641155546637270e+00,-1.601904531561862299e+00,4.243495212712324050e-02,1.746953707100309572e+01,1.200295207238665895e+00,8.626906224281766233e-02,-3.758900581866120860e-01
2.400350413997759391e-02,6.869181062543005905e-05,-7.850628525056883023e-01,1.954556416848977493e-06,-2.356166570887320955e+00,4.790976948317483384e-06,1.570889638954226619e+00,7.850041233962653520e-01,8.443591480214659994e-03,-7.712542407155686085e-03,2.283173148513389461e-04,-2.043335586846630261e-02,5.855764039784694701e-04,-1.354410079393399136e-02,5.072783572755163589e-04,6.800801697179166272e-01,-6.189691272176318648e-01,1.638597798534045108e-02,-1.638813256619674474e+00,4.660566938928255298e-02,-1.087291580495924892e+00,4.093051848150133093e-02,1.074745069635649752e+00,-1.541081281269891967e+00,7.038255732629623840e-02,1.736878457958205146e+01,1.201259052045931197e+00,2.468161946515773364e-02,-3.904522957289945362e-01
2.500365014580999481e-02,7.748100522204967968e-05,-7.850708795515773941e-01,2.191161011003422016e-06,-2.356187836916987077e+00,5.400226331247100152e-06,1.570875542385125057e+00,7.850046514761266359e-01,9.136451999416345116e-03,-8.342997722520067647e-03,2.448802523519419687e-04,-2.210251077655483315e-02,6.330213677418595293e-04,-1.465158963902839749e-02,5.489827864361714440e-04,7.053992383586203951e-01,-6.417178189824381818e-01,1.673068997820204018e-02,-1.698902518617076307e+00,4.826675490092393467e-02,-1.127293709811341360e+00,4.246391954068352154e-02,1.114451305687718774e+00,-1.480891429507093182e+00,9.802999454220164000e-02,1.726909465846370040e+01,1.202217051645611212e+00,-3.626570520023209010e-02,-4.048695612483641515e-01
2.600379615164239572e-02,8.697578541037768540e-05,-7.850795484829058424e-01,2.444498998988838992e-06,-2.356210802292021178e+00,6.057754741502543678e-06,1.570860318227590202e+00,7.850052220311876106e-01,9.854517367235516440e-03,-8.996086316146212000e-03,2.617748533964694762e-04,-2.383144388890445081e-02,6.821167170623819919e-04,-1.579887948250056559e-02,5.922141139822085240e-04,7.304826179043317769e-01,-6.642291912082741723e-01,1.704922488934794075e-02,-1.758352525503051655e+00,4.990597008559505277e-02,-1.166882157619580695e+00,4.398387555937790377e-02,1.153760937169693968e+00,-1.421332817220656075e+00,1.253780734511213413e-01,1.717046420150312613e+01,1.203168838099164306e+00,-9.657496287335920471e-02,-4.191422663405475202e-01
2.700394215747479662e-02,9.720124195014338516e-05,-7.850888818176778861e-01,2.714889017067327169e-06,-2.356235526479947939e+00,6.765201878696820415e-06,1.570843926881513086e+00,7.850058365818511907e-01,1.059755219017373407e-02,-9.671571180946400559e-03,2.789749870434239665e-04,-2.561951679844373317e-02,7.328406127554646515e-04,-1.698555718561316208e-02,6.369589112552474439e-04,7.553309682757600729e-01,-6.865039379963591148e-01,1.734168262864044241e-02,-1.817165159752697434e+00,5.152338360445703203e-02,-1.206058130084017410e+00,4.549042322255170134e-02,1.192675036700406643e+00,-1.362403296425893195e+00,1.524276038843123127e-01,1.707289010090885029e+01,1.204114035515108316e+00,-1.562482038550037922e-01,-4.332708227400289824e-01
2.800408816330719405e-02,1.081822305032654840e-04,-7.850989018372028783e-01,3.002623616713736607e-06,-2.356262068310733149e+00,7.524185634410317241e-06,1.570826329159379142e+00,7.850064966351080198e-01,1.136532173474960605e-02,-1.036921600403546175e-02,2.964546222757574842e-04,-2.746609298085118944e-02,7.851712843077205762e-04,-1.821121081596830185e-02,6.832037862872310284e-04,7.799449493936141398e-01,-7.085427534479130651e-01,1.760816310594184170e-02,-1.875342303841111669e+00,5.311906411867090699e-02,-1.244822833368024684e+00,4.698359921517213100e-02,1.231194676166967872e+00,-1.304100729792189606e+00,1.791793959237651113e-01,1.697636924729730623e+01,1.205052260519087204e+00,-2.152874776055696271e-01,-4.472556423358222677e-01
2.900423416913959496e-02,1.199433722939656890e-04,-7.851096305867905079e-01,3.307969364554713582e-06,-2.356290485978667526e+00,8.336302160872026689e-06,1.570807486285064503e+00,7.850072036845733292e-01,1.215759192749882138e-02,-1.108878516673080308e-02,3.141878280008724615e-04,-2.937053779455531949e-02,8.390870298769497349e-04,-1.947542964750761246e-02,7.309353838004260589e-04,8.043252211786029449e-01,-7.303463316641555236e-01,1.784876623111441782e-02,-1.932885840243391939e+00,5.469308028939780936e-02,-1.283177473634977694e+00,4.846344022220640951e-02,1.269320926838613861e+00,-1.246422990234868244e+00,2.056342599960247763e-01,1.688089852974610849e+01,1.205983122716369760e+00,-2.736948327243272638e-01,-4.610971371862191970e-01
3.000438017497199586e-02,1.325090547688818953e-04,-7.851210898764439117e-01,3.631166942307731094e-06,-2.356320837044250105e+00,9.203125939640746750e-06,1.570787359892627411e+00,7.850079592105232429e-01,1.297412935497411525e-02,-1.183004374455237824e-02,3.321487730506203625e-04,-3.133221848073452359e-02,8.945662162921374800e-04,-2.077780416051218035e-02,7.801403852074222968e-04,8.284724435514357888e-01,-7.519153667463061019e-01,1.806359191402046385e-02,-1.989797651434636272e+00,5.624550077779878754e-02,-1.321123257048249844e+00,4.992998292862177445e-02,1.307054859478145481e+00,-1.189367960513156852e+00,2.317930069640938007e-01,1.678647483584640909e+01,1.206906225146836320e+00,-3.314723169290734739e-01,-4.747957195324288837e-01
3.100452618080439329e-02,1.459034322571816972e-04,-7.851333012815551182e-01,3.972431246720129965e-06,-2.356353178436068951e+00,1.012620985028629340e-05,1.570765912025102296e+00,7.850087646799318586e-01,1.381470126374528470e-02,-1.259275750722271305e-02,3.503117261813025506e-04,-3.335050416331717532e-02,9.515872790534550887e-04,-2.211792604160257858e-02,8.308055086111330260e-04,8.523872764328211948e-01,-7.732505527955845226e-01,1.825274006452227982e-02,-2.046079619889941359e+00,5.777639424503494547e-02,-1.358661389771215866e+00,5.138326401938544952e-02,1.344397544450959936e+00,-1.132933532833750423e+00,2.576564482174292237e-01,1.669309505175408503e+01,1.207821164732508556e+00,-3.886219770361635240e-01,-4.883518018111263626e-01
3.200467218663679420e-02,1.601504266306760078e-04,-7.851462861435983820e-01,4.331951489508169671e-06,-2.356387566452684545e+00,1.110708523907072583e-05,1.570743105133294071e+00,7.850096215465076632e-01,1.467907556039920250e-02,-1.337669291866690029e-02,3.686510560736702886e-04,-3.542476584898162500e-02,1.010128722332260523e-03,-2.349538818373887381e-02,8.829175088047951613e-04,8.760703797434684637e-01,-7.943525839132105082e-01,1.841631059248214144e-02,-2.101733628084406114e+00,5.928582935226735240e-02,-1.395793077967249829e+00,5.282332017946466535e-02,1.381350051831720327e+00,-1.077117608460604892e+00,2.832253957600662786e-01,1.660075606224004119e+01,1.208727532717671638e+00,-4.451458589409420519e-01,-5.017657966659241353e-01
3.300481819246919163e-02,1.752737279639320956e-04,-7.851600655708255161e-01,4.709891297296047845e-06,-2.356424056764515829e+00,1.214726198762954538e-05,1.570718902074569989e+00,7.850105312507305033e-01,1.556702081153977374e-02,-1.418161713701257542e-02,3.871412313329242508e-04,-3.755437642715610258e-02,1.070169118971096584e-03,-2.490978468622057768e-02,9.364631772719688146e-04,8.995224134040864516e-01,-8.152221542004034482e-01,1.855440340776235569e-02,-2.156761558493127229e+00,6.077387476065711225e-02,-1.432519527799725356e+00,5.425018809382662482e-02,1.417913451508664879e+00,-1.021918097330273945e+00,3.085006622968607948e-01,1.650945475073943669e+01,1.209624915101654041e+00,-5.010460075985636585e-01,-5.150381169577877838e-01
3.400496419830159600e-02,1.912967951943875299e-04,-7.851746604389590045e-01,5.106388811554958307e-06,-2.356462704415718701e+00,1.324822858165292166e-05,1.570693266111654163e+00,7.850114952198878893e-01,1.647830624378800873e-02,-1.500729801458997037e-02,4.057568204887152820e-04,-3.973871067001888413e-02,1.131687110483694386e-03,-2.636071085468675093e-02,9.914293421865380540e-04,9.227440373353843484e-01,-8.358599577583833984e-01,1.866711842022519829e-02,-2.211165293591203174e+00,6.224059913136528732e-02,-1.468841945432017626e+00,5.566390444743857246e-02,1.454088813285599580e+00,-9.673329176732599066e-01,3.334830613178976222e-01,1.641918799940006579e+01,1.210512893064313866e+00,-5.563244670051695762e-01,-5.281691757744150229e-01
3.500511020413399343e-02,2.082428567824629593e-04,-7.851900913918872238e-01,5.521556788542113104e-06,-2.356503563826074732e+00,1.441145217956687962e-05,1.570666160911421638e+00,7.850125148681122988e-01,1.741270174378193106e-02,-1.585350409793183368e-02,4.244724919951433132e-04,-4.197714523249809759e-02,1.194661407054967497e-03,-2.784776320111584380e-02,1.047802868412709386e-03,9.457359114580708992e-01,-8.562666886883697481e-01,1.875455553973297274e-02,-2.264946715853730641e+00,6.368607112555295380e-02,-1.504761537027499596e+00,5.706450592526771115e-02,1.489877206981571334e+00,-9.133599956410359821e-01,3.581734071810622755e-01,1.632995268912959475e+01,1.211391043384278277e+00,-6.109832801794681245e-01,-5.411593864385941810e-01
3.600525620996639087e-02,2.261349113716762469e-04,-7.852063788423584434e-01,5.955482699239800969e-06,-2.356546688792866995e+00,1.563837868121454086e-05,1.570637550543689809e+00,7.850135915964171485e-01,1.836997785817665735e-02,-1.672000462777351731e-02,4.432630142307584999e-04,-4.426905865227188236e-02,1.259070787541018447e-03,-2.937053944382586254e-02,1.105570657505013489e-03,9.684986956928551827e-01,-8.764430410915822200e-01,1.881681467614795822e-02,-2.318107707755808544e+00,6.511035940438122949e-02,-1.540279508749545778e+00,5.845202921228129928e-02,1.525279702528278269e+00,-8.599972649388579748e-01,3.825725151927998890e-01,1.624174569964208814e+01,1.212258938850014456e+00,-6.650244891446530637e-01,-5.540091625155713073e-01
3.700540221579879524e-02,2.449957284487554393e-04,-7.852235429726750482e-01,6.408228829294412748e-06,-2.356592132492771441e+00,1.693043279653733282e-05,1.570607399480014488e+00,7.850147267927339856e-01,1.934990579364436261e-02,-1.760656953905292629e-02,4.621032554985606802e-04,-4.661383134976833376e-02,1.324894099469135691e-03,-3.092863850747428270e-02,1.164719647708305217e-03,9.910330499604463883e-01,-8.963897090692406477e-01,1.885399573933245476e-02,-2.370650151772533576e+00,6.651353262901116281e-02,-1.575397066761531351e+00,5.982651099344654666e-02,1.560297370065209410e+00,-8.072426664643121974e-01,4.066812016870868796e-01,1.615456390950336640e+01,1.213116148663754501e+00,-7.184501349107172974e-01,-5.667189178194406152e-01
3.800554822163119267e-02,2.648478490037520336e-04,-7.852416037353880940e-01,6.879832378955477835e-06,-2.356639947483731401e+00,1.828901811425616224e-05,1.570575672592481542e+00,7.850159218319492371e-01,2.035225741687426634e-02,-1.851296946091050485e-02,4.809681840259988871e-04,-4.901084562816543366e-02,1.392110259037791439e-03,-3.252166052305800747e-02,1.225236813957760774e-03,1.013339634181553484e+00,-9.161073867225644207e-01,1.886619863914874851e-02,-2.422575930379003317e+00,6.789565946060387158e-02,-1.610115417226828827e+00,6.118798795373065619e-02,1.594931280032550136e+00,-7.550941479514999832e-01,4.305002841026209226e-01,1.606840419617566340e+01,1.213962238838359742e+00,-7.712622574571011969e-01,-5.792890664185845750e-01
3.900569422746359011e-02,2.857135861901551120e-04,-7.852605808539910859e-01,7.370305563014715859e-06,-2.356690185706846741e+00,1.971551717055269724e-05,1.570542335152500746e+00,7.850171780759400697e-01,2.137680525457265335e-02,-1.943897571668928154e-02,4.998328679649724320e-04,-5.145948567339117541e-02,1.460698251116645781e-03,-3.414920682791348916e-02,1.287109167878881626e-03,1.035419108276884881e+00,-9.355967681527735946e-01,1.885352328545913600e-02,-2.473886926050315793e+00,6.925680856032039034e-02,-1.644435766308813607e+00,6.253649677810088625e-02,1.629182503261886072e+00,-7.035496636210084587e-01,4.540305810582583312e-01,1.598326343606122535e+01,1.214796772587158236e+00,-8.234628957157197338e-01,-5.917200226401889696e-01
4.000584023329599448e-02,3.076150259850041484e-04,-7.852804938236149779e-01,7.879635710745073961e-06,-2.356742898488255022e+00,2.121129151775051199e-05,1.570507352829600300e+00,7.850184968736126923e-01,2.242332249346290149e-02,-2.038436032393485878e-02,5.186724753918302549e-04,-5.395913755412350132e-02,1.530637129246544947e-03,-3.581087996571663545e-02,1.350323757787492973e-03,1.057272132167150325e+00,-9.548585474610874479e-01,1.881606958812589298e-02,-2.524585021261569473e+00,7.059704858932186466e-02,-1.678359320170859537e+00,6.387207415152443279e-02,1.663052111064708960e+00,-6.526071738353698137e-01,4.772729124267093281e-01,1.589913850454518851e+01,1.215619310706817613e+00,-8.750540875543280084e-01,-6.040122010738528946e-01
4.100598623912839191e-02,3.305740278490023839e-04,-7.853013619117220623e-01,8.407785365839750533e-06,-2.356798136541013555e+00,2.277768179299631960e-05,1.570470691690218690e+00,7.850198795609373281e-01,2.349158298028539843e-02,-2.134889599439536087e-02,5.374622743073708157e-04,-5.650918922179024723e-02,1.601906015639519574e-03,-3.750628368648280253e-02,1.414867668689740940e-03,1.078899365773058339e+00,-9.738934187487257033e-01,1.875393745701132292e-02,-2.574672098487861049e+00,7.191644820876931521e-02,-1.711887284976340240e+00,6.519475675896853339e-02,1.696541175318767802e+00,-6.022646447603120512e-01,5.002280994065193553e-01,1.581602627603738931e+01,1.216429411953303008e+00,-9.260378697602464904e-01,-6.161660165743243489e-01
4.200613224496078935e-02,3.546122253866309344e-04,-7.853232041588000811e-01,8.954692386351258756e-06,-2.356855949966984110e+00,2.441600778694122869e-05,1.570432318196499422e+00,7.850213274609858516e-01,2.458136122179763530e-02,-2.233235613402151376e-02,5.561776326368422568e-04,-5.910903051056926732e-02,1.674484101178788176e-03,-3.923502294656688177e-02,1.480728022282098207e-03,1.100301469015317890e+00,-9.927020761169080831e-01,1.866722680197770851e-02,-2.624150040204288103e+00,7.321507607982384591e-02,-1.745020866888630007e+00,6.650458128540040481e-02,1.729650768552269291e+00,-5.525200480313536833e-01,5.228969645923370324e-01,1.573392362401350830e+01,1.217226633410988690e+00,-9.764162780244218798e-01,-6.281818842633821731e-01
4.300627825079319372e-02,3.797510270062615968e-04,-7.853460393790573368e-01,9.520270044630446096e-06,-2.356916388258713191e+00,2.612756851242190506e-05,1.570392199205083994e+00,7.850228418839685363e-01,2.569243238477414426e-02,-2.333451484296659648e-02,5.747940182299428368e-04,-6.175805313738833707e-02,1.748350645418754326e-03,-4.099670390866320957e-02,1.547891976951358594e-03,1.121479101814638391e+00,-1.011285213666854421e+00,1.855603753288734628e-02,-2.673020728885949104e+00,7.449300086364658846e-02,-1.777761272071103793e+00,6.780158441578729156e-02,1.762381964025972136e+00,-5.033713604263100327e-01,5.452803320435115619e-01,1.565282742105522473e+01,1.218010530854953810e+00,-1.026191346925840353e+00,-6.400602195308935372e-01
4.400642425662559115e-02,4.060116165802700895e-04,-7.853698861611159154e-01,1.010440712726553498e-05,-2.356979500301319419e+00,2.791364227314176388e-05,1.570350301965905304e+00,7.850244241272700263e-01,2.682457229600651583e-02,-2.435514691558643072e-02,5.932869988608199547e-04,-6.445565070192516011e-02,1.823484976585007088e-03,-4.279093394180561588e-02,1.616346727774640741e-03,1.142432924091728585e+00,-1.029643525499784218e+00,1.842046955960252239e-02,-2.721286047007940745e+00,7.575029122139854965e-02,-1.810109706687135001e+00,6.908580283509641040e-02,1.794735835813179303e+00,-4.548165635430120313e-01,5.673790273510186388e-01,1.557273453888966763e+01,1.218780659106534214e+00,-1.075365109916277762e+00,-6.518014380350743986e-01
4.500657026245798858e-02,4.334149541051504303e-04,-7.853947628687066862e-01,1.070696803502118040e-05,-2.357045334374372469e+00,2.977548673235225679e-05,1.570306594120981503e+00,7.850260754754871950e-01,2.797755744230341277e-02,-2.539402784043941555e-02,6.116322422280710174e-04,-6.720121868660741682e-02,1.899866491574322318e-03,-4.461732162136741037e-02,1.686079506519385729e-03,1.163163595767297442e+00,-1.047777705716917085e+00,1.826062279198553684e-02,-2.768947877045361494e+00,7.698701581424086116e-02,-1.842067376900097919e+00,7.035727322829499197e-02,1.826713458877667451e+00,-4.068536434826415249e-01,5.891938777027350138e-01,1.549364184842792014e+01,1.219536572382185380e+00,-1.123939599305376902e+00,-6.634059557019768016e-01
4.600671626829039296e-02,4.619817763616275810e-04,-7.854206876413637461e-01,1.132779288277749536e-05,-2.357113938153778232e+00,3.171433898153405386e-05,1.570261043703208959e+00,7.850277972004645610e-01,2.915116497049055969e-02,-2.645093380028653088e-02,6.298055159547433311e-04,-6.999415445661275048e-02,1.977474655954663315e-03,-4.647547672906138932e-02,1.757077581643359462e-03,1.183671776762053929e+00,-1.065688448419472856e+00,1.807659713989866537e-02,-2.816008101473308489e+00,7.820324330333459917e-02,-1.873635488873366617e+00,7.161603228035021140e-02,1.858315909149564682e+00,-3.594805905386854183e-01,6.107257119470886897e-01,1.541554621980284878e+01,1.220277824635695119e+00,-1.171916846246066735e+00,-6.748741887242349913e-01
4.700686227412279039e-02,4.917325975747707410e-04,-7.854476783951178653e-01,1.196669759946907287e-05,-2.357185358713661749e+00,3.373141560907819180e-05,1.570213619135156335e+00,7.850295905613321468e-01,3.034517268741072915e-02,-2.752564167209128193e-02,6.477826875883334508e-04,-7.283385725986867010e-02,2.056289003965174750e-03,-4.836501025293980793e-02,1.829328258294648547e-03,1.203958126996707012e+00,-1.083376447708671142e+00,1.786849251320420801e-02,-2.862468602766879311e+00,7.939904234984083986e-02,-1.904815248770315605e+00,7.286211667622936872e-02,1.889544263599210350e+00,-3.126953988911942428e-01,6.319753606551048453e-01,1.533844452240601974e+01,1.221003969893811325e+00,-1.219298880720305789e+00,-6.862065535590951004e-01
4.800700827995518782e-02,5.226877100741075637e-04,-7.854757528231918196e-01,1.262347402802406563e-05,-2.357259642528248378e+00,3.582791276896737790e-05,1.570164289227857557e+00,7.850314568045406727e-01,3.155935905992377638e-02,-2.861792902701975824e-02,6.655397246007883731e-04,-7.571972822705276551e-02,2.136289138516192856e-03,-5.028553438739443576e-02,1.902818878311666800e-03,1.224023306391965882e+00,-1.100842397685731555e+00,1.763640882176446129e-02,-2.908331263401172428e+00,8.057448161492065941e-02,-1.935607862754318953e+00,7.409556310089963904e-02,1.920399600309014021e+00,-2.664960663064853685e-01,6.529436561808463768e-01,1.526233362492384771e+01,1.221714562585340058e+00,-1.266087731525155524e+00,-6.974034669257588304e-01
4.900715428578759220e-02,5.548671849537369083e-04,-7.855049283966941687e-01,1.329789002530319450e-05,-2.357336835473749392e+00,3.800500624945718904e-05,1.570113023179605882e+00,7.850333971639005259e-01,3.279350321490660802e-02,-2.972757413044061978e-02,6.830526943885042350e-04,-7.865117037159252700e-02,2.217454731189237842e-03,-5.223666253315652208e-02,1.977536820223149607e-03,1.243867974868539505e+00,-1.118086992451873707e+00,1.738044597544169748e-02,-2.953597965851284535e+00,8.172962975973516175e-02,-1.966014536988750727e+00,7.531640823932825302e-02,1.950882998543339575e+00,-2.208805938424472926e-01,6.736314327202901353e-01,1.518721039537317630e+01,1.222409157863759921e+00,-1.312285426259159671e+00,-7.084653458020693240e-01
5.000730029161998963e-02,5.882908727324426225e-04,-7.855352223653134791e-01,1.398968956203879422e-05,-2.357416982830243590e+00,4.026385154175720287e-05,1.570059790574746428e+00,7.850354128606160664e-01,3.404738493925315440e-02,-3.085435594192506570e-02,7.002977642723263139e-04,-8.162758858966531750e-02,2.299765522237013238e-03,-5.421800929729674035e-02,2.053469499248153710e-03,1.263492792347136628e+00,-1.135110926108317209e+00,1.710070388409822006e-02,-2.998270592592313655e+00,8.286455544544539531e-02,-1.996036477636984774e+00,7.652468877648245515e-02,1.980995538816432644e+00,-1.758469855589231967e-01,6.940395263686408578e-01,1.511307170113571452e+01,1.223087311923410248e+00,-1.357893991309078841e+00,-7.193926074205669874e-01
5.100744629745239400e-02,6.229784040138066194e-04,-7.855666517580127683e-01,1.469859282277386093e-05,-2.357500129283560231e+00,4.260558390871230520e-05,1.570004561382470909e+00,7.850375051033238183e-01,3.532078467987448400e-02,-3.199805411524687254e-02,7.172512014975515214e-04,-8.464838966019856692e-02,2.383201320583411970e-03,-5.622919049322531310e-02,2.130604367296063707e-03,1.282898418748466662e+00,-1.151914892756282116e+00,1.679728245759631519e-02,-3.042351026099357814e+00,8.397932733321250565e-02,-2.025674890862395383e+00,7.772044139732943446e-02,2.010738302958432477e+00,-1.313932482337728525e-01,7.141687751761151004e-01,1.503991440899209664e+01,1.223748582309305277e+00,-1.402915451836898475e+00,-7.301856692639486779e-01
5.200759230328479144e-02,6.589491901463225519e-04,-7.855992333837238384e-01,1.542429630580107581e-05,-2.357586318927162861e+00,4.503131845348386187e-05,1.569947305955609940e+00,7.850396750881287744e-01,3.661348354369865776e-02,-3.315844899838236992e-02,7.338893732339236324e-04,-8.771298224486949457e-02,2.467742003823511585e-03,-5.826982314069188013e-02,2.208928912966583169e-03,1.302085513993238131e+00,-1.168499586496987375e+00,1.647028160579828635e-02,-3.085841148847515480e+00,8.507401408419749955e-02,-2.054930982828357067e+00,7.890370278683646321e-02,2.040112374179464005e+00,-8.751739108405665046e-02,7.340200192021938408e-01,1.496773538515497926e+01,1.224392528220632048e+00,-1.447351831767186070e+00,-7.408449490599519072e-01
5.300773830911718887e-02,6.962224238835092692e-04,-7.856329838320416092e-01,1.616647292310186107e-05,-2.357675595264031365e+00,4.754215018823091093e-05,1.569887995029427330e+00,7.850419239986407005e-01,3.792526329767084009e-02,-3.433532163351048216e-02,7.501887465756391406e-04,-9.082077688810549776e-02,2.553367518223575994e-03,-6.033952546578565113e-02,2.288430661549742656e-03,1.321054738002160001e+00,-1.184865701431653484e+00,1.611980123856640926e-02,-3.128742843311881572e+00,8.614868435956150872e-02,-2.083805959698243448e+00,8.007450962997073041e-02,2.069118837131854072e+00,-4.421742549271856504e-02,7.535941005683821636e-01,1.489653149530151488e+01,1.225018710807974864e+00,-1.491205153774731951e+00,-7.513708647757009196e-01
5.400788431494959324e-02,7.348170800440248160e-04,-7.856679194739183414e-01,1.692477210028542231e-05,-2.357768001208546682e+00,5.013915410279145646e-05,1.569826599720413496e+00,7.850442530060114388e-01,3.925590636875322947e-02,-3.552845375701264158e-02,7.661258885413423786e-04,-9.397118601708374930e-02,2.640057878721056329e-03,-6.243791690093525998e-02,2.369097175025894949e-03,1.339806750695941906e+00,-1.201013931661499612e+00,1.574594126576297354e-02,-3.171057991967556777e+00,8.720340682046562319e-02,-2.112301027635429485e+00,8.123289861169946668e-02,2.097758777970494037e+00,-1.491364740366596386e-03,7.728918635094794709e-01,1.482629960460505458e+01,1.225626693464335393e+00,-1.534477439272522448e+00,-7.617638346115434000e-01
5.500803032078199067e-02,7.747519161717776126e-04,-7.857040564623578582e-01,1.769881987652774849e-05,-2.357863579088371075e+00,5.282338523336353882e-05,1.569763091525078202e+00,7.850466632689716562e-01,4.060519584392510012e-02,-3.673762779947288559e-02,7.816774660741277955e-04,-9.716362394173140571e-02,2.727793168924585749e-03,-6.456461808490877863e-02,2.450916052065714619e-03,1.358342211995291926e+00,-1.216944971287745592e+00,1.534880159725027921e-02,-3.212788477289636457e+00,8.823825012807087753e-02,-2.140417392803288799e+00,8.237890641698990268e-02,2.126033284411358970e+00,4.066277625753089708e-02,7.919141544233891938e-01,1.475703657776612232e+01,1.226216042109978366e+00,-1.577170708400006172e+00,-7.720242769944015704e-01
5.600817632661438811e-02,8.160454731960431647e-04,-7.857414107331102127e-01,1.848821900451070685e-05,-2.357962370646334183e+00,5.559587873118658269e-05,1.569697442318744862e+00,7.850491559338664826e-01,4.197291547018278807e-02,-3.796262688567778043e-02,7.968202460415395229e-04,-1.003975068547256072e-01,2.816553541113987671e-03,-6.671925086281382811e-02,2.533874928030201926e-03,1.376661781820919916e+00,-1.232659514411611035e+00,1.492848214289061240e-02,-3.253936181753220414e+00,8.925328294353840342e-02,-2.168156261365194570e+00,8.351256973080925516e-02,2.153943445788222277e+00,8.224698120820228553e-02,8.106618219194655639e-01,1.468873927904282262e+01,1.226786325471187045e+00,-1.619286980011650057e+00,-7.821526105706743115e-01
5.700832233244679248e-02,8.587160760915753515e-04,-7.857799980053653544e-01,1.929254905036106155e-05,-2.358064417042312844e+00,5.845764993122259598e-05,1.569629624354343500e+00,7.850517321346934807e-01,4.335884965453969120e-02,-3.920323483461651132e-02,8.115310952355720255e-04,-1.036722528314934499e-01,2.906319216240270571e-03,-6.890143828609754384e-02,2.617961474970679787e-03,1.394766120093534623e+00,-1.248158255134315775e+00,1.448508281254625926e-02,-3.294502987833404450e+00,9.024857392802926315e-02,-2.195518839484523088e+00,8.463392523812476864e-02,2.181490353107564673e+00,1.232632326939607781e-01,8.291357168654456267e-01,1.462140457228038315e+01,1.227337115352945318e+00,-1.660828271665825362e+00,-7.921492541987139591e-01
5.800846833827918991e-02,9.027818345387194493e-04,-7.858198337824481294e-01,2.011136649358946182e-05,-2.358169758855117593e+00,6.140969442083721980e-05,1.569559610261205274e+00,7.850543929931387277e-01,4.476278346402624841e-02,-4.045923615948076452e-02,8.257869803726684745e-04,-1.069872818302119305e-01,2.997070483925627551e-03,-7.111080461254640217e-02,2.703163401628794638e-03,1.412655886733844568e+00,-1.263441887557079202e+00,1.401870351607951981e-02,-3.334490778005287481e+00,9.122419174270454678e-02,-2.222506333324647088e+00,8.574300962390364600e-02,2.208675099101744976e+00,1.637135124193910274e-01,8.473366924329518435e-01,1.455502932094014135e+01,1.227867986905629705e+00,-1.701796599613964567e+00,-8.020146269409146322e-01
5.900861434411158735e-02,9.482606435835274315e-04,-7.858609333525119478e-01,2.094420482702958599e-05,-2.358278436084373375e+00,6.445298810848121198e-05,1.569487373043853884e+00,7.850571396186135642e-01,4.618450262569000209e-02,-4.173041606766481060e-02,8.395649680937225913e-04,-1.103420156918080153e-01,3.088787702463437635e-03,-7.334697530628650486e-02,2.789468453436516008e-03,1.430331741662559386e+00,-1.278511105781120705e+00,1.352944416335267498e-02,-3.373901434743966199e+00,9.218020504872534437e-02,-2.249119949048940192e+00,8.683985957311313175e-02,2.235498778280398557e+00,2.035998014533136891e-01,8.652656041416141308e-01,1.448961038812779201e+01,1.228378518885741233e+00,-1.742193978790034237e+00,-8.117491480554349659e-01
6.000876034994399172e-02,9.951701842978706667e-04,-7.859033117892338938e-01,2.179057465677707879e-05,-2.358390488152402487e+00,6.758848729237141564e-05,1.569412886080801206e+00,7.850599731082914534e-01,4.762379352659551479e-02,-4.301656046076550444e-02,8.528422249640772376e-04,-1.137358781399586682e-01,3.181451298818269244e-03,-7.560957703778337091e-02,2.876864412516137812e-03,1.447794344800387822e+00,-1.293366603907660783e+00,1.301740466422802653e-02,-3.412736840524539517e+00,9.311668250725270435e-02,-2.275360892820777803e+00,8.792451177072041490e-02,2.261962486980132692e+00,2.429240804656151997e-01,8.829233099017910202e-01,1.442514463662103807e+01,1.228868293910752696e+00,-1.782022422800275896e+00,-8.213532369875881090e-01
6.100890635577638915e-02,1.043527924439551424e-03,-7.859469839525080603e-01,2.264996380212863780e-05,-2.358505953906109287e+00,7.081712872917210726e-05,1.569336123123340032e+00,7.850628945471440634e-01,4.908044321382441788e-02,-4.431745593458223664e-02,8.655960174735253913e-04,-1.171682947810906983e-01,3.275041768625871954e-03,-7.789823768384197822e-02,2.965339097680275756e-03,1.465044356068038400e+00,-1.308009076037918383e+00,1.248268492856784498e-02,-3.450998877822103239e+00,9.403369277944773064e-02,-2.301230370803533543e+00,8.899700290169276773e-02,2.288067323412511733e+00,2.816883299589144629e-01,9.003106700559482256e-01,1.436162892889656995e+01,1.229336898708092818e+00,-1.821283943913258208e+00,-8.308273133609244132e-01
6.200905236160878659e-02,1.093351119112420233e-03,-7.859919644891405488e-01,2.352183739552107949e-05,-2.358624871618861807e+00,7.413982970267614142e-05,1.569257058294336815e+00,7.850659050079791257e-01,5.055423939447541148e-02,-4.563288977911694744e-02,8.778037120363089540e-04,-1.206386931043809674e-01,3.369539676193183432e-03,-8.021258632760683294e-02,3.054880364431869066e-03,1.482082435386220753e+00,-1.322439216273113782e+00,1.192538486623446158e-02,-3.488689429111756279e+00,9.493130452647155493e-02,-2.326729589160581924e+00,9.005736965099739311e-02,2.313814387710375176e+00,3.198945304952166557e-01,9.174285474186778533e-01,1.429906012715633246e+01,1.229783924358351488e+00,-1.859980553050211816e+00,-8.401717969680455589e-01
6.300919836744119096e-02,1.144656811426485003e-03,-7.860382678335436912e-01,2.440563798247031386e-05,-2.358747278992375129e+00,7.755748809248625818e-05,1.569175666087025967e+00,7.850690055514758514e-01,5.204497043566427839e-02,-4.696264997857420298e-02,8.894427749911212443e-04,-1.241465024817562796e-01,3.464925654498329875e-03,-8.255225325856190011e-02,3.145476104964184394e-03,1.498909242675643849e+00,-1.336657718714466148e+00,1.134560438709012256e-02,-3.525810376868597107e+00,9.580958640948517013e-02,-2.351859754055297458e+00,9.110564870360149392e-02,2.339204781972496594e+00,3.575446629173267832e-01,9.342778073153907847e-01,1.423743509335326252e+01,1.230208966532734927e+00,-1.898114259775637969e+00,-8.493871077611662157e-01
6.400934437327358839e-02,1.197461833158027520e-03,-7.860859082084297178e-01,2.530078562151042069e-05,-2.358873213158594329e+00,8.107098244269613299e-05,1.569091921363803710e+00,7.850721972262226789e-01,5.355242536452384239e-02,-4.830652521136105659e-02,9.004907726011034206e-04,-1.276911541678933670e-01,3.561180405190619933e-03,-8.491686997253067304e-02,3.237114248160806711e-03,1.515525437857016211e+00,-1.350665277463195313e+00,1.074344340099711928e-02,-3.562363603567721082e+00,9.666860708964970794e-02,-2.376622071651052437e+00,9.214187674447230081e-02,2.364239610306604789e+00,3.946407085653751423e-01,9.508593176197007724e-01,1.417675068921632864e+01,1.230611625724830738e+00,-1.935687072288212685e+00,-8.584736658424605427e-01
6.500949037910598582e-02,1.251782805409715378e-03,-7.861348996255060895e-01,2.620667798413269865e-05,-2.359002710681576964e+00,8.468117203057173826e-05,1.569005799355019937e+00,7.850754810687531338e-01,5.507639386820394056e-02,-4.966430485008716672e-02,9.109253710538479498e-04,-1.312720813002188069e-01,3.658284698590549486e-03,-8.730606917167599290e-02,3.329782759595645378e-03,1.531931680851047473e+00,-1.364462586620520668e+00,1.011900181781777951e-02,-3.598350991684228450e+00,9.750843522812627229e-02,-2.401017748111223149e+00,9.316609045857707216e-02,2.388919978870810645e+00,4.311846494881599323e-01,9.671739487895057996e-01,1.411700377627497716e+01,1.230991507476744351e+00,-1.972700997411970913e+00,-8.674318914542209491e-01
6.600963638493838326e-02,1.307636139270716962e-03,-7.861852558861691653e-01,2.712269045472467718e-05,-2.359135807559379572e+00,8.838889693523252879e-05,1.568917275657773169e+00,7.850788581035832436e-01,5.661666629387154814e-02,-5.103577896156472060e-02,9.207243364613945961e-04,-1.348887188989092434e-01,3.756219373689799901e-03,-8.971948476450029852e-02,3.423469641532936314e-03,1.548128631578445713e+00,-1.378050340287662490e+00,9.472379547414373768e-03,-3.633774423693215017e+00,9.832913948607593935e-02,-2.425047989599181442e+00,9.417832653088302475e-02,2.413246995913426840e+00,4.671784686495357164e-01,9.832225739017951271e-01,1.405819121588301535e+01,1.231348222599626174e+00,-2.009158040587755156e+00,-8.762622049688546522e-01
6.700978239077079457e-02,1.365038036476812948e-03,-7.862369905821985361e-01,2.804817623050920295e-05,-2.359272539225933940e+00,9.219497810633264074e-05,1.568826326234704416e+00,7.850823293432476202e-01,5.817303364871071608e-02,-5.242073830680855917e-02,9.298655348602359507e-04,-1.385405038668913735e-01,3.854965338151241511e-03,-9.215675186584558476e-02,3.518162932927236357e-03,1.564116949959921454e+00,-1.391429232565839946e+00,8.803676499649183002e-03,-3.668635782069779694e+00,9.913078852465974367e-02,-2.448714002278304935e+00,9.517862164635734756e-02,2.437221771811237225e+00,5.026241501298659431e-01,9.990060686861840233e-01,1.400030986924179821e+01,1.231681387388699367e+00,-2.045060205864952518e+00,-8.849650268787506713e-01
6.800992839660319200e-02,1.424004490070509112e-03,-7.862901170964512465e-01,2.898246642148336695e-05,-2.359412940552936711e+00,9.610021743274194150e-05,1.568732927412788802e+00,7.850858957883368738e-01,5.974528759992244614e-02,-5.381897434103594807e-02,9.383269322113128776e-04,-1.422268749898416007e-01,3.954503568308925798e-03,-9.461750679689308330e-02,3.613850709423426302e-03,1.579897295916181665e+00,-1.404599957556272871e+00,8.112992584384498551e-03,-3.702936949289019619e+00,9.991345100503880305e-02,-2.472016992311964589e+00,9.616701248996731288e-02,2.460845419106199472e+00,5.375236793223749920e-01,1.014525311557211484e+00,1.394335659742288236e+01,1.231990623832758924e+00,-2.080409495893505767e+00,-8.935407777860339129e-01
6.901007440243558944e-02,1.484551285061153688e-03,-7.863446486035566840e-01,2.992487015035772311e-05,-2.359557045851729651e+00,1.001053978112275675e-04,1.568637055882130538e+00,7.850895584275329186e-01,6.133322047472488520e-02,-5.523027921366680665e-02,9.460865944000146225e-04,-1.459472729361864229e-01,4.054815109168093644e-03,-9.710138708516369288e-02,3.710521083356709167e-03,1.595470329367936646e+00,-1.417563209360180654e+00,7.400427711482631711e-03,-3.736679807826031929e+00,1.006771955883742214e-01,-2.494958165863534916e+00,9.714353574668009583e-02,2.484119052540646688e+00,5.718790431246779660e-01,1.029781183645391174e+00,1.388732826139011500e+01,1.232275559818273525e+00,-2.115207911916182404e+00,-9.019898783922520868e-01
7.001022040826798687e-02,1.546693999085047358e-03,-7.864005980706100241e-01,3.087467465249513410e-05,-2.359704888875181705e+00,1.042112832151348927e-04,1.568538688694755878e+00,7.850933182376478303e-01,6.293662526035323501e-02,-5.665444576832360385e-02,9.531226872361824986e-04,-1.497011402571022942e-01,4.155881074405171419e-03,-9.960803146451775725e-02,3.808162203752613658e-03,1.610836710235895364e+00,-1.430319682078783572e+00,6.666081790805857346e-03,-3.769866240155914205e+00,1.014220909358270195e-01,-2.517538729096391314e+00,9.810822810146295481e-02,2.507043789090974695e+00,6.056922301253598873e-01,1.044774568827062655e+00,1.383222172202110656e+01,1.232535829328089694e+00,-2.149457453761131731e+00,-9.103127494880058901e-01
7.101036641410038430e-02,1.610448003065557358e-03,-7.864579782578672296e-01,3.183114537584999672e-05,-2.359856502819573265e+00,1.084186187630688226e-04,1.568437803263406982e+00,7.850971761836585960e-01,6.455529560405973144e-02,-5.809126754283135130e-02,9.594134764541059840e-04,-1.534879213865155412e-01,4.257682646367770551e-03,-1.021370798751551068e-01,3.906762256326990271e-03,1.625997098440766342e+00,-1.442870069813300571e+00,5.910054732216479811e-03,-3.802498128753764917e+00,1.021482057085583428e-01,-2.539759888173907854e+00,9.906112623928312044e-02,2.529620747999836272e+00,6.389652307856358293e-01,1.059506353753017605e+00,1.377803384012812415e+01,1.232771072634807119e+00,-2.183160119834686608e+00,-9.185098119425524343e-01
7.201051241993278174e-02,1.675828461873231584e-03,-7.865168017194388295e-01,3.279352608090709107e-05,-2.360011920326480439e+00,1.127281307875749523e-04,1.568334377360334875e+00,7.851011332187446401e-01,6.618902581311372768e-02,-5.954053876921766575e-02,9.649373277125252151e-04,-1.573070626411025574e-01,4.360201076074689264e-03,-1.046881734636150585e-01,4.006309463486014757e-03,1.640952153903258992e+00,-1.455215066664951928e+00,5.132446445576760961e-03,-3.834577356094682532e+00,1.028556085677292398e-01,-2.561622849259457713e+00,1.000022668451077679e-01,2.551851050806898336e+00,6.717000376161704756e-01,1.073977427875966395e+00,1.372476147647847533e+01,1.232980936488863088e+00,-2.216317907114448538e+00,-9.265814866934184435e-01
7.301065842576519305e-02,1.742850334985912054e-03,-7.865770808039850293e-01,3.376103894062081946e-05,-2.360171173484655327e+00,1.171405269038209418e-04,1.568228389116092636e+00,7.851051902843243502e-01,6.783761085480154163e-02,-6.100205437371267886e-02,9.696727065946286013e-04,-1.611580122202895815e-01,4.463417683215913437e-03,-1.072609545827763605e-01,4.106792084326185525e-03,1.655702536544082282e+00,-1.467355366734957256e+00,4.333356840749024233e-03,-3.866105804653763300e+00,1.035443681745008421e-01,-2.583128818516416292e+00,1.009316866039041832e-01,2.573735821378129174e+00,7.038986453490329032e-01,1.088188683476805751e+00,1.367240149181431796e+01,1.233165074301410424e+00,-2.248932811142623667e+00,-9.345281947360335462e-01
7.401080443159759048e-02,1.811528377148845757e-03,-7.866388276554088232e-01,3.473288464035402518e-05,-2.360334293831909847e+00,1.216564960782774170e-04,1.568119817018331252e+00,7.851093483100920478e-01,6.950084635642665709e-02,-6.247560997674907884e-02,9.735981786080565113e-04,-1.650402202062528079e-01,4.567313856152611408e-03,-1.098550667918572754e-01,4.208198414634321469e-03,1.670248906283944512e+00,-1.479291664124535721e+00,3.512885827595524542e-03,-3.897085356906104359e+00,1.042145531900341704e-01,-2.604279002108156327e+00,1.018494222006395694e-01,2.595276185933685920e+00,7.355630511048995013e-01,1.102141015689756198e+00,1.362095074687181651e+01,1.233323146321984920e+00,-2.281006826019621236e+00,-9.423503571134211887e-01
7.501095043742998791e-02,1.881877139034802016e-03,-7.867020542135514383e-01,3.570824247781724829e-05,-2.360501312357001336e+00,1.262767086973994935e-04,1.568008639910589030e+00,7.851136082140546257e-01,7.117852860530955728e-02,-6.396100189296217986e-02,9.766924091848968280e-04,-1.689531385639184424e-01,4.671871051917138307e-03,-1.124701548564155384e-01,4.310516786887569340e-03,1.684591923043555539e+00,-1.491024652934907158e+00,2.671133315978583590e-03,-3.927517895326805952e+00,1.048662322754903287e-01,-2.625074606198052773e+00,1.027555103202811154e-01,2.616473273074392480e+00,7.666952545553368248e-01,1.115835322526329998e+00,1.357040610239998912e+01,1.233454819811065306e+00,-2.312541944397918936e+00,-9.500483949059650435e-01
7.601109644326238535e-02,1.953910967904184861e-03,-7.867667722148858900e-01,3.668627046300760875e-05,-2.360672259501511938e+00,1.310018166363078945e-04,1.567894836991088559e+00,7.851179709025676301e-01,7.287045454878775252e-02,-6.545802713118975547e-02,9.789341636816880927e-04,-1.728962211409626193e-01,4.777070796213038657e-03,-1.151058647483483299e-01,4.413735570253395947e-03,1.698732246743624108e+00,-1.502555027267291843e+00,1.808199215760492723e-03,-3.957405302390962554e+00,1.054994740920304208e-01,-2.645516836949480144e+00,1.036499876477960935e-01,2.637328213806831911e+00,7.972972580804167375e-01,1.129272504898192642e+00,1.352076441917882832e+01,1.233559769207548840e+00,-2.343540157476157848e+00,-9.576227292212811104e-01
7.701124244909478278e-02,2.027644008265144099e-03,-7.868329931932117605e-01,3.766610541814792673e-05,-2.360847165161734207e+00,1.358324533274700278e-04,1.567778387811528784e+00,7.851224372703725640e-01,7.457642179421591910e-02,-6.696648339447226761e-02,9.803023073794187459e-04,-1.768689236678113175e-01,4.882894683415036838e-03,-1.177618436458924278e-01,4.517843170589595087e-03,1.712670537304858964e+00,-1.513883481222908722e+00,9.241834368035276720e-04,-3.986749460573673520e+00,1.061143473008154953e-01,-2.665606900525812062e+00,1.045328908681517205e-01,2.657842141567085203e+00,8.273710669216349789e-01,1.142453466638897241e+00,1.347202255803692061e+01,1.233637676291181595e+00,-2.374003454993525608e+00,-9.650737811842089453e-01
7.801138845492718021e-02,2.103090202533690941e-03,-7.869007284803487545e-01,3.864686307762575478e-05,-2.361026058690551377e+00,1.407692338293814287e-04,1.567659272275878868e+00,7.851270082006337470e-01,7.629622860896571879e-02,-6.848616908005264459e-02,9.807758054835265856e-04,-1.808707037576406940e-01,4.989324376569052692e-03,-1.204377399336239718e-01,4.622828030444279743e-03,1.726407454647969519e+00,-1.525010708902977852e+00,1.918588896999279259e-05,-4.015552252350036433e+00,1.067109205630066560e-01,-2.685346003090422595e+00,1.054042566663151992e-01,2.678016192243126259e+00,8.569186893299638452e-01,1.155379114524533124e+00,1.342417737986860971e+01,1.233688230340027836e+00,-2.403933825224365162e+00,-9.724019719269626494e-01
7.901153446075959152e-02,2.180263291693812326e-03,-7.869699892068323654e-01,3.962763818793236940e-05,-2.361208968899325189e+00,1.458127548952468098e-04,1.567537470639170705e+00,7.851316845649745080e-01,7.802967392042592376e-02,-7.001688327937645451e-02,9.803337231238998511e-04,-1.849010209063767507e-01,5.096341607392183316e-03,-1.231332032024586992e-01,4.728678629055892493e-03,1.739943658693664075e+00,-1.535937404408718621e+00,-9.066935178778708776e-04,-4.043815560195150205e+00,1.072892625397650068e-01,-2.704735350806686256e+00,1.062641217272537603e-01,2.697851504195883710e+00,8.859421367093189836e-01,1.168050358293255764e+00,1.337722574565067113e+01,1.233711128282996672e+00,-2.433333254973041537e+00,-9.796077225794432852e-01
8.001168046659198896e-02,2.259176815957579607e-03,-7.870407863026065431e-01,4.060750460760184389e-05,-2.361395924059773499e+00,1.509635950416612330e-04,1.567412963506294332e+00,7.851364672235138231e-01,7.977655731600226396e-02,-7.155842577809171101e-02,9.789552253548744042e-04,-1.889593364926952235e-01,5.203928176272712598e-03,-1.258478842496516259e-01,4.835383482353189898e-03,1.753279809362652486e+00,-1.546664261841350640e+00,-1.853354873877699135e-03,-4.071541266584110197e+00,1.078494418922516102e-01,-2.723776149837977112e+00,1.071125227359346344e-01,2.717349218279010437e+00,9.144434237554319722e-01,1.180468110663790204e+00,1.333116451645832434e+01,1.233706074847490175e+00,-2.462203729569056421e+00,-9.866914542597566840e-01
8.101182647242438639e-02,2.339844115425266345e-03,-7.871131304977194709e-01,4.158551540715009411e-05,-2.361586951905856324e+00,1.562223146172914709e-04,1.567285731830788897e+00,7.851413570249038409e-01,8.153667904311767689e-02,-7.311059705604909531e-02,9.766195771552391505e-04,-1.930451137780221094e-01,5.312065952270114688e-03,-1.285814350787974625e-01,4.942931142955261578e-03,1.766416566575643055e+00,-1.557191975302093967e+00,-2.820698269167254413e-03,-4.098731253992014878e+00,1.083915272816275421e-01,-2.742469606347668787e+00,1.079494963773250660e-01,2.736510477857360346e+00,9.424245685898710034e-01,1.192633287352832028e+00,1.328599055348093749e+01,1.233672782702213588e+00,-2.490547232862398541e+00,-9.936535880649380870e-01
8.201197247825678383e-02,2.422278330745463934e-03,-7.871870323230168998e-01,4.256070296901389035e-05,-2.361782079635658782e+00,1.615894558715571248e-04,1.567155756913638953e+00,7.851463548063656317e-01,8.330984000921203003e-02,-7.467319828730184517e-02,9.733061434282300759e-04,-1.971578179065331948e-01,5.420736873115048794e-03,-1.313335088998303091e-01,5.051310200171514608e-03,1.779354590253344970e+00,-1.567521238892167990e+00,-3.808623793884200262e-03,-4.125387404893963605e+00,1.089155873690538928e-01,-2.760816926499136681e+00,1.087750793363922580e-01,2.755336428824205264e+00,9.698875928897086052e-01,1.204546807091427141e+00,1.324170071803714777e+01,1.233610972595212241e+00,-2.518365747219154294e+00,-1.000494545061922036e+00
8.301211848408918126e-02,2.506492403775187686e-03,-7.872625021108364818e-01,4.353207908748997761e-05,-2.361981333913272252e+00,1.670655430233120129e-04,1.567023020402065203e+00,7.851514613937261577e-01,8.509584178174235680e-02,-7.624603134010569938e-02,9.689943890015333908e-04,-2.012969159051543611e-01,5.529922945209357447e-03,-1.341037601290237524e-01,5.160509280001683054e-03,1.792094540316467421e+00,-1.577652746712792542e+00,-4.817031538166306054e-03,-4.151511601765050408e+00,1.094216908156917106e-01,-2.778819316455753086e+00,1.095893082981033995e-01,2.773828219617192392e+00,9.968345220124016359e-01,1.216209591640307952e+00,1.319829187158945594e+01,1.233520373487157373e+00,-2.545661253517335521e+00,-1.007214746278769724e+00
8.401226448992157869e-02,2.592499078239995491e-03,-7.873395499957028809e-01,4.449863506867395875e-05,-2.362184740870680422e+00,1.726510823295249360e-04,1.566887504288320354e+00,7.851566776014551330e-01,8.689448658818269000e-02,-7.782889877691899494e-02,9.636638786272856390e-04,-2.054618766835611121e-01,5.639606243626074308e-03,-1.368918443889908798e-01,5.270517045135821033e-03,1.804637076685719155e+00,-1.587587192865187014e+00,-5.845821592151223198e-03,-4.177105727080375530e+00,1.099099062827021411e-01,-2.796477982380892513e+00,1.103922199474257904e-01,2.791987001233081855e+00,1.023267385116293227e+00,1.227622565804210142e+00,1.315576087575842656e+01,1.233400722679960815e+00,-2.572435731142973303e+00,-1.013814612696170903e+00
8.501241049575399000e-02,2.680310900394102577e-03,-7.874181859150213292e-01,4.545934183039952319e-05,-2.362392326109640450e+00,1.783465621539615810e-04,1.566749190908480971e+00,7.851620042327021043e-01,8.870557731602415896e-02,-7.942160385440268089e-02,9.572942769820721792e-04,-2.096521710341794076e-01,5.749768912109411156e-03,-1.396974185086842235e-01,5.381322194954310523e-03,1.816982859281809359e+00,-1.597325271450571238e+00,-6.894894045976726268e-03,-4.202171663315037442e+00,1.103803024312462466e-01,-2.813794130437932139e+00,1.111838509693266197e-01,2.809813927241260778e+00,1.049188215276416924e+00,1.238786657445169359e+00,1.311410459233638903e+01,1.233251765940740263e+00,-2.598691157986422251e+00,-1.020294565239247442e+00
8.601255650158638744e-02,2.769940219680486725e-03,-7.874984196097718492e-01,4.641315000217726902e-05,-2.362604114703564129e+00,1.841524530358648257e-04,1.566608062941241331e+00,7.851674420793322007e-01,9.052891751277486465e-02,-8.102395052342016568e-02,9.498653486669297874e-04,-2.138672716321846079e-01,5.860393163074772635e-03,-1.425201405233957330e-01,5.492913465527850085e-03,1.829132548025447225e+00,-1.606867676570165049e+00,-7.964148989780438920e-03,-4.226711292944131948e+00,1.108329479224851172e-01,-2.830768966790242036e+00,1.119642380487730904e-01,2.827310153796072534e+00,1.074599049595987177e+00,1.249702797494845807e+00,1.307331988330064654e+01,1.233073257621202012e+00,-2.624429510438896163e+00,-1.026655024769674851e+00
8.701270250741878487e-02,2.861399189391012569e-03,-7.875802606252043647e-01,4.735899002513397921e-05,-2.362820131199405260e+00,1.900692077586369670e-04,1.566464103406707276e+00,7.851729919219632148e-01,9.236431138596011559e-02,-8.263574342903744208e-02,9.413569582073429707e-04,-2.181066530355024458e-01,5.971461277608745843e-03,-1.453596696747570804e-01,5.605279629617469610e-03,1.841086802837341274e+00,-1.616215102325187836e+00,-9.053486513700130522e-03,-4.250726498442757517e+00,1.112679114175798012e-01,-2.847403697601197603e+00,1.127334178707324608e-01,2.844476839647952282e+00,1.099501929313250859e+00,1.260371919965830090e+00,1.303340361082621612e+01,1.232864960772470875e+00,-2.649652763389283017e+00,-1.032896412078136761e+00
8.801284851325118230e-02,2.954699767326538981e-03,-7.876637183115320351e-01,4.829577225195151824e-05,-2.363040399619539489e+00,1.960972614185201349e-04,1.566317295665189624e+00,7.851786545300027953e-01,9.421156380312215028e-02,-8.425678791052317040e-02,9.317490700532473280e-04,-2.223697916848083878e-01,6.082955605469106408e-03,-1.482156664107391608e-01,5.718409496674515570e-03,1.852846283638200253e+00,-1.625368242816859210e+00,-1.016280670787350106e-02,-4.274219162286010842e+00,1.116852615776914165e-01,-2.863699529034175129e+00,1.134914271201719199e-01,2.861315146153430078e+00,1.123898899904006932e+00,1.270794961962003145e+00,1.299435263729821521e+01,1.232626647255441465e+00,-2.674362890221122946e+00,-1.039019147877135563e+00
8.901299451908357974e-02,3.049853716457031228e-03,-7.877488018246264767e-01,4.922238704680585752e-05,-2.363264943463647683e+00,2.022370314932779513e-04,1.566167623415997801e+00,7.851844306616847513e-01,9.607048029182037319e-02,-8.588689000134847040e-02,9.210217485790266230e-04,-2.266561659035278564e-01,6.194858565084812412e-03,-1.510877923856524530e-01,5.832291912840664033e-03,1.864411650348734240e+00,-1.634327792146399227e+00,-1.129200966243825918e-02,-4.297191166948992169e+00,1.120850670639810254e-01,-2.879657667252546016e+00,1.142383024820587123e-01,2.877826237283954924e+00,1.147792011179731286e+00,1.280972863687919627e+00,1.295616382532365130e+01,1.232358097846667055e+00,-2.698561862809853551e+00,-1.045023652794171642e+00
9.001314052491597717e-02,3.146872605581678764e-03,-7.878355201267112085e-01,5.013770488530617538e-05,-2.363493785710600203e+00,2.084889179108764313e-04,1.566015070696232137e+00,7.851903210641054676e-01,9.794086703963117424e-02,-8.752585642918704611e-02,9.091551580835167956e-04,-2.309652558978363968e-01,6.307152643556012198e-03,-1.539757104601469362e-01,5.946915760947910252e-03,1.875783562889651090e+00,-1.643094444415027278e+00,-1.244099546753208579e-02,-4.319644394906796414e+00,1.124673965376096901e-01,-2.895279318419686110e+00,1.149740806413600963e-01,2.894011279633611267e+00,1.171183317381231159e+00,1.290906568457237169e+00,1.291883403774289363e+01,1.232059102339857048e+00,-2.722251651520280813e+00,-1.050910347365308750e+00
9.101328653074838848e-02,3.245767809989006086e-03,-7.879238819870565402e-01,5.104057645443392993e-05,-2.363726948820339402e+00,2.148533031181656700e-04,1.565859621879579500e+00,7.851963264732609860e-01,9.982253089414799829e-02,-8.917349461591518589e-02,8.961295627900007577e-04,-2.352965437566593987e-01,6.419820396654039169e-03,-1.568790847012120626e-01,6.062269960518577340e-03,1.886962681181660662e+00,-1.651668893723963416e+00,-1.360966421329275373e-02,-4.341580728634522046e+00,1.128323186597385563e-01,-2.910565688698968589e+00,1.156987982830432610e-01,2.909871442425727039e+00,1.194074877268001655e+00,1.300597022700215932e+00,1.288236013764063870e+01,1.231729459643019942e+00,-2.745434225204255618e+00,-1.056679652029145267e+00
9.201343253658078591e-02,3.346550512116983588e-03,-7.880138959826735734e-01,5.192983275248172861e-05,-2.363964454735762111e+00,2.213305521495602553e-04,1.565701261675104483e+00,7.852024476140838649e-01,1.017152793629814561e-01,-9.082961267761172075e-02,8.819253268462126216e-04,-2.396495134516720416e-01,6.532844448821409182e-03,-1.597975803821767016e-01,6.178343467765303257e-03,1.897949665145471254e+00,-1.660051834174426588e+00,-1.479791598985791615e-02,-4.363002050607268423e+00,1.131799020915286724e-01,-2.925517984253767523e+00,1.164124920920753953e-01,2.925407897518366163e+00,1.216468754203335445e+00,1.310045175970273812e+00,1.284673898835646177e+01,1.231368977871304171e+00,-2.768111551198583431e+00,-1.062331987121199361e+00
9.301357854241318335e-02,3.449231702213147524e-03,-7.881055704990089783e-01,5.280428518899255691e-05,-2.364206324884603028e+00,2.279210126957213344e-04,1.565539975126044814e+00,7.852086852004791506e-01,1.036189206137591162e-01,-9.249401942455802439e-02,8.665229143243373747e-04,-2.440236508372996549e-01,6.646207493171828358e-03,-1.627308639827093062e-01,6.295125275591055558e-03,1.908745174701792280e+00,-1.668243959867636850e+00,-1.600565088736531638e-02,-4.383910243300129572e+00,1.135102154941411146e-01,-2.940137411247458754e+00,1.171151987534237854e-01,2.940621819408775206e+00,1.238367016234944717e+00,1.319251980949637915e+00,1.281196745349502386e+01,1.230977474435577479e+00,-2.790285595323149792e+00,-1.067867772868732912e+00
9.401372454824558078e-02,3.553822178994708696e-03,-7.881989137306383286e-01,5.366272568469876317e-05,-2.364452580181316321e+00,2.346250151722374059e-04,1.565375747608603207e+00,7.852150399353617916e-01,1.055332634741255604e-01,-9.416652436123806869e-02,8.499028892210058923e-04,-2.484184436507174409e-01,6.759892291490183537e-03,-1.656786031888176636e-01,6.412604413589126189e-03,1.919349869771332484e+00,-1.676245964904814256e+00,-1.723276899595260758e-02,-4.404307189188206628e+00,1.138233275287369867e-01,-2.954425175843414131e+00,1.178069549520556480e-01,2.955514385236729602e+00,1.259771736171600320e+00,1.328218393454070334e+00,1.277804239693566224e+01,1.230554776126799421e+00,-2.811958321879258982e+00,-1.073287429386014180e+00
9.501387055407797821e-02,3.660332550308666773e-03,-7.882939336819616560e-01,5.450392677146104328e-05,-2.364703241028962566e+00,2.414428727883054921e-04,1.565208564830742555e+00,7.852215125106933868e-01,1.074581174317426335e-01,-9.584693768633840982e-02,8.320459154573049123e-04,-2.528333815118506966e-01,6.873881674232555292e-03,-1.686404668928492834e-01,6.530769948043132350e-03,1.929764410274801278e+00,-1.684058543387177531e+00,-1.847917040575758341e-02,-4.424194770746594507e+00,1.141193068564773372e-01,-2.968382484205009497e+00,1.184877973729381445e-01,2.970086774786850459e+00,1.280684991655266280e+00,1.336945372436700419e+00,1.274496068284183359e+01,1.230100719196211667e+00,-2.833131693648195615e+00,-1.078591376670044788e+00
9.601401655991037565e-02,3.768773233791923756e-03,-7.883906381678965625e-01,5.532664169220751361e-05,-2.364958327321088127e+00,2.483748816154125543e-04,1.565038412830977332e+00,7.852281036075178244e-01,1.093932926342890688e-01,-9.753507029274806339e-02,8.129327568787629403e-04,-2.572679559233743696e-01,6.988158540526202313e-03,-1.716161251934908427e-01,6.649610981927005227e-03,1.939989456132906964e+00,-1.691682389415947174e+00,-1.974475520691784669e-02,-4.443574870450394343e+00,1.143982221385232839e-01,-2.982010542495618477e+00,1.191577627010386164e-01,2.984340170489897304e+00,1.301108865229227529e+00,1.345433879990971970e+00,1.271271917566993537e+01,1.229615149431438459e+00,-2.853807671889987851e+00,-1.083780034596760977e+00
9.701416256574278696e-02,3.879154457531398727e-03,-7.884890348145736638e-01,5.612960450087275672e-05,-2.365217858443608989e+00,2.554213206560165838e-04,1.564865277977169233e+00,7.852348138959994728e-01,1.113385998894607098e-01,-9.923073376755879582e-02,7.925442772553658623e-04,-2.617216602707138073e-01,7.102705858169579625e-03,-1.746052493957688523e-01,6.769116654905011667e-03,1.950025667266359619e+00,-1.699118197092342575e+00,-2.102942348957125007e-02,-4.462449370774700164e+00,1.146601420360358892e-01,-2.995310556878614250e+00,1.198168876213241696e-01,2.998275757423019883e+00,1.321045444402003666e+00,1.353684881352695824e+00,1.268131474017782701e+01,1.229097922228493012e+00,-2.873988216342389546e+00,-1.088853822917714487e+00
9.801430857157518439e-02,3.991486260724138278e-03,-7.885891310600297022e-01,5.691153016233692135e-05,-2.365481853276694135e+00,2.625824519122275567e-04,1.564689146965319244e+00,7.852416440354585969e-01,1.132938506649704552e-01,-1.009337403920647080e-01,7.708614402815435005e-04,-2.661939898220437306e-01,7.217506663632316036e-03,-1.776075120110489625e-01,6.889276143331730766e-03,1.959873703595867100e+00,-1.706366660517583123e+00,-2.233307534385537210e-02,-4.480820154194612215e+00,1.149051352101762569e-01,-3.008283733517372660e+00,1.204652088187620762e-01,3.011894723309014754e+00,1.340496821707088504e+00,1.361699344901243780e+00,1.265074424143295850e+01,1.228548902659758468e+00,-2.893675285220060456e+00,-1.093813161257251032e+00
9.901445457740758183e-02,4.105778494337432132e-03,-7.886909341549029895e-01,5.767111465236456487e-05,-2.365750330196649376e+00,2.698585204544893374e-04,1.564510006818361498e+00,7.852485946744089951e-01,1.152588570885482583e-01,-1.026439031417625963e-01,7.478653095761792630e-04,-2.706844417282892601e-01,7.332544062055230613e-03,-1.806225867570364629e-01,7.010078660252069480e-03,1.969534225042138598e+00,-1.713428473792888873e+00,-2.365561085990798909e-02,-4.498689103185228078e+00,1.151332703221054632e-01,-3.020931278575266443e+00,1.211027629783195947e-01,3.025198258514609329e+00,1.359465094758650183e+00,1.369478242159877679e+00,1.262100454482004430e+01,1.227967965537987816e+00,-2.912870835213973830e+00,-1.098658469110198155e+00
1.000146005832399793e-01,4.222040821768928767e-03,-7.887944511631267419e-01,5.840703505754394974e-05,-2.366023307077798066e+00,2.772497544902601733e-04,1.564327844884956908e+00,7.852556664505936368e-01,1.172334319479411413e-01,-1.043610356863518412e-01,7.235370486826030959e-04,-2.751925150231251949e-01,7.447801227250332688e-03,-1.836501485577761994e-01,7.131513455401260887e-03,1.979007891525883966e+00,-1.720304331019479216e+00,-2.499693012786678367e-02,-4.516058100221642668e+00,1.153446160329845843e-01,-3.033254398215671443e+00,1.217295867849639002e-01,3.038187556047745375e+00,1.377952366303115461e+00,1.377022547795212049e+00,1.259209251604844759e+01,1.227354995476387156e+00,-2.931576821490982532e+00,-1.103390165840064663e+00
1.010147465890723767e-01,4.340282719506742375e-03,-7.888996889626241904e-01,5.911794967522586571e-05,-2.366300801294367595e+00,2.847563654326942459e-04,1.564142648838286576e+00,7.852628599910229656e-01,1.192173886909132646e-01,-1.060849523897342966e-01,6.978579210686001576e-04,-2.797177106229766230e-01,7.563261401700814048e-03,-1.866898735436524071e-01,7.253569815204859855e-03,1.988295362967811064e+00,-1.726994926298574207e+00,-2.635693323786949399e-02,-4.532929027778955344e+00,1.155392410039746964e-01,-3.045254298601959064e+00,1.223457169236622233e-01,3.050863811553908178e+00,1.395960744266723008e+00,1.384333239615840094e+00,1.256400502115914719e+01,1.226709886944770345e+00,-2.949795197693645399e+00,-1.108008670677767205e+00
1.020148925949047880e-01,4.460513477789575416e-03,-7.890066542460022481e-01,5.980249811346281103e-05,-2.366582829722367887e+00,2.923785479693230592e-04,1.563954406674845421e+00,7.852701759120096492e-01,1.212105414252457464e-01,-1.078154683100144423e-01,6.708092901263975911e-04,-2.842595313270183111e-01,7.678907896561055005e-03,-1.897414390513887938e-01,7.376237062778748244e-03,1.997397299288629968e+00,-1.733500953731393457e+00,-2.773552028005380615e-02,-4.549303768332265463e+00,1.157172138962368896e-01,-3.056932185897506038e+00,1.229511900793818086e-01,3.063228223311523113e+00,1.413492341799183150e+00,1.391411298570127686e+00,1.253673892653123723e+01,1.226032544321909112e+00,-2.967527915940209038e+00,-1.112514402720893303e+00
1.030150386007371854e-01,4.582742201266820810e-03,-7.891153535212460657e-01,6.045930139094799079e-05,-2.366869408741479663e+00,3.001164801307361785e-04,1.563763106713234707e+00,7.852776148192071037e-01,1.232127049187367596e-01,-1.095523991994992452e-01,6.423726191726757996e-04,-2.888174818171748148e-01,7.794724091656615728e-03,-1.928045236240484850e-01,7.499504557929115821e-03,2.006314360409048980e+00,-1.739823107419156134e+00,-2.913259134455737503e-02,-4.565184204356670605e+00,1.158786033709322677e-01,-3.068289266265686432e+00,1.235460429370899005e-01,3.075281992226390759e+00,1.430549277313148959e+00,1.398257708743158245e+00,1.251029109888827229e+01,1.225322881944046927e+00,-2.984776926824803223e+00,-1.116907780933503735e+00
1.040151846065695829e-01,4.706977809658684925e-03,-7.892257931124138093e-01,6.108696203695425429e-05,-2.367160554236932946e+00,3.079703233592627812e-04,1.563568737592957669e+00,7.852851773076446884e-01,1.252236945992015738e-01,-1.112955615046983954e-01,6.125294714485674712e-04,-2.933910686581210348e-01,7.910693435484250982e-03,-1.958788070110342727e-01,7.623361697152497563e-03,2.015047206249777290e+00,-1.745962081463082294e+00,-3.054804652151803940e-02,-4.580572218327264800e+00,1.160234780892218792e-01,-3.079326745869872539e+00,1.241303121817536603e-01,3.087026321825233399e+00,1.447133674520013180e+00,1.404873457352874500e+00,1.248465840530404236e+01,1.224580824149682501e+00,-3.001544179417816594e+00,-1.121189224146486474e+00
1.050153306124019803e-01,4.833229038416296704e-03,-7.893379791603299944e-01,6.168406419127339148e-05,-2.367456281601392654e+00,3.159402225776526663e-04,1.563371288273210258e+00,7.852928639617654527e-01,1.272433265544725967e-01,-1.130447723663240006e-01,5.812615101196530248e-04,-2.979798002972817161e-01,8.026799445211896256e-03,-1.989639701680884221e-01,7.747797913635739823e-03,2.023596496731523420e+00,-1.751918569964391326e+00,-3.198178590107340902e-02,-4.595469692719147403e+00,1.161519067122668281e-01,-3.090045830873439758e+00,1.247040344983403465e-01,3.098462418248302708e+00,1.463247662461562681e+00,1.411259534745397559e+00,1.245983771320811151e+01,1.223806305320625620e+00,-3.017831621266492181e+00,-1.125359151058466622e+00
1.060154766182343777e-01,4.961504439381823721e-03,-7.894519176232802637e-01,6.224917370415486699e-05,-2.367756605736840214e+00,3.240263062577578598e-04,1.563170748031676549e+00,7.853006753554623298e-01,1.292714175323991799e-01,-1.147998496192907392e-01,5.485504982759624535e-04,-3.025831870648315047e-01,8.143025706678672093e-03,-2.020596952572923655e-01,7.872802677256011614e-03,2.031962891774997004e+00,-1.757693267024303063e+00,-3.343370957336122551e-02,-4.609878510007416885e+00,1.162639579012282043e-01,-3.100447727439761270e+00,1.252672465718172035e-01,3.109591490241105927e+00,1.478893375537966293e+00,1.417416934389534866e+00,1.243582589039098529e+01,1.222999269919393672e+00,-3.033641198395686800e+00,-1.129417980237275021e+00
1.070156226240667752e-01,5.091812381448581303e-03,-7.895676142777061646e-01,6.278083823624505569e-05,-2.368061541056458275e+00,3.322286864892135157e-04,1.562967106463321931e+00,7.853086120521148850e-01,1.313077849408477160e-01,-1.165606117927158736e-01,5.143782989319722887e-04,-3.072007411736946136e-01,8.259355874394889302e-03,-2.051656656470673412e-01,7.998365494580808935e-03,2.040147051300906345e+00,-1.763286866744037340e+00,-3.490371762851919579e-02,-4.623800552667171715e+00,1.163597003172670841e-01,-3.110533641732212473e+00,1.258199850871514480e-01,3.120414749145255406e+00,1.494072953531830894e+00,1.423346652870493001e+00,1.241261980500888029e+01,1.222159672522979745e+00,-3.048974855308831611e+00,-1.133366130121991722e+00
1.080157686298991865e-01,5.224161051221151188e-03,-7.896850747188987052e-01,6.327758735852622059e-05,-2.368371101486511865e+00,3.405474590481187623e-04,1.562760353479186515e+00,7.853166746046260638e-01,1.333522468477019163e-01,-1.183268781099193201e-01,4.787268750266156832e-04,-3.118319767195460446e-01,8.375773671542040277e-03,-2.082815659121740881e-01,8.124475908867952179e-03,2.048149635229961962e+00,-1.768700063224813990e+00,-3.639171015668507536e-02,-4.637237703173509473e+00,1.164392026215445297e-01,-3.120304779914167881e+00,1.263622867293102692e-01,3.130933408888428193e+00,1.508788541628490965e+00,1.429049689882793794e+00,1.239021632558822184e+01,1.221287477853038483e+00,-3.063834534989070324e+00,-1.137204019025556123e+00
1.090159146357315839e-01,5.358558453675486312e-03,-7.898043043616930214e-01,6.373793265225550445e-05,-2.368685300468231780e+00,3.489827034657187960e-04,1.562550479305177431e+00,7.853248635554590518e-01,1.354046219808621443e-01,-1.200984684884234266e-01,4.415782894232696178e-04,-3.164764096808099780e-01,8.492262889972809412e-03,-2.114070818337124846e-01,8.251123500065580055e-03,2.055971303482871271e+00,-1.773933550567851958e+00,-3.789758724799648787e-02,-4.650191844001525077e+00,1.165025334752216313e-01,-3.129762348148999340e+00,1.268941881832609531e-01,3.141148685973480070e+00,1.523042290432493839e+00,1.434527048222398848e+00,1.236861232102982022e+01,1.220382660802549424e+00,-3.078222178900583028e+00,-1.140932065137951312e+00
1.100160606415639813e-01,5.495012412819036407e-03,-7.899253084411630432e-01,6.416036780890412461e-05,-2.369004150959700183e+00,3.575344830970853482e-04,1.562337474480864463e+00,7.853331794366735785e-01,1.374647297282461655e-01,-1.218752035399531253e-01,4.029147049097632494e-04,-3.211335579186608835e-01,8.608807390211057481e-03,-2.145419003991222429e-01,8.378297884812160867e-03,2.063612715980343015e+00,-1.778988022874371522e+00,-3.942124899259116799e-02,-4.662664857626318771e+00,1.165497615394594649e-01,-3.138907552600084028e+00,1.274157261339706471e-01,3.151061799466710944e+00,1.536836355980427449e+00,1.439779733778066229e+00,1.234780466061263127e+01,1.219445206458960484e+00,-3.092139726990101423e+00,-1.144550686529973715e+00
1.110162066473963788e-01,5.633530572350851917e-03,-7.900480920133143847e-01,6.454336873009624252e-05,-2.369327665437728658e+00,3.662028451897982907e-04,1.562121329858271901e+00,7.853416227699629992e-01,1.395323901377885922e-01,-1.236569045704359743e-01,3.627183841983754172e-04,-3.258029411770231865e-01,8.725391101451842463e-03,-2.176857098021823533e-01,8.505988716436482105e-03,2.071074532643088162e+00,-1.783864174245592293e+00,-4.096259548060685735e-02,-4.674658626522986360e+00,1.165809554754191901e-01,-3.147741599430792903e+00,1.279269372664066096e-01,3.160673970985295789e+00,1.550172899750036137e+00,1.444808755521920451e+00,1.232779021399725927e+01,1.218475110123914629e+00,-3.105589117688580370e+00,-1.148060301157586283e+00
1.120163526532287762e-01,5.774120396321703527e-03,-7.901726599557806763e-01,6.488539362754806373e-05,-2.369655855899746921e+00,3.749878209526265370e-04,1.561902036600672172e+00,7.853501940666909320e-01,1.416074239174412719e-01,-1.254433935800020328e-01,3.209716899258326919e-04,-3.304840810825711017e-01,8.841998021561398718e-03,-2.208381994430113349e-01,8.634185684957655649e-03,2.078357413391813679e+00,-1.788562698782733662e+00,-4.252152680218123509e-02,-4.686175033166629866e+00,1.165961839442618275e-01,-3.156265694804502253e+00,1.284278582655361267e-01,3.169986424683874038e+00,1.563054088665692287e+00,1.449615125499250201e+00,1.230856585122912250e+01,1.217472377329538613e+00,-3.118572287913073282e+00,-1.151461326866845658e+00
1.130164986590611736e-01,5.916789169794190416e-03,-7.902990169685164545e-01,6.518488312300693786e-05,-2.369988733865680874e+00,3.838894256242097558e-04,1.561679586181380142e+00,7.853588938279275622e-01,1.436896524351729820e-01,-1.272344932629839998e-01,2.776570846533157715e-04,-3.351765011447291331e-01,8.958612217077152606e-03,-2.239990599280673178e-01,8.762878517085116031e-03,2.085462018147229646e+00,-1.793084290587015239e+00,-4.409794304745201510e-02,-4.697215960032340654e+00,1.165955156071484394e-01,-3.164481044884586147e+00,1.289185258163263181e-01,3.179000387240354719e+00,1.575482095100186442e+00,1.454199858817560642e+00,1.229012844274134508e+01,1.216437023851389965e+00,-3.131091173068757616e+00,-1.154754181399427093e+00
1.140166446648935850e-01,6.061543999502858049e-03,-7.904271675744916070e-01,6.544026034819035013e-05,-2.370326310379839541e+00,3.929076585417392176e-04,1.561453970382546297e+00,7.853677225444867238e-01,1.457788977189696522e-01,-1.290300270079170752e-01,2.327571308664491819e-04,-3.398797267556713519e-01,9.075217823207717277e-03,-2.271679830701477665e-01,8.892056976218627382e-03,2.092389006830044806e+00,-1.797429643759657081e+00,-4.569174430655695979e-02,-4.707783289595219856e+00,1.165790191252401020e-01,-3.172388855834418653e+00,1.293989766037444700e-01,3.187717087840889807e+00,1.587459096873068631e+00,1.458563973634846134e+00,1.227247485935725990e+01,1.215369075718067737e+00,-3.143147707051139772e+00,-1.157939282398729341e+00
1.150167906707259824e-01,6.208391814514301228e-03,-7.905571161203862607e-01,6.564993104472476384e-05,-2.370668596012793561e+00,4.020425032096385876e-04,1.561225181293949493e+00,7.853766806969626479e-01,1.478749824568342253e-01,-1.308298188975390020e-01,1.862544909753126613e-04,-3.445932851903219518e-01,9.191799043832885735e-03,-2.303446618883896180e-01,9.021710862448269544e-03,2.099139039360968351e+00,-1.801599452401878354e+00,-4.730283066963369976e-02,-4.717878904330365941e+00,1.165467631596979609e-01,-3.179990333817372949e+00,1.298692473127578406e-01,3.196137758164070863e+00,1.598987277245346839e+00,1.462708491147129752e+00,1.225560197229268766e+01,1.214268569217551441e+00,-3.154743822248438967e+00,-1.161017047416567305e+00
1.160169366765583798e-01,6.357339366887297498e-03,-7.906888667772847823e-01,6.581228366408514046e-05,-2.371015600863264794e+00,4.112939273682459100e-04,1.560993211311791473e+00,7.853857687557667111e-01,1.499777299967866295e-01,-1.326336937087900791e-01,1.381319273144327028e-04,-3.493167056063549714e-01,9.308340151503642981e-03,-2.335287906082693099e-01,9.151830012554446753e-03,2.105712775660708580e+00,-1.805594410614899115e+00,-4.893110222681998356e-02,-4.727504686712874715e+00,1.164988163716831060e-01,-3.187286684996823549e+00,1.303293746283335497e-01,3.204263632364346304e+00,1.610068824910694918e+00,1.466634435575244311e+00,1.223950665315788200e+01,1.213135550900292792e+00,-3.165881449544124315e+00,-1.163987893920453764e+00
1.170170826823907773e-01,6.508393232332904989e-03,-7.908224235413696679e-01,6.592568946753351103e-05,-2.371367334560002593e+00,4.206618830624949974e-04,1.560758053137490053e+00,7.853949871811630734e-01,1.520869643468640564e-01,-1.344414769128133291e-01,8.837230214278537360e-05,-3.540495190441945716e-01,9.424825487442155605e-03,-2.367200646616028914e-01,9.282404300007892836e-03,2.112110875649975128e+00,-1.809415212499938974e+00,-5.057645906825351811e-02,-4.736662519217844647e+00,1.164352474223565442e-01,-3.194279115536144520e+00,1.307793952354388833e-01,3.212095947054649958e+00,1.620705933983264346e+00,1.470342834150866418e+00,1.222418577395919037e+01,1.211970077579131555e+00,-3.176562518319627770e+00,-1.166852239301461536e+00
1.180172286882231747e-01,6.661559810874574140e-03,-7.909577902346166534e-01,6.598850262605823877e-05,-2.371723806263671186e+00,4.301463067105955177e-04,1.560519699776471425e+00,7.854043364233073143e-01,1.542025101751205440e-01,-1.362529946749540533e-01,3.695857764379761618e-05,-3.587912584270148697e-01,9.541239461541778724e-03,-2.399181806865456901e-01,9.413423634969655604e-03,2.118333999249477184e+00,-1.813062552158217544e+00,-5.223880128407201728e-02,-4.745354284320372429e+00,1.163561249728794211e-01,-3.200968831598712150e+00,1.312193458190411277e-01,3.219635941288290670e+00,1.630900803981945701e+00,1.473834717101832670e+00,1.220963620710045205e+01,1.210772216326027717e+00,-3.186788956457206279e+00,-1.169610500882674486e+00
1.190173746940555721e-01,6.816845327508276771e-03,-7.910949705054882708e-01,6.599906032031290220e-05,-2.372085024668730391e+00,4.397471191727150342e-04,1.560278144536966005e+00,7.854138169222814048e-01,1.563241928096273103e-01,-1.380680738547604147e-01,-1.612618407465372765e-05,-3.635414585607396054e-01,9.657566552367055981e-03,-2.431228365275926728e-01,9.544877964291112460e-03,2.124382806379922606e+00,-1.816537123690954436e+00,-5.391802896441316717e-02,-4.753581864495555642e+00,1.162615176844127574e-01,-3.207357039347896510e+00,1.316492630641073747e-01,3.226884856540072288e+00,1.640655639811419153e+00,1.477111117636707993e+00,1.219585482538402488e+01,1.209542044465707233e+00,-3.196562690342975799e+00,-1.172263095928217203e+00
1.200175206998879834e-01,6.974255832862601319e-03,-7.912339678296286261e-01,6.595568284055569326e-05,-2.372450998005320333e+00,4.494642258196600141e-04,1.560033381028799404e+00,7.854234291081311214e-01,1.584518382384726143e-01,-1.398865420059829390e-01,-7.089882098024603667e-05,-3.682996561340429187e-01,9.773791307153709140e-03,-2.463337312355782238e-01,9.676757271513966932e-03,2.130257956962021915e+00,-1.819839621199369706e+00,-5.561404219941469551e-02,-4.761347142218496309e+00,1.161514942181176985e-01,-3.213444944947075221e+00,1.320691836556049381e-01,3.233843936686675580e+00,1.649972651739701313e+00,1.480173071928617690e+00,1.218283850201165386e+01,1.208279649566223135e+00,-3.205885644870109186e+00,-1.174810441652861304e+00
1.210176667057203809e-01,7.133797203858874975e-03,-7.913747855105575102e-01,6.585667368658792097e-05,-2.372821734041143937e+00,4.592975166015571091e-04,1.559785403162187833e+00,7.854331734009030175e-01,1.605852731097617836e-01,-1.417082273765747635e-01,-1.273760711162005019e-04,-3.730653897183486278e-01,9.889898341808657165e-03,-2.495505650676761722e-01,9.809051576870240000e-03,2.135960110916482524e+00,-1.822970738784682077e+00,-5.732674107921432310e-02,-4.768651999964285793e+00,1.160261232351552929e-01,-3.219233754559621463e+00,1.324791442785010487e-01,3.240514427986310064e+00,1.658854055372377623e+00,1.483021619098376931e+00,1.217058411058504319e+01,1.206985129426485504e+00,-3.214759743442156203e+00,-1.177252955232211296e+00
1.220178127115527783e-01,7.295475144371279738e-03,-7.915174266803648440e-01,6.570031966769359928e-05,-2.373197240083348092e+00,4.692468661165344356e-04,1.559534205146531072e+00,7.854430502106800605e-01,1.627243247316171593e-01,-1.435329589086916380e-01,-1.855745726012909087e-04,-3.778381997678303961e-01,1.000587234090999193e-02,-2.527730394873998754e-01,9.941750937282278766e-03,2.141489928164014955e+00,-1.825931170548112048e+00,-5.905602569394976381e-02,-4.775498320208025227e+00,1.158854733966866446e-01,-3.224724674348908415e+00,1.328791816177628815e-01,3.246897579057643757e+00,1.667302071623746329e+00,1.485657801196886618e+00,1.215908852510604987e+01,1.205658592060809609e+00,-3.223186907976554050e+00,-1.179591053813456192e+00
1.230179587173851757e-01,7.459295185886964143e-03,-7.916618943004047892e-01,6.548489100257809978e-05,-2.373577522980410137e+00,4.793121336794024757e-04,1.559279781489204764e+00,7.854530599376198241e-01,1.648688210721781788e-01,-1.453605662386917574e-01,-2.455108636298462387e-04,-3.826176286194122311e-01,1.012169805770699905e-02,-2.560008571646021913e-01,1.007484544636274952e-02,2.146848068625327066e+00,-1.828721610590879010e+00,-6.080179613375866210e-02,-4.781887985424812193e+00,1.157296133638728297e-01,-3.229918910478312366e+00,1.332693323583576950e-01,3.252994640858006381e+00,1.675318926684520981e+00,1.488082663186812704e+00,1.214834861997676008e+01,1.204300155680502193e+00,-3.231169058908281322e+00,-1.181825154526689792e+00
1.240181047232175732e-01,7.625262688166150639e-03,-7.918081911619899715e-01,6.520864141930721104e-05,-2.373962589124017253e+00,4.894931633903356824e-04,1.559022126994355384e+00,7.854632029719899045e-01,1.670185907596013486e-01,-1.471908796971359845e-01,-3.072013824717383101e-04,-3.874032204927677636e-01,1.023736031412015267e-02,-2.592337219754753952e-01,1.020832523441465162e-02,2.152035192221128934e+00,-1.831342753014203240e+00,-6.256395248877875959e-02,-4.787822878089743384e+00,1.155586117978749799e-01,-3.234817669111204719e+00,1.336496331852527197e-01,3.258806866660905577e+00,1.682906851986407881e+00,1.490297252923564741e+00,1.213836126999925824e+01,1.202909948672552964e+00,-3.238708115193631443e+00,-1.183955674496795174e+00
1.250182507290499845e-01,7.793382839902258594e-03,-7.919563198870863685e-01,6.486980825524650963e-05,-2.374352444450952948e+00,4.997897842035534891e-04,1.558761236761693203e+00,7.854734796942052233e-01,1.691734630820603547e-01,-1.490237303087878773e-01,-3.706624674723929449e-04,-3.921945214903207466e-01,1.035284400074111197e-02,-2.624713390025513737e-01,1.034218046843130359e-02,2.157051958872127972e+00,-1.833795291919303239e+00,-6.434239484914788809e-02,-4.793304880677917268e+00,1.153725373598541021e-01,-3.239422156410961318e+00,1.340201207834151309e-01,3.264335512032818798e+00,1.690068084163636630e+00,1.492302621135538132e+00,1.212912335037510481e+01,1.201488109575445717e+00,-3.245805994314167275e+00,-1.185983030855875864e+00
1.260183967348823819e-01,7.963660659382001267e-03,-7.921062829290067553e-01,6.446661255699991794e-05,-2.374747094444977336e+00,5.102018099960011020e-04,1.558497106185285475e+00,7.854838904748646655e-01,1.713332679877456188e-01,-1.508589497926131340e-01,-4.359103570527882339e-04,-3.969910795972445561e-01,1.046813407683271600e-02,-2.657134145347012089e-01,1.047640135209633797e-02,2.161899028499034703e+00,-1.836079921407399729e+00,-6.613702330500351168e-02,-4.798335875664431427e+00,1.151714587109712307e-01,-3.243733578540956675e+00,1.343808318378122146e-01,3.269581834809331511e+00,1.696804865011241503e+00,1.494099821403697570e+00,1.212063173670460614e+01,1.200034787052140839e+00,-3.252464612280805856e+00,-1.187907640756244998e+00
1.270185427407147793e-01,8.136100995145527023e-03,-7.922580825731059262e-01,6.399725918034921074e-05,-2.375146544138712734e+00,5.207290396360314847e-04,1.558229730952350955e+00,7.854944356747878276e-01,1.734978360848649093e-01,-1.526963705617804812e-01,-5.029611897094461888e-04,-4.017924446814630235e-01,1.058321557032899235e-02,-2.689596560671357883e-01,1.061097812578372379e-02,2.166577061022557427e+00,-1.838197335579711211e+00,-6.794773794648356624e-02,-4.802917745524383442e+00,1.149554445123876084e-01,-3.247753141664563525e+00,1.347318030334111461e-01,3.274547095070554192e+00,1.703119441440320347e+00,1.495689910140404422e+00,1.211288330498584820e+01,1.198550139860281583e+00,-3.258685883638026137e+00,-1.189729921383949396e+00
1.280186887465471768e-01,8.310708526646511107e-03,-7.924117209374740289e-01,6.345993689019281702e-05,-2.375550798115522166e+00,5.313712570520866393e-04,1.557959107042051983e+00,7.855051156450510996e-01,1.756669986416430351e-01,-1.545358257236608968e-01,-5.718310040144498722e-04,-4.065981684936497698e-01,1.069807357783515711e-02,-2.722097723014054171e-01,1.074590106655774757e-02,2.171086716363404889e+00,-1.840148228537459074e+00,-6.977443886372566850e-02,-4.807052372732870005e+00,1.147245634252641866e-01,-3.251482051945156826e+00,1.350730710551791558e-01,3.279232555115896286e+00,1.709014065430292550e+00,1.497073946567590852e+00,1.210587493161346728e+01,1.197034336819633449e+00,-3.264471721468250820e+00,-1.191450289972830534e+00
1.290188347523795742e-01,8.487487764912263893e-03,-7.925671999736315643e-01,6.285281846048482504e-05,-2.375959860511397626e+00,5.421282313013778015e-04,1.557685230724288550e+00,7.855159307270255242e-01,1.778405875863216246e-01,-1.563771490798280261e-01,-6.425357386154191119e-04,-4.114078046672278166e-01,1.081269326462760971e-02,-2.754634731453997065e-01,1.088116048817302020e-02,2.175428654442286724e+00,-1.841933294381861597e+00,-7.161702614686749069e-02,-4.810741639764991362e+00,1.144788841107621108e-01,-3.254921515546110200e+00,1.354046725880835023e-01,3.283639479438174913e+00,1.714490993978103450e+00,1.498252992694215635e+00,1.209960349337725027e+01,1.195487556776825944e+00,-3.269824037396333871e+00,-1.193069163819115985e+00
1.300189807582119716e-01,8.666443053203866029e-03,-7.927245214672238305e-01,6.217406077417394681e-05,-2.376373735016841238e+00,5.529997166385672638e-04,1.557408098558492160e+00,7.855268812524124344e-01,1.800184355071597353e-01,-1.582201751260582101e-01,-7.150912322355321843e-04,-4.162209087183709744e-01,1.092705986465394158e-02,-2.787204697133479070e-01,1.101674674107447696e-02,2.179603535179912122e+00,-1.843553227214138168e+00,-7.347539988604682992e-02,-4.813987429095841541e+00,1.142184752300424572e-01,-3.258072738630799048e+00,1.357266443170913883e-01,3.287769134697034801e+00,1.719552489044595234e+00,1.499228113293024522e+00,1.209406586746039558e+01,1.193909988567407154e+00,-3.274744741594191932e+00,-1.194586960296520006e+00
1.310191267640443691e-01,8.847578567676268879e-03,-7.928836870387142577e-01,6.142180492314292970e-05,-2.376792424878746424e+00,5.639854525844499806e-04,1.557127707392418792e+00,7.855379675432807574e-01,1.822003756524331608e-01,-1.600647390523299851e-01,-7.895132236735232130e-04,-4.210370380460023432e-01,1.104115868053291705e-02,-2.819804743258184643e-01,1.115265021239737406e-02,2.183612018496988494e+00,-1.845008721135509955e+00,-7.534946017140127517e-02,-4.816791623200522565e+00,1.139434054442663435e-01,-3.260936927362596993e+00,1.360390229271700724e-01,3.291622789691760698e+00,1.724200817497823612e+00,1.500000375876642922e+00,1.208925893143766395e+01,1.192301830975285304e+00,-3.279235742785577390e+00,-1.196004096871861266e+00
1.320192727698767665e-01,9.030898318038408853e-03,-7.930446981440798515e-01,6.059417630814726348e-05,-2.377215932902283946e+00,5.750851639946337641e-04,1.556844054360943419e+00,7.855491899121033184e-01,1.843862419304349576e-01,-1.619106767428249161e-01,-8.658173518036609180e-04,-4.258557519317954232e-01,1.115497508355450633e-02,-2.852432005097198520e-01,1.128886132596729382e-02,2.187454764314225919e+00,-1.846300470247195458e+00,-7.723910709306866518e-02,-4.819156104554126685e+00,1.136537434145947489e-01,-3.263515287904876772e+00,1.363418451032867296e-01,3.295201715333419212e+00,1.728438251053639352e+00,1.500570850672956258e+00,1.208517956327324683e+01,1.190663292689562613e+00,-3.283298948250959359e+00,-1.197320991121175293e+00
1.330194187757091639e-01,9.216406148213316524e-03,-7.932075560755048604e-01,5.968928473875425309e-05,-2.377644261452781294e+00,5.862985611282218665e-04,1.556557136884850978e+00,7.855605486617934785e-01,1.865758689094752232e-01,-1.637578247759268746e-01,-9.440191555757744199e-04,-4.306766115401737816e-01,1.126849451367985082e-02,-2.885083629982997389e-01,1.142537054230013949e-02,2.191132432552333587e+00,-1.847429168650414066e+00,-7.914424074118667218e-02,-4.821082755631754146e+00,1.133495578021888328e-01,-3.265809026421014671e+00,1.366351475304085628e-01,3.298507184616375820e+00,1.732267066213360351e+00,1.500940610599828196e+00,1.208182464131850331e+01,1.188994592258820759e+00,-3.286936263832549443e+00,-1.198538060746320744e+00
1.340195647815415891e-01,9.404105736998250031e-03,-7.933722619620751093e-01,5.870522453328233547e-05,-2.378077412457610951e+00,5.976253397164933917e-04,1.556266952669633108e+00,7.855720440857428821e-01,1.887690918178810129e-01,-1.656060204242222056e-01,-1.024134074015253023e-03,-4.354991799183101087e-01,1.138170247954127176e-02,-2.917756777311449889e-01,1.156216835860214218e-02,2.194645683132021574e+00,-1.848395510446386947e+00,-8.106476120589298229e-02,-4.822573458908506083e+00,1.130309172682096852e-01,-3.267819349074383872e+00,1.369189668935028859e-01,3.301540472589184816e+00,1.735689544198719680e+00,1.501110731239122309e+00,1.207919104430931689e+01,1.187295958042871691e+00,-3.290149593939442063e+00,-1.199655723592057521e+00
