sakibchowdhury131/FrankaEmikaControl_lowerLevel/actual_trajectory.csv
t,q0,q1,q2,q3,q4,q5,q6,dq0,dq1,dq2,dq3,dq4,dq5,dq6,tau_ext0,tau_ext1,tau_ext2,tau_ext3,tau_ext4,tau_ext5,tau_ext6,tau_cmd0,tau_cmd1,tau_cmd2,tau_cmd3,tau_cmd4,tau_cmd5,tau_cmd6,sigma_min,tau_ext_max
0.00000000,-0.00023189,-0.79053951,-0.00012692,-2.22801702,-0.00098879,1.58692742,0.78542821,0.00106741,-0.03823016,-0.00082056,0.40842346,0.00080639,0.06063114,0.00034802,0.11313453,-1.10924730,-0.26209001,0.20401620,0.68416831,0.17555557,-0.05836193,0.01348524,-1.58528979,-0.57698317,1.03082722,0.78149302,0.42615854,-0.03271969,0.21588334,1.10924730
0.00100063,-0.00023166,-0.79058278,-0.00012921,-2.22760530,-0.00098878,1.58698708,0.78543200,0.00127721,-0.03957704,-0.00141939,0.40948609,0.00079188,0.06055137,0.00176514,0.11317711,-1.11440218,-0.26191013,0.20598116,0.68500744,0.17609947,-0.05830085,0.07082742,-1.06164634,-0.47450682,0.47440828,0.78326583,0.41654073,-0.04275155,0.21585163,1.11440218
0.00200125,-0.00022616,-0.79061514,-0.00013101,-2.22719832,-0.00099115,1.58704397,0.78543048,0.00256236,-0.03691206,-0.00198764,0.40763290,0.00037738,0.05912106,0.00063903,0.11218763,-1.11825850,-0.26317836,0.20912141,0.68581615,0.17681469,-0.05822498,0.11316525,-0.59434014,-0.37289841,-0.04145522,0.78799153,0.41673461,-0.03471969,0.21582028,1.11825850
0.00300188,-0.00022613,-0.79065499,-0.00013221,-2.22679092,-0.00099029,1.58710237,0.78542973,0.00208993,-0.03740560,-0.00214575,0.40927185,0.00063697,0.05813368,0.00022100,0.11053788,-1.12408275,-0.26503917,0.21519605,0.68667946,0.17778344,-0.05817130,0.18186379,-0.08114787,-0.27644321,-0.54946178,0.78790529,0.41351287,-0.03164773,0.21578887,1.12408275
0.00400251,-0.00022770,-0.79069829,-0.00013479,-2.22638513,-0.00099028,1.58715863,0.78543048,0.00084868,-0.03874253,-0.00186127,0.40854955,-0.00038441,0.05719452,0.00047587,0.10873478,-1.13091674,-0.26698345,0.22358756,0.68763020,0.17893475,-0.05816214,0.26243016,0.44511498,-0.18568416,-0.67301417,0.79688470,0.41009654,-0.03334919,0.21575756,1.13091674
0.00500313,-0.00022712,-0.79073173,-0.00013847,-2.22596941,-0.00098801,1.58721346,0.78542670,0.00127513,-0.03728456,-0.00261833,0.41010485,0.00041829,0.05601493,-0.00095330,0.10728711,-1.13641168,-0.26855971,0.23284950,0.68866862,0.18017171,-0.05820032,0.31990795,0.93217892,-0.08107911,-0.82928281,0.79300560,0.40844065,-0.02302487,0.21572547,1.13641168
0.00600376,-0.00022759,-0.79076720,-0.00014005,-2.22556526,-0.00098580,1.58726625,0.78542442,0.00122094,-0.03636165,-0.00209724,0.40977211,0.00106484,0.05583027,-0.00106840,0.10619234,-1.14202589,-0.26979941,0.24315771,0.68977520,0.18152159,-0.05826883,0.38529144,1.09761372,0.00589386,-0.95784900,0.79029737,0.39994663,-0.02196056,0.21569426,1.14202589
0.00700438,-0.00022975,-0.79080730,-0.00014503,-2.22515492,-0.00098448,1.58732439,0.78542973,0.00028231,-0.03708074,-0.00341168,0.40892327,0.00134226,0.05729869,0.00125288,0.10549067,-1.14904030,-0.27063257,0.25497790,0.69091739,0.18306124,-0.05832256,0.46383462,1.25564969,0.11862171,-1.07986727,0.79023852,0.37956265,-0.03831268,0.21566254,1.14904030
0.00800501,-0.00022767,-0.79084589,-0.00014753,-2.22475458,-0.00098332,1.58738377,0.78542897,0.00129798,-0.03717513,-0.00260559,0.40692019,0.00145871,0.05899696,0.00062997,0.10525740,-1.15683592,-0.27090014,0.26849531,0.69204512,0.18487743,-0.05832947,0.51558122,1.40546273,0.20142607,-1.18455829,0.79139260,0.35755360,-0.03374187,0.21563158,1.15683592
0.00900564,-0.00022498,-0.79088379,-0.00015223,-2.22434588,-0.00098181,1.58744325,0.78543124,0.00227547,-0.03745007,-0.00328204,0.40761328,0.00126823,0.05978922,0.00123897,0.10487658,-1.16434606,-0.27139839,0.28312868,0.69304313,0.18696196,-0.05830620,0.56843032,1.55598857,0.30478535,-1.32788499,0.79469724,0.34177734,-0.03792565,0.21559995,1.16434606
0.01000626,-0.00022846,-0.79091842,-0.00015251,-2.22393942,-0.00098110,1.58751339,0.78543124,0.00063469,-0.03777791,-0.00196777,0.40700794,0.00136581,0.06295813,0.00094857,0.10397165,-1.16986274,-0.27282154,0.29690687,0.69379238,0.18912320,-0.05828745,0.65994979,1.70711986,0.38113434,-1.45263250,0.79612398,0.30885956,-0.03568287,0.21556846,1.16986274
0.01100689,-0.00023038,-0.79094518,-0.00015646,-2.22354140,-0.00097959,1.58758321,0.78542745,-0.00026773,-0.03486541,-0.00249361,0.40655310,0.00154574,0.06587862,-0.00068262,0.10304214,-1.17395252,-0.27494790,0.30862281,0.69427561,0.19114739,-0.05830035,0.74134983,1.81323430,0.48282391,-1.57835417,0.79694546,0.27778796,-0.02385992,0.21553761,1.17395252
0.01200752,-0.00022823,-0.79096808,-0.00015402,-2.22314914,-0.00097873,1.58765270,0.78542897,0.00037977,-0.03141843,-0.00189289,0.40198993,0.00092232,0.06714776,0.00012898,0.10245368,-1.18266822,-0.27745114,0.32057567,0.69459524,0.19305628,-0.05834216,0.80142049,1.91390019,0.56783525,-1.64594582,0.80347054,0.25842498,-0.02939986,0.21550719,1.18266822
0.01300814,-0.00022922,-0.79098974,-0.00015469,-2.22275556,-0.00097722,1.58772391,0.78542518,-0.00031033,-0.02880643,-0.00173973,0.40250204,0.00104106,0.06858030,-0.00132933,0.10202184,-1.20169407,-0.28051296,0.33524398,0.69484144,0.19489731,-0.05838407,0.88153424,2.02249659,0.65974815,-1.78468613,0.80481864,0.23762679,-0.01875398,0.21547664,1.20169407
0.01400877,-0.00022685,-0.79100731,-0.00015981,-2.22235843,-0.00097570,1.58779553,0.78542518,0.00042980,-0.02568287,-0.00333059,0.40133960,0.00147549,0.06889425,-0.00080976,0.10186237,-1.23113357,-0.28351322,0.35129313,0.69501502,0.19642403,-0.05839363,0.94163673,2.12453146,0.77562125,-1.90034605,0.80395988,0.22469166,-0.02213719,0.21544580,1.23113357
0.01500940,-0.00022764,-0.79101731,-0.00015646,-2.22196559,-0.00097722,1.58786989,0.78542973,-0.00030377,-0.02076374,-0.00098463,0.39838269,0.00038073,0.06978934,0.00098184,0.10203843,-1.27110574,-0.28605194,0.36766135,0.69511922,0.19744609,-0.05833147,1.02426096,2.20209227,0.83698704,-1.99027268,0.81407792,0.20765344,-0.03463973,0.21541527,1.27110574
0.01601002,-0.00022625,-0.79102154,-0.00016035,-2.22157497,-0.00097408,1.58794654,0.78542897,0.00037491,-0.01566325,-0.00187271,0.39656413,0.00176617,0.07102956,0.00031418,0.10212659,-1.32454253,-0.28909094,0.38562825,0.69518915,0.19800355,-0.05818190,1.08706634,2.27548670,0.94307822,-2.09582384,0.80658780,0.18802778,-0.02964928,0.21538490,1.32454253
0.01701065,-0.00022721,-0.79103149,-0.00015694,-2.22120028,-0.00097332,1.58801821,0.78543276,0.00010983,-0.01421410,0.00008244,0.38899995,0.00185878,0.07098427,0.00140156,0.10178498,-1.39219313,-0.29329049,0.40645975,0.69527198,0.19822048,-0.05797315,1.16465885,2.40169957,1.00957558,-2.11935930,0.80835598,0.17769029,-0.03715750,0.21535574,1.39219313
0.01801128,-0.00022645,-0.79102615,-0.00015748,-2.22081988,-0.00097181,1.58809244,0.78543200,0.00010616,-0.00808822,-0.00020236,0.38589799,0.00178939,0.07165612,0.00065465,0.10087818,-1.47318326,-0.29893647,0.43148746,0.69542357,0.19829777,-0.05775080,1.23886745,2.46013525,1.10716344,-2.20573645,0.81123032,0.16219564,-0.03158507,0.21532613,1.47318326
0.01901190,-0.00023263,-0.79102968,-0.00015737,-2.22044693,-0.00097256,1.58816548,0.78542428,-0.00195302,-0.00624359,-0.00025715,0.38237632,0.00106645,0.07157527,-0.00223836,0.10011488,-1.56595583,-0.30491720,0.46038027,0.69568081,0.19827341,-0.05755852,1.34364277,2.57748396,1.20198839,-2.28551804,0.81884661,0.15190367,-0.01061572,0.21529708,1.56595583
0.02001253,-0.00023322,-0.79102780,-0.00015287,-2.22006406,-0.00097332,1.58824363,0.78542564,-0.00164562,-0.00363642,0.00101826,0.38039400,0.00055880,0.07345122,-0.00171910,0.10030758,-1.66488613,-0.30996166,0.48987404,0.69599004,0.19796283,-0.05741358,1.41560936,2.68275952,1.27753370,-2.38776993,0.82502609,0.12762389,-0.01397104,0.21526723,1.66488613
0.02101315,-0.00022634,-0.79102158,-0.00015206,-2.21970640,-0.00097500,1.58831815,0.78542862,0.00104255,-0.00044896,0.00039667,0.37287657,0.00048243,0.07330177,-0.00028619,0.10093113,-1.76548484,-0.31463099,0.51842449,0.69626808,0.19737378,-0.05729082,1.45372052,2.78206592,1.37892545,-2.40983811,0.82822746,0.11784689,-0.02380454,0.21523934,1.76548484
0.02201378,-0.00022844,-0.79102197,-0.00014218,-2.21933813,-0.00097683,1.58839526,0.78542885,-0.00034541,-0.00044336,0.00426264,0.37101432,-0.00019580,0.07376261,-0.00044835,0.10085742,-1.86519070,-0.32057239,0.54633518,0.69644909,0.19668977,-0.05716643,1.55180750,2.92221889,1.41865437,-2.51215616,0.83579116,0.10342219,-0.02229395,0.21521060,1.86519070
0.02301441,-0.00022496,-0.79101854,-0.00013878,-2.21897301,-0.00097712,1.58847081,0.78543045,0.00146737,0.00024118,0.00453606,0.36823164,-0.00115015,0.07480186,0.00025650,0.09938817,-1.95751598,-0.32944847,0.57092383,0.69639242,0.19582478,-0.05705122,1.60451824,3.05287080,1.50771304,-2.60115321,0.84519113,0.08505745,-0.02691426,0.21518209,1.95751598
0.02401503,-0.00022382,-0.79101838,-0.00012650,-2.21862171,-0.00097542,1.58854649,0.78543199,0.00086840,0.00049005,0.00684202,0.36429721,-0.00139294,0.07422771,0.00068185,0.09643040,-2.03680930,-0.34153304,0.58966553,0.69601495,0.19466286,-0.05696667,1.69250357,3.19015277,1.56828237,-2.67256156,0.84958595,0.07798252,-0.02955888,0.21515464,2.03680930
0.02501566,-0.00022178,-0.79101678,-0.00011492,-2.21826751,-0.00097586,1.58862123,0.78542897,0.00139774,0.00068254,0.00803507,0.36060093,-0.00108404,0.07463043,-0.00032786,0.09224891,-2.10132963,-0.35633911,0.60291315,0.69535859,0.19331087,-0.05693662,1.76516866,3.32761222,1.64394818,-2.74750776,0.85025184,0.06409878,-0.02191656,0.21512696,2.10132963
0.02601629,-0.00021414,-0.79101469,-0.00011071,-2.21792197,-0.00097803,1.58869530,0.78542973,0.00321314,0.00060012,0.00603551,0.35659513,-0.00173907,0.07461619,0.00002597,0.08749524,-2.15061355,-0.37205750,0.61173755,0.69451148,0.19190920,-0.05697232,1.81951956,3.46864371,1.76401791,-2.81712729,0.85774332,0.05316040,-0.02399661,0.21509993,2.15061355
0.02701691,-0.00021647,-0.79101027,-0.00009058,-2.21757509,-0.00097648,1.58876933,0.78542594,0.00133924,0.00211060,0.01028415,0.35308041,-0.00111213,0.07454658,-0.00120340,0.08283419,-2.18588335,-0.38695112,0.61770902,0.69357085,0.19061127,-0.05705875,1.92850487,3.58730864,1.79716554,-2.89372713,0.85622358,0.04262125,-0.01474682,0.21507279,2.18588335
0.02801754,-0.00020781,-0.79100448,-0.00008585,-2.21722415,-0.00097722,1.58884482,0.78543200,0.00406128,0.00304727,0.00876609,0.35152600,-0.00100797,0.07394441,0.00120607,0.07835652,-2.20944439,-0.40120711,0.62213173,0.69256527,0.18952988,-0.05716652,1.97174527,3.71253510,1.91040969,-2.99811548,0.85842811,0.03566887,-0.03144983,0.21504532,2.20944439
0.02901817,-0.00020182,-0.79099591,-0.00007213,-2.21688674,-0.00097798,1.58891723,0.78543048,0.00431967,0.00451512,0.01023707,0.34742513,-0.00030620,0.07394590,-0.00043497,0.07409561,-2.22334739,-0.41438340,0.62578407,0.69149940,0.18873776,-0.05727340,2.05111404,3.83094801,1.98198123,-3.06531936,0.85654185,0.02470597,-0.01940702,0.21501889,2.22334739
0.03001879,-0.00019905,-0.79099313,-0.00006790,-2.21655115,-0.00097798,1.58898694,0.78543048,0.00412009,0.00424193,0.00842315,0.34386798,0.00007073,0.07290284,-0.00013862,0.07078017,-2.22919663,-0.42476817,0.62982397,0.69045331,0.18837050,-0.05738736,2.13761300,3.97338514,2.09983120,-3.13993289,0.85688932,0.02112931,-0.02098500,0.21499259,2.22919663
0.03101942,-0.00018699,-0.79098058,-0.00005544,-2.21620920,-0.00097798,1.58906200,0.78542518,0.00695488,0.00658118,0.00924458,0.34372860,-0.00011457,0.07305070,-0.00177993,0.06908642,-2.22753043,-0.43096965,0.63418972,0.68947422,0.18843738,-0.05752222,2.18174898,4.07725017,2.18004890,-3.26290377,0.86125627,0.00891815,-0.00871782,0.21496578,2.22753043
0.03202004,-0.00017879,-0.79097561,-0.00004573,-2.21587848,-0.00097722,1.58913110,0.78543124,0.00732259,0.00598986,0.00944088,0.34152621,0.00036999,0.07176488,0.00080413,0.06867699,-2.21786814,-0.43337572,0.63715837,0.68848393,0.18875085,-0.05766423,2.26168004,4.22258752,2.26952821,-3.35581070,0.86093514,0.00700941,-0.02657891,0.21493984,2.21786814
0.03302067,-0.00016661,-0.79096319,-0.00003026,-2.21554455,-0.00097722,1.58919667,0.78542973,0.00876897,0.00815270,0.01108046,0.33941746,0.00065470,0.07000861,0.00020382,0.06902886,-2.20026861,-0.43334782,0.63782737,0.68741453,0.18918040,-0.05779234,2.32702223,4.32934556,2.33834226,-3.45028894,0.86210897,0.00862401,-0.02176104,0.21491364,2.20026861
0.03402130,-0.00015499,-0.79095349,-0.00001771,-2.21521511,-0.00097570,1.58926410,0.78542973,0.00963940,0.00866630,0.01127227,0.33675322,0.00107908,0.06988518,0.00034986,0.06993167,-2.17655743,-0.43184986,0.63668594,0.68626244,0.18969508,-0.05791333,2.40114011,4.45875204,2.42744614,-3.53639393,0.86226015,-0.00131517,-0.02222695,0.21488777,2.17655743
0.03502192,-0.00013383,-0.79094373,-0.00000104,-2.21488814,-0.00097890,1.58933044,0.78542670,0.01301822,0.00816034,0.01270644,0.33391364,-0.00029739,0.06942928,-0.00066513,0.07102031,-2.14727310,-0.42964141,0.63364675,0.68500739,0.19022181,-0.05804482,2.44002298,4.60172831,2.49854595,-3.61966877,0.87530907,-0.00889649,-0.01439870,0.21486209,2.14727310
0.03602255,-0.00012100,-0.79093486,0.00002027,-2.21456112,-0.00098072,1.58939346,0.78543124,0.01257818,0.00800516,0.01530598,0.33257279,-0.00110917,0.06822097,0.00156201,0.07173735,-2.11050200,-0.42800329,0.62723786,0.68358109,0.19059573,-0.05818679,2.53441756,4.73930589,2.55372256,-3.72392863,0.88440453,-0.01108160,-0.02962411,0.21483639,2.11050200
0.03702318,-0.00010660,-0.79092579,0.00003412,-2.21424208,-0.00097956,1.58945701,0.78543276,0.01360878,0.00822353,0.01494725,0.32930773,-0.00071553,0.06633094,0.00253072,0.07239919,-2.06536107,-0.42708903,0.61621035,0.68198093,0.19066456,-0.05833160,2.60832128,4.87243694,2.65012758,-3.80033068,0.88490754,-0.00847299,-0.03588271,0.21481131,2.06536107
0.03802380,-0.00008614,-0.79091829,0.00005405,-2.21391968,-0.00097648,1.58951669,0.78542745,0.01512106,0.00802973,0.01620254,0.32737819,-0.00013939,0.06456165,-0.00011031,0.07388552,-2.01253191,-0.42542823,0.60029691,0.68027388,0.19036529,-0.05849562,2.67588510,5.01050479,2.72353152,-3.89569854,0.88410526,-0.00656409,-0.01651382,0.21478596,2.01253191
0.03902443,-0.00006205,-0.79091660,0.00007437,-2.21361605,-0.00097622,1.58958167,0.78542670,0.01762329,0.00613115,0.01776830,0.32169606,0.00002955,0.06456662,-0.00022744,0.07607113,-1.95207869,-0.42293238,0.57965475,0.67846630,0.18971313,-0.05869809,2.72995184,5.17349313,2.79231242,-3.93639595,0.88633920,-0.01730032,-0.01502849,0.21476206,1.95207869
0.04002506,-0.00003732,-0.79090066,0.00009665,-2.21330813,-0.00097983,1.58963951,0.78542973,0.02037953,0.00913035,0.01958448,0.31683909,-0.00124781,0.06362862,0.00089842,0.07808911,-1.88661212,-0.42097882,0.55652983,0.67657883,0.18889512,-0.05891391,2.78120930,5.26756827,2.85757289,-3.98901159,0.89893475,-0.02099686,-0.02242532,0.21473782,1.88661212
0.04102568,-0.00001209,-0.79088793,0.00011741,-2.21299827,-0.00097520,1.58969952,0.78543048,0.02203245,0.01016539,0.02020952,0.31371380,0.00036242,0.06196400,0.00042780,0.07959919,-1.82204951,-0.42006459,0.53415320,0.67469205,0.18810662,-0.05910740,2.84859962,5.38792680,2.93949414,-4.06602845,0.89093745,-0.01980682,-0.01851362,0.21471342,1.82204951
0.04202631,0.00001519,-0.79086939,0.00014049,-2.21269308,-0.00097294,1.58975957,0.78543124,0.02329428,0.01273835,0.02097212,0.31127136,0.00053635,0.05986671,0.00057753,0.08126097,-1.76175521,-0.41899362,0.51319971,0.67286005,0.18731429,-0.05927587,2.92211601,5.48610425,3.01939418,-4.15201689,0.89315788,-0.01557670,-0.01893055,0.21468937,1.76175521
0.04302693,0.00005004,-0.79085059,0.00016998,-2.21239451,-0.00097345,1.58981772,0.78543048,0.02643397,0.01429291,0.02407014,0.30740158,0.00036225,0.05980671,-0.00011329,0.08329236,-1.70678429,-0.41753942,0.49322544,0.67105550,0.18644541,-0.05944052,2.96955915,5.59793218,3.06605894,-4.21711379,0.89802679,-0.02551816,-0.01337206,0.21466584,1.70678429
0.04402756,0.00008366,-0.79083299,0.00019201,-2.21209784,-0.00097185,1.58988036,0.78543048,0.02904657,0.01565179,0.02311349,0.30413134,0.00075989,0.06039130,0.00004381,0.08529327,-1.65721422,-0.41625028,0.47398010,0.66922019,0.18549307,-0.05962200,3.02482744,5.71239373,3.16948101,-4.29031840,0.89878378,-0.04020414,-0.01377492,0.21464244,1.65721422
0.04502819,0.00012110,-0.79080823,0.00022432,-2.21179979,-0.00097334,1.58993912,0.78543124,0.03178883,0.01883838,0.02548893,0.30173515,0.00000308,0.06047816,-0.00030327,0.08737439,-1.61271312,-0.41439437,0.45494148,0.66733826,0.18442582,-0.05982473,3.07911803,5.80021253,3.22594615,-4.37581243,0.90785985,-0.05121054,-0.01067002,0.21461892,1.61271312
0.04602881,0.00015785,-0.79078453,0.00025590,-2.21151496,-0.00097105,1.59000102,0.78542670,0.03310780,0.02046052,0.02805565,0.29501047,0.00085440,0.06104054,-0.00150722,0.08943512,-1.57462852,-0.41240277,0.43692227,0.66542105,0.18332631,-0.06004906,3.15422149,5.91067004,3.27989822,-4.39919368,0.90553161,-0.06565789,-0.00129128,0.21459644,1.57462852
0.04702944,0.00020107,-0.79076395,0.00028833,-2.21123391,-0.00097257,1.59006384,0.78542897,0.03581754,0.02088255,0.02966640,0.29181318,0.00008587,0.06121411,-0.00027667,0.09117374,-1.54279441,-0.41141850,0.42087248,0.66348264,0.18233575,-0.06028662,3.20986347,6.03630456,3.34666965,-4.47140789,0.91476655,-0.07751870,-0.00927445,0.21457424,1.54279441
0.04803007,0.00024331,-0.79073860,0.00031911,-2.21095197,-0.00097408,1.59012900,0.78542897,0.03785376,0.02269409,0.02963754,0.28865363,-0.00044965,0.06228960,-0.00022796,0.09295011,-1.51403149,-0.41058276,0.40533822,0.66152361,0.18137517,-0.06050984,3.27566730,6.14231203,3.43641619,-4.54416234,0.92239609,-0.09578161,-0.00886020,0.21455196,1.51403149
0.04903069,0.00028843,-0.79070861,0.00035538,-2.21067193,-0.00097408,1.59019930,0.78543048,0.03951297,0.02482043,0.03138065,0.28619083,-0.00058883,0.06398476,0.00023857,0.09549545,-1.48628960,-0.40819422,0.38839376,0.65955987,0.18025065,-0.06070014,3.34749771,6.24269294,3.50118750,-4.62634011,0.92724134,-0.11866116,-0.01142963,0.21452982,1.48628960
0.05003132,0.00033709,-0.79068706,0.00039522,-2.21040156,-0.00097256,1.59025779,0.78543124,0.04246493,0.02374893,0.03378357,0.28294072,0.00010783,0.06306329,0.00128502,0.09876243,-1.45728532,-0.40443895,0.36838541,0.65756512,0.17879330,-0.06086754,3.40160693,6.38761316,3.55595713,-4.69632403,0.92620224,-0.12268377,-0.01800344,0.21450844,1.45728532
0.05103195,0.00038810,-0.79065366,0.00043302,-2.21013186,-0.00097256,1.59031675,0.78542973,0.04502425,0.02643653,0.03528568,0.27794351,0.00005782,0.06181097,0.00058691,0.10201889,-1.42499679,-0.40076384,0.34483340,0.65549615,0.17697877,-0.06103779,3.46167721,6.48022132,3.62375759,-4.74175039,0.93049309,-0.12431706,-0.01224548,0.21448710,1.42499679
0.05203257,0.00044624,-0.79062716,0.00047115,-2.20986750,-0.00097181,1.59038006,0.78542973,0.04861920,0.02603416,0.03598898,0.27417135,0.00024794,0.06194529,0.00023293,0.10498151,-1.39019333,-0.39737715,0.31903520,0.65338392,0.17493352,-0.06122571,3.50717568,6.61507372,3.70213504,-4.80351901,0.93310284,-0.13594601,-0.00895329,0.21446618,1.39019333
0.05303320,0.00050268,-0.79059810,0.00051240,-2.20961533,-0.00097181,1.59043897,0.78542442,0.05056417,0.02669297,0.03800689,0.26705587,0.00022422,0.06043683,-0.00159736,0.10773127,-1.35318603,-0.39379036,0.29222694,0.65127976,0.17280222,-0.06142872,3.57688801,6.73584433,3.76223500,-4.81716325,0.93729391,-0.13578801,0.00494808,0.21444621,1.35318603
0.05403383,0.00056538,-0.79056905,0.00055766,-2.20935915,-0.00097013,1.59049767,0.78542594,0.05401074,0.02733906,0.04058751,0.26332359,0.00021153,0.06003041,-0.00057330,0.11006695,-1.31412182,-0.39054027,0.26558717,0.64920323,0.17073051,-0.06162252,3.62576505,6.85517229,3.81395240,-4.87841390,0.94138022,-0.14340270,-0.00145235,0.21442592,1.31412182
0.05503445,0.00062798,-0.79053333,0.00060812,-2.20910735,-0.00097150,1.59055624,0.78543067,0.05632226,0.02949705,0.04353339,0.26057652,0.00061431,0.05891905,0.00080494,0.11147029,-1.27351385,-0.38899824,0.23910668,0.64709833,0.16869414,-0.06176404,3.69142812,6.95239154,3.86028710,-4.95292740,0.94275620,-0.14607551,-0.01047872,0.21440596,1.27351385
0.05603508,0.00069524,-0.79049959,0.00065339,-2.20886355,-0.00097297,1.59060583,0.78542853,0.06028909,0.03091592,0.04434935,0.25486518,0.00075345,0.05606013,0.00055061,0.11179174,-1.23249505,-0.38951436,0.21276862,0.64494064,0.16664671,-0.06182793,3.73385801,7.06075069,3.93635465,-4.98494577,0.94599267,-0.13601826,-0.00772451,0.21438664,1.23249505
0.05703570,0.00076778,-0.79046350,0.00070836,-2.20862120,-0.00097396,1.59065844,0.78543008,0.06374857,0.03258520,0.04744704,0.25138608,0.00019476,0.05470612,0.00118788,0.11108494,-1.19265581,-0.39168929,0.18769828,0.64276990,0.16468999,-0.06181960,3.78392694,7.16397420,3.97988218,-5.04789295,0.95416151,-0.13669561,-0.01137681,0.21436743,1.19265581
0.05803633,0.00084475,-0.79042556,0.00075879,-2.20838592,-0.00097247,1.59071165,0.78543060,0.06736795,0.03416568,0.04820557,0.24593811,-0.00013567,0.05462565,0.00099406,0.10938524,-1.15457851,-0.39528095,0.16450850,0.64061304,0.16291411,-0.06176196,3.83182274,7.26870757,4.05622796,-5.08237113,0.96062873,-0.14627408,-0.00914993,0.21434877,1.15457851
0.05903696,0.00092479,-0.79038274,0.00080984,-2.20815254,-0.00097387,1.59076476,0.78542977,0.07090711,0.03667378,0.04955555,0.24105962,-0.00010362,0.05427195,0.00055012,0.10720649,-1.11934870,-0.39919118,0.14404472,0.63854303,0.16142483,-0.06168648,3.88140307,7.35952863,4.12449774,-5.12451726,0.96475119,-0.15394054,-0.00508983,0.21433025,1.11934870
0.06003758,0.00100452,-0.79034270,0.00086441,-2.20792712,-0.00097459,1.59081687,0.78543201,0.07323850,0.03806415,0.05125518,0.23709919,-0.00041982,0.05418800,0.00130523,0.10527018,-1.08770788,-0.40216749,0.12678836,0.63663268,0.16027689,-0.06162019,3.94874909,7.46544496,4.18742275,-5.17853697,0.97132505,-0.16347254,-0.00956061,0.21431236,1.08770788
0.06103821,0.00109095,-0.79030635,0.00091605,-2.20770068,-0.00097076,1.59086532,0.78542746,0.07761538,0.03772088,0.05121918,0.23376300,-0.00006003,0.05270917,-0.00063318,0.10418640,-1.05675180,-0.40319742,0.11094611,0.63486934,0.15933006,-0.06158601,3.98726634,7.59531440,4.27425846,-5.24117755,0.97296241,-0.16307502,0.00517674,0.21429438,1.05675180
0.06203884,0.00117456,-0.79025805,0.00097246,-2.20748192,-0.00097065,1.59091425,0.78542594,0.07993672,0.04111112,0.05305048,0.22985366,0.00033935,0.05171893,-0.00094051,0.10439305,-1.02367588,-0.40137183,0.09473686,0.63321552,0.15842510,-0.06159126,4.05594262,7.67210591,4.33546102,-5.29501431,0.97456988,-0.16608715,0.00835788,0.21427700,1.02367588
0.06303946,0.00127028,-0.79021256,0.00103130,-2.20726680,-0.00097107,1.59096468,0.78542670,0.08463194,0.04240967,0.05443024,0.22504571,0.00061924,0.05095380,-0.00031076,0.10581713,-0.98990863,-0.39702703,0.07882923,0.63165865,0.15757216,-0.06160487,4.09074136,7.77756330,4.40216259,-5.33554955,0.97707142,-0.17076013,0.00488009,0.21425991,0.98990863
0.06404009,0.00135868,-0.79016657,0.00108887,-2.20704670,-0.00097340,1.59100733,0.78542745,0.08582137,0.04363481,0.05541721,0.22360712,0.00008173,0.04911995,-0.00016947,0.10845212,-0.95556376,-0.39051245,0.06311072,0.63018376,0.15673269,-0.06158613,4.17621032,7.88357145,4.47456657,-5.42385319,0.98543714,-0.16758826,0.00483680,0.21424242,0.95556376
0.06504072,0.00145880,-0.79011666,0.00115513,-2.20683998,-0.00097275,1.59105188,0.78543200,0.09025602,0.04538627,0.05864464,0.21874965,-0.00069279,0.04773828,0.00125758,0.11235950,-0.91881462,-0.38223153,0.04622758,0.62875659,0.15579616,-0.06152106,4.21589415,7.98118031,4.51492200,-5.46251110,0.99536135,-0.16765991,-0.00438106,0.21422599,0.91881462
0.06604134,0.00156090,-0.79006935,0.00122081,-2.20663600,-0.00097522,1.59109921,0.78542897,0.09402364,0.04641607,0.06130776,0.21477400,-0.00051911,0.04767874,-0.00056673,0.11657927,-0.87967624,-0.37437072,0.02841702,0.62731842,0.15480898,-0.06143498,4.26542588,8.08865282,4.56303278,-5.51307662,0.99884180,-0.17713445,0.00955275,0.21420976,0.87967624
0.06704197,0.00167061,-0.79001807,0.00129731,-2.20643437,-0.00097134,1.59114452,0.78543048,0.09943096,0.04777292,0.06538645,0.21062066,0.00061690,0.04691687,0.00027645,0.11956964,-0.83831515,-0.36976752,0.01018954,0.62577961,0.15385074,-0.06137325,4.29203201,8.19013096,4.59027680,-5.56064057,0.99531413,-0.18161186,0.00460320,0.21419372,0.83831515
0.06804259,0.00177579,-0.78996543,0.00137291,-2.20624222,-0.00097206,1.59119294,0.78543048,0.10015132,0.04890392,0.06856841,0.20573538,-0.00007872,0.04711264,0.00011981,0.12070170,-0.79473616,-0.36993979,-0.00828059,0.62409960,0.15296093,-0.06135995,4.38548860,8.29525794,4.63010667,-5.59703761,1.00487225,-0.19290918,0.00673813,0.21417842,0.79473616
0.06904322,0.00188947,-0.78991634,0.00144488,-2.20605181,-0.00097256,1.59123556,0.78542594,0.10427820,0.04855804,0.06981202,0.20123823,-0.00013058,0.04651559,-0.00149197,0.12092720,-0.74829142,-0.37356367,-0.02707122,0.62235033,0.15214951,-0.06140066,4.43083720,8.42071218,4.69676132,-5.63830994,1.00993653,-0.19836744,0.01929952,0.21416326,0.74829142
0.07004385,0.00200722,-0.78986485,0.00152020,-2.20586402,-0.00097171,1.59128443,0.78542670,0.10760037,0.04958198,0.07034136,0.19755707,0.00101011,0.04746063,-0.00112767,0.12158330,-0.69716621,-0.37742774,-0.04718762,0.62062090,0.15132201,-0.06147930,4.48779044,8.52683641,4.77320856,-5.69068981,1.00662839,-0.21491984,0.01777494,0.21414830,0.69716621
0.07104447,0.00212639,-0.78980600,0.00160090,-2.20568215,-0.00097168,1.59132595,0.78542745,0.11001845,0.05168927,0.07288110,0.19316443,0.00125511,0.04657795,-0.00003384,0.12345710,-0.64176155,-0.37921529,-0.06892427,0.61897293,0.15038869,-0.06155082,4.55819719,8.61650260,4.82142189,-5.73239278,1.00968002,-0.21831297,0.01115952,0.21413381,0.64176155
0.07204510,0.00224935,-0.78974944,0.00168384,-2.20550498,-0.00097167,1.59137000,0.78542670,0.11402798,0.05327153,0.07599659,0.18816529,0.00095661,0.04604406,-0.00033291,0.12643709,-0.58499984,-0.37919524,-0.09096025,0.61743523,0.14939030,-0.06158362,4.60664440,8.71294684,4.86124704,-5.76481534,1.01657427,-0.22427985,0.01438520,0.21411969,0.61743523
0.07304573,0.00237712,-0.78968652,0.00176406,-2.20533100,-0.00097243,1.59141208,0.78543124,0.11844677,0.05645941,0.07710238,0.18393737,0.00049228,0.04454226,0.00116077,0.12978302,-0.53004262,-0.37851812,-0.11157100,0.61600733,0.14842357,-0.06156956,4.64953052,8.78652006,4.92963186,-5.80762973,1.02470232,-0.22334520,0.00480805,0.21410582,0.61600733
0.07404635,0.00251132,-0.78962312,0.00185239,-2.20516000,-0.00097167,1.59145033,0.78543048,0.12243288,0.05857850,0.08033370,0.17932184,0.00077223,0.04279509,0.00036901,0.13295033,-0.47941278,-0.37756401,-0.12953703,0.61469170,0.14755308,-0.06151890,4.69865595,8.87381100,4.96734896,-5.84445556,1.02758845,-0.22052843,0.01151052,0.21409218,0.61469170
0.07504698,0.00264554,-0.78955098,0.00194079,-2.20499651,-0.00097167,1.59148920,0.78543370,0.12601262,0.06266405,0.08331584,0.17447549,0.00071440,0.04148899,0.00057156,0.13544139,-0.43522293,-0.37720363,-0.14380047,0.61347944,0.14685561,-0.06146724,4.75429117,8.93260398,5.00904710,-5.87720794,1.03292131,-0.22081720,0.01106761,0.21407914,0.61347944
0.07604761,0.00278615,-0.78948099,0.00203819,-2.20483534,-0.00097167,1.59152374,0.78543156,0.12997587,0.06473586,0.08817111,0.17017503,-0.00011929,0.03983420,-0.00023036,0.13659230,-0.39883447,-0.37913678,-0.15363276,0.61233125,0.14640518,-0.06144814,4.80464578,9.01818565,5.02317486,-5.91698133,1.04372446,-0.21848149,0.01794142,0.21406628,0.61233125
0.07704823,0.00292305,-0.78940484,0.00213710,-2.20468219,-0.00097243,1.59156034,0.78542781,0.13246593,0.06790766,0.09143433,0.16482873,-0.00026926,0.03799425,-0.00191790,0.13600411,-0.36982798,-0.38466562,-0.15912548,0.61120640,0.14623184,-0.06147768,4.87665355,9.08833796,5.05945768,-5.94128231,1.04980826,-0.21491335,0.03110375,0.21405405,0.61120640
0.07804886,0.00306793,-0.78933135,0.00223780,-2.20452839,-0.00097318,1.59159270,0.78543155,0.13583381,0.06929685,0.09348606,0.16220543,-0.00036642,0.03598677,-0.00086779,0.13430013,-0.34597948,-0.39280834,-0.16152673,0.61011151,0.14627465,-0.06154784,4.93612389,9.18296320,5.11182948,-6.00343029,1.05556194,-0.20996021,0.02474151,0.21404177,0.61011151
0.07904948,0.00321932,-0.78924956,0.00233449,-2.20438155,-0.00096999,1.59162564,0.78542629,0.14029477,0.07322145,0.09513929,0.15636343,0.00039331,0.03467412,-0.00223894,0.13245285,-0.32532519,-0.40110514,-0.16218469,0.60908434,0.14644159,-0.06162751,4.98044525,9.24139421,5.17105329,-6.01970584,1.05515780,-0.20987750,0.03579106,0.21403004,0.60908434
0.08005011,0.00337759,-0.78916251,0.00243981,-2.20423575,-0.00097212,1.59165502,0.78542555,0.14591088,0.07650809,0.09793811,0.15298094,0.00013529,0.03277774,-0.00187833,0.13049932,-0.30868596,-0.40847188,-0.16076375,0.60814715,0.14675270,-0.06168051,5.00867440,9.30651758,5.21326972,-6.06991045,1.06219031,-0.20556098,0.03451074,0.21401839,0.60814715
0.08105074,0.00354008,-0.78907700,0.00253259,-2.20409824,-0.00097126,1.59168573,0.78542985,0.15045759,0.07987297,0.09583611,0.14872708,-0.00009866,0.03251010,0.00008959,0.12866667,-0.29685377,-0.41341340,-0.15714154,0.60732949,0.14719210,-0.06166651,5.05191231,9.37266077,5.32503620,-6.10708200,1.06893810,-0.21261623,0.02173083,0.21400740,0.60732949
0.08205136,0.00370361,-0.78898984,0.00263531,-2.20396613,-0.00097124,1.59171306,0.78542901,0.15540272,0.08141095,0.09786436,0.14362622,0.00046611,0.03109916,-0.00062349,0.12798052,-0.28830501,-0.41318064,-0.15216756,0.60669708,0.14768455,-0.06157031,5.09030812,9.46173589,5.37776420,-6.13132682,1.07017189,-0.21155859,0.02799515,0.21399684,0.60669708
0.08305199,0.00387267,-0.78889351,0.00273872,-2.20383361,-0.00097593,1.59174480,0.78543126,0.15916659,0.08608656,0.09963263,0.14060723,-0.00106635,0.03080530,0.00007639,0.12868678,-0.28177449,-0.40761058,-0.14640468,0.60625361,0.14818011,-0.06142299,5.14559302,9.50615582,5.43497460,-6.18496599,1.08637600,-0.21853447,0.02422774,0.21398624,0.60625361
0.08405262,0.00405482,-0.78880053,0.00284310,-2.20370651,-0.00097305,1.59176792,0.78543049,0.16628649,0.08791708,0.10094442,0.13601910,-0.00022553,0.02887114,0.00002301,0.13014498,-0.27698244,-0.39847301,-0.14033962,0.60593043,0.14861448,-0.06126831,5.15307442,9.58936380,5.49780436,-6.21531889,1.08561470,-0.21359339,0.02589930,0.21397607,0.60593043
0.08505324,0.00423397,-0.78870177,0.00295271,-2.20357609,-0.00097390,1.59179403,0.78542764,0.16966487,0.09125076,0.10331278,0.13439187,-0.00112940,0.02784558,-0.00154976,0.13174445,-0.27228310,-0.38716774,-0.13528006,0.60564186,0.14887667,-0.06114431,5.21408804,9.65106916,5.54548074,-6.28774514,1.09730148,-0.21516116,0.03832104,0.21396563,0.60564186
0.08605387,0.00442171,-0.78859622,0.00305906,-2.20346357,-0.00096997,1.59181809,0.78543004,0.17469301,0.09578666,0.10463610,0.12779988,0.00004530,0.02718250,0.00038772,0.13352963,-0.26775565,-0.37439106,-0.13140542,0.60536352,0.14895265,-0.06104823,5.25189118,9.69496125,5.60882850,-6.28853930,1.09423219,-0.21915139,0.02592443,0.21395662,0.60536352
0.08705450,0.00460527,-0.78848737,0.00316552,-2.20335208,-0.00097374,1.59184006,0.78543179,0.17681394,0.10014465,0.10513886,0.12241634,-0.00060727,0.02607087,0.00039305,0.13646716,-0.26760264,-0.35927706,-0.12587350,0.60522173,0.14908710,-0.06093681,5.33144055,9.74163100,5.68318206,-6.30624797,1.10437279,-0.21985484,0.02709261,0.21394769,0.60522173
0.08805512,0.00480742,-0.78837207,0.00327696,-2.20324808,-0.00097201,1.59186534,0.78543262,0.18419517,0.10460287,0.10732921,0.11703723,-0.00034223,0.02592230,0.00091661,0.14109024,-0.27512775,-0.34125484,-0.11620081,0.60531844,0.14951110,-0.06079347,5.33637355,9.78328458,5.73431082,-6.32242872,1.10786459,-0.22752993,0.02470458,0.21393935,0.60531844
0.08905575,0.00500786,-0.78825622,0.00339120,-2.20314549,-0.00097043,1.59188974,0.78543139,0.18820999,0.10800519,0.10886152,0.11281241,0.00010438,0.02511926,0.00046170,0.14663236,-0.29001969,-0.32170344,-0.10248505,0.60559743,0.15022719,-0.06062943,5.38913715,9.84033480,5.79340173,-6.35466085,1.11012118,-0.23053369,0.02927434,0.21393113,0.60559743
0.09005638,0.00520954,-0.78813556,0.00350375,-2.20304884,-0.00097318,1.59191204,0.78543451,0.19279691,0.11230520,0.11034861,0.10747681,-0.00060937,0.02492711,0.00141793,0.15276400,-0.31034672,-0.30145335,-0.08588422,0.60600567,0.15113195,-0.06044590,5.43454913,9.88376186,5.85385406,-6.37056590,1.12075822,-0.23770715,0.02376378,0.21392337,0.60600567
0.09105700,0.00541974,-0.78801143,0.00362451,-2.20296157,-0.00097309,1.59193249,0.78542999,0.19772170,0.11626776,0.11333331,0.10142122,-0.00003837,0.02439606,-0.00046185,0.15954180,-0.33540009,-0.28098025,-0.06659688,0.60654778,0.15219749,-0.06024416,5.47510397,9.92997577,5.89248085,-6.37501983,1.12229063,-0.24244460,0.03850418,0.21391636,0.60654778
0.09205763,0.00564232,-0.78787880,0.00374914,-2.20287171,-0.00097306,1.59194942,0.78543531,0.20584881,0.12080670,0.11714315,0.09841811,-0.00000609,0.02252265,0.00207173,0.16566966,-0.36474063,-0.26288162,-0.04482447,0.60713557,0.15339908,-0.06003335,5.47042218,9.96529042,5.91994713,-6.42194388,1.12765051,-0.23764324,0.02188138,0.21390914,0.60713557
0.09305825,0.00586578,-0.78774232,0.00386778,-2.20278318,-0.00097391,1.59196602,0.78543152,0.21020335,0.12509807,0.11701533,0.09600392,-0.00027536,0.02067471,0.00031857,0.17020444,-0.39633376,-0.24847783,-0.02262408,0.60764859,0.15453907,-0.05981867,5.51891154,10.00647418,6.00223364,-6.47732045,1.13520017,-0.23288271,0.03571702,0.21390203,0.60764859
0.09405888,0.00608890,-0.78760038,0.00398958,-2.20269963,-0.00096909,1.59198409,0.78543304,0.21259234,0.13097323,0.11829263,0.09209696,0.00067553,0.01970519,0.00073324,0.17479801,-0.42916899,-0.23468059,-0.00170834,0.60815322,0.15543096,-0.05959909,5.59576991,10.02436468,6.06499522,-6.51148135,1.13395870,-0.23438390,0.03412756,0.21389531,0.60815322
0.09505951,0.00632048,-0.78746145,0.00410906,-2.20262944,-0.00097198,1.59199912,0.78543531,0.21859272,0.13249224,0.11918309,0.08557729,-0.00020577,0.01822238,0.00122635,0.18131418,-0.46301021,-0.21843944,0.01816577,0.60879251,0.15611982,-0.05936782,5.62165548,10.10156479,6.13234976,-6.50633326,1.14594754,-0.23208462,0.03196705,0.21388966,0.60879251
0.09606013,0.00655680,-0.78732107,0.00423341,-2.20255608,-0.00097187,1.59201319,0.78543380,0.22406694,0.13567613,0.12067607,0.08203480,-0.00050638,0.01636677,0.00010494,0.18966340,-0.49486844,-0.19959771,0.03684809,0.60957123,0.15670452,-0.05913777,5.65519963,10.15512448,6.19126515,-6.54331715,1.15376935,-0.22714089,0.04131053,0.21388375,0.60957123
0.09706076,0.00678910,-0.78716821,0.00436415,-2.20249211,-0.00097105,1.59202938,0.78543228,0.22748091,0.14053537,0.12405884,0.07591775,0.00040388,0.01604631,-0.00064328,0.19911811,-0.52332004,-0.17948271,0.05426964,0.61044052,0.15724716,-0.05893572,5.71885164,10.18260938,6.22362300,-6.54339965,1.15310619,-0.23311082,0.04805879,0.21387859,0.61044052
0.09806139,0.00703709,-0.78701587,0.00449830,-2.20242912,-0.00097001,1.59204385,0.78543607,0.23311120,0.14320894,0.12684836,0.07183561,0.00106194,0.01477900,0.00038210,0.20893485,-0.54966107,-0.16012257,0.07128828,0.61136963,0.15782508,-0.05876671,5.75039447,10.23987669,6.26324316,-6.57103932,1.15423516,-0.23231214,0.04213866,0.21387350,0.61136963
0.09906201,0.00729494,-0.78685494,0.00463978,-2.20237782,-0.00097219,1.59205658,0.78543077,0.24010554,0.14885988,0.13029327,0.06586581,0.00014413,0.01346023,-0.00235213,0.21781949,-0.57492090,-0.14374791,0.08865960,0.61229390,0.15849819,-0.05863254,5.76285531,10.25291979,6.29480570,-6.57103775,1.16659752,-0.23114076,0.06301479,0.21386935,0.61229390
0.10006264,0.00754849,-0.78668708,0.00477336,-2.20232526,-0.00097216,1.59206697,0.78543077,0.24437268,0.15425332,0.13109040,0.06110691,0.00052548,0.01171696,-0.00118123,0.22507394,-0.60224536,-0.13089254,0.10807013,0.61322307,0.15938125,-0.05852934,5.81442761,10.27095283,6.36346964,-6.58835967,1.16979733,-0.22678521,0.05628924,0.21386509,0.61322307
0.10106327,0.00780505,-0.78652782,0.00490835,-2.20227237,-0.00097215,1.59207951,0.78542849,0.24725255,0.15660271,0.13182797,0.05922417,0.00029338,0.01175374,-0.00194669,0.23208012,-0.63175484,-0.11864612,0.12888315,0.61425109,0.16039002,-0.05842073,5.88538404,10.33311982,6.43073786,-6.64545990,1.17732011,-0.23488792,0.06323124,0.21386081,0.63175484
0.10206389,0.00807446,-0.78634851,0.00504665,-2.20223489,-0.00097058,1.59209251,0.78542849,0.25337598,0.16339072,0.13467014,0.05258113,-0.00000857,0.01069812,-0.00115268,0.24006383,-0.66132099,-0.10467423,0.14920673,0.61542080,0.16134608,-0.05826093,5.91101526,10.32706500,6.47179220,-6.63424400,1.18529493,-0.23556337,0.05918387,0.21385775,0.66132099
0.10306452,0.00833726,-0.78617998,0.00519036,-2.20219344,-0.00097102,1.59210395,0.78543546,0.25714688,0.16474511,0.13798304,0.04898761,-0.00038994,0.01104741,0.00113862,0.24838050,-0.69104834,-0.09025910,0.16932635,0.61670282,0.16226931,-0.05801925,5.97017703,10.39879182,6.50193152,-6.66520173,1.19393626,-0.24583157,0.04430028,0.21385437,0.69104834
0.10406514,0.00861504,-0.78600207,0.00534326,-2.20216125,-0.00097067,1.59210832,0.78543728,0.26244629,0.16884437,0.14160298,0.04423091,0.00037438,0.00914281,0.00173266,0.25604009,-0.71834399,-0.07753164,0.18826106,0.61801071,0.16310339,-0.05769949,6.00739613,10.42943570,6.52865293,-6.67890150,1.19455866,-0.24004917,0.04157979,0.21385173,0.71834399
0.10506577,0.00889568,-0.78582743,0.00549025,-2.20213156,-0.00096974,1.59211700,0.78543839,0.26888367,0.16963056,0.14287371,0.03978335,-0.00050387,0.00882052,0.00168550,0.26243319,-0.73936312,-0.06720601,0.20423595,0.61927165,0.16374976,-0.05734293,6.02873517,10.50758715,6.58745805,-6.69576162,1.20668706,-0.24540844,0.04338474,0.21384929,0.73936312
0.10606640,0.00917478,-0.78564778,0.00563680,-2.20210955,-0.00096939,1.59212156,0.78544002,0.27030120,0.17256303,0.14328053,0.03502353,0.00032499,0.00796537,0.00178714,0.26842632,-0.75149116,-0.05692778,0.21614548,0.62054266,0.16416600,-0.05699119,6.12107168,10.55717806,6.65796255,-6.70838646,1.20692363,-0.24680932,0.04412283,0.21384746,0.75149116
0.10706702,0.00946630,-0.78546814,0.00578322,-2.20209722,-0.00097054,1.59212760,0.78543476,0.27559185,0.17500115,0.14344091,0.02789808,0.00061652,0.00764708,-0.00049440,0.27616477,-0.75507659,-0.04264202,0.22457742,0.62201096,0.16442888,-0.05667055,6.15876552,10.61146192,6.73305640,-6.68600060,1.21103496,-0.25206069,0.06191181,0.21384640,0.75507659
0.10806765,0.00976148,-0.78528611,0.00593171,-2.20208179,-0.00096960,1.59213254,0.78543780,0.28265780,0.17769713,0.14596231,0.02437759,0.00038242,0.00763114,0.00041139,0.28588078,-0.75226130,-0.02356657,0.23102381,0.62374524,0.16467110,-0.05639040,6.17199206,10.65982986,6.77546698,-6.71384374,1.21876500,-0.25940138,0.05699400,0.21384509,0.75226130
0.10906828,0.01006003,-0.78509493,0.00608942,-2.20206837,-0.00096849,1.59213343,0.78543402,0.28699683,0.18243687,0.14994506,0.02096981,0.00100106,0.00577815,-0.00040847,0.29580968,-0.74457882,-0.00286867,0.23556582,0.62561692,0.16486478,-0.05614180,6.22371398,10.67796925,6.79661921,-6.74348734,1.22053526,-0.25373640,0.06451011,0.21384394,0.74457882
0.11006890,0.01036689,-0.78490764,0.00624386,-2.20206845,-0.00096812,1.59213867,0.78543478,0.29420660,0.18368424,0.15178805,0.01514932,0.00121674,0.00707252,-0.00017454,0.30454626,-0.73336712,0.01643098,0.23821070,0.62751895,0.16497240,-0.05591022,6.23487615,10.74484833,6.84723091,-6.73663663,1.22519947,-0.27020307,0.06443187,0.21384386,0.73336712
0.11106953,0.01067845,-0.78470283,0.00641197,-2.20206898,-0.00096632,1.59213916,0.78544008,0.29846336,0.18942466,0.15619939,0.01051280,0.00163015,0.00536585,0.00152929,0.31141668,-0.72030101,0.03289499,0.24009538,0.62943189,0.16507462,-0.05567279,6.28780424,10.74552708,6.86189784,-6.74721654,1.22843163,-0.26556952,0.05385846,0.21384382,0.72030101
0.11207016,0.01099836,-0.78450710,0.00657325,-2.20207270,-0.00096278,1.59213957,0.78543947,0.30406326,0.19132602,0.15821902,0.00616358,0.00179353,0.00407506,-0.00007764,0.31633221,-0.70752492,0.04600114,0.24243062,0.63137004,0.16524984,-0.05542663,6.32131132,10.80207552,6.90891945,-6.76038931,1.23336110,-0.26365590,0.06675457,0.21384403,0.70752492
0.11307078,0.01131531,-0.78430736,0.00673993,-2.20207738,-0.00096134,1.59213819,0.78544280,0.30976762,0.19258804,0.16156063,0.00352507,0.00205396,0.00306943,0.00011321,0.31945996,-0.69250062,0.05612444,0.24363603,0.63330002,0.16537329,-0.05520206,6.35415501,10.86598129,6.93631429,-6.79687004,1.23774156,-0.26362496,0.06688070,0.21384431,0.69250062
0.11407141,0.01164826,-0.78410149,0.00692114,-2.20209096,-0.00095691,1.59214051,0.78544240,0.31632400,0.19694886,0.16766467,-0.00154714,0.00307695,0.00301374,0.00025463,0.31997948,-0.67207588,0.06194169,0.24188554,0.63511133,0.16530627,-0.05502285,6.37451230,10.88189200,6.92583878,-6.79842811,1.23665172,-0.27063259,0.06757395,0.21384529,0.67207588
0.11507203,0.01197285,-0.78388360,0.00709976,-2.20210301,-0.00095563,1.59213901,0.78544024,0.32004854,0.20383982,0.17133422,-0.00412991,0.00179198,0.00136161,-0.00016165,0.31696997,-0.65063254,0.06128117,0.23911573,0.63676830,0.16514992,-0.05489526,6.43601632,10.86418171,6.95016131,-6.83595795,1.25193533,-0.26619607,0.07225802,0.21384615,0.65063254
0.11607266,0.01231657,-0.78366198,0.00727306,-2.20211907,-0.00095004,1.59213902,0.78543801,0.32631652,0.20905251,0.17075027,-0.00727406,0.00298442,0.00092964,-0.00022177,0.31156942,-0.63457370,0.05653074,0.23782401,0.63840704,0.16499911,-0.05479731,6.46065170,10.87128680,7.03478969,-6.86445905,1.24973335,-0.27021523,0.07445669,0.21384733,0.63840704
0.11707329,0.01266143,-0.78343673,0.00745152,-2.20213995,-0.00094097,1.59213902,0.78543878,0.33114354,0.21436257,0.17239252,-0.01124514,0.00428540,0.00113589,0.00027615,0.30581004,-0.62630404,0.05282884,0.23885509,0.64021423,0.16484677,-0.05467778,6.50585841,10.87473807,7.08722639,-6.88073298,1.24660097,-0.27875888,0.07261400,0.21384889,0.64021423
0.11807391,0.01301124,-0.78320455,0.00763264,-2.20215891,-0.00092969,1.59213740,0.78543803,0.33901525,0.22003069,0.17606155,-0.01356442,0.00677915,0.00029412,0.00000040,0.29988143,-0.62588031,0.05138683,0.24247860,0.64223872,0.16468611,-0.05449413,6.50882635,10.86915476,7.11251538,-6.91949202,1.23504525,-0.27995481,0.07629097,0.21385029,0.64223872
0.11907454,0.01336891,-0.78296533,0.00782194,-2.20218222,-0.00091457,1.59213664,0.78544258,0.34397756,0.22571962,0.18046518,-0.01659146,0.00902025,0.00022292,0.00128546,0.29231075,-0.63278931,0.04929020,0.24860198,0.64439315,0.16449634,-0.05423222,6.55208761,10.86238261,7.12541674,-6.94804083,1.22507079,-0.28658160,0.06878234,0.21385204,0.64439315
0.12007517,0.01373954,-0.78271637,0.00800802,-2.20220754,-0.00089716,1.59213826,0.78544333,0.35181747,0.23159431,0.18178898,-0.01896642,0.01188299,0.00077110,0.00105337,0.28224656,-0.64631626,0.04471098,0.25703579,0.64664576,0.16425464,-0.05390436,6.55470191,10.85280197,7.18344997,-6.98502361,1.21071205,-0.29757374,0.07209538,0.21385394,0.64664576
0.12107579,0.01410267,-0.78246888,0.00819396,-2.20223073,-0.00087108,1.59213664,0.78544576,0.35539732,0.23540050,0.18264920,-0.02031171,0.01633466,0.00011925,0.00056561,0.27059620,-0.66391624,0.03955967,0.26651757,0.64908844,0.16385427,-0.05354877,6.61755445,10.87499433,7.24438183,-7.03663656,1.18479757,-0.29983287,0.07710003,0.21385567,0.66391624
0.12207642,0.01448887,-0.78221434,0.00839254,-2.20226096,-0.00083714,1.59213740,0.78544439,0.36389842,0.24035748,0.18760588,-0.02321135,0.02107817,0.00057378,0.00087471,0.25806296,-0.68160035,0.03497203,0.27513931,0.65178482,0.16316148,-0.05321073,6.61041572,10.87288174,7.24986070,-7.06453222,1.15646667,-0.31020660,0.07676661,0.21385795,0.68160035
0.12307705,0.01486870,-0.78195085,0.00859489,-2.20229149,-0.00079507,1.59213664,0.78544156,0.36883005,0.24765956,0.19231753,-0.02479761,0.02753061,-0.00032116,-0.00066321,0.24351324,-0.69913989,0.02790883,0.28305126,0.65469087,0.16221243,-0.05292195,6.65443291,10.83862963,7.25831334,-7.11186540,1.11579425,-0.31107263,0.08943859,0.21386026,0.69913989
0.12407767,0.01526345,-0.78168421,0.00880420,-2.20232785,-0.00075075,1.59213270,0.78544314,0.37622838,0.25287180,0.19646980,-0.02872015,0.03230500,-0.00163992,0.00019145,0.22594240,-0.71939916,0.01549406,0.29203582,0.65776387,0.16117478,-0.05267969,6.66292716,10.83109544,7.27367763,-7.12449701,1.08677977,-0.30876190,0.08516048,0.21386302,0.71939916
0.12507830,0.01567006,-0.78141402,0.00900368,-2.20236583,-0.00070937,1.59213482,0.78544569,0.38294052,0.25852985,0.19657812,-0.03163669,0.03503787,-0.00107299,0.00128507,0.20593535,-0.74352479,-0.00119864,0.30335240,0.66100933,0.16020552,-0.05244192,6.68046846,10.82116706,7.34696349,-7.15145552,1.07228175,-0.31976892,0.07915437,0.21386591,0.74352479
0.12607893,0.01606507,-0.78114511,0.00920713,-2.20240220,-0.00067035,1.59213311,0.78544503,0.38734350,0.26082114,0.19958476,-0.03327733,0.03635199,-0.00125496,0.00062999,0.18535262,-0.76845318,-0.01842261,0.31571780,0.66440941,0.15926478,-0.05217855,6.73120519,10.85729863,7.37509023,-7.19530915,1.06779641,-0.32522428,0.08554608,0.21386867,0.76845318
0.12707955,0.01647715,-0.78087955,0.00941234,-2.20245057,-0.00063400,1.59213153,0.78544809,0.39324790,0.26277810,0.20053370,-0.03783221,0.03645828,-0.00123820,0.00113025,0.16608834,-0.78767279,-0.03309127,0.32606189,0.66788923,0.15819805,-0.05189716,6.75987933,10.89816696,7.43256704,-7.19658169,1.07194112,-0.33203004,0.08367917,0.21387238,0.78767279
0.12808018,0.01688428,-0.78060723,0.00962310,-2.20250285,-0.00059632,1.59213201,0.78544810,0.39946982,0.26590416,0.20346940,-0.04154827,0.03691085,-0.00119012,0.00066930,0.14894984,-0.79705719,-0.04398634,0.33310563,0.67136141,0.15701292,-0.05162160,6.78533745,10.91942852,7.46259479,-7.20899903,1.07361245,-0.33924777,0.08871501,0.21387640,0.79705719
0.12908080,0.01731174,-0.78033076,0.00984229,-2.20255430,-0.00056077,1.59213430,0.78544507,0.40694098,0.26828170,0.20752693,-0.04366909,0.03641997,0.00011814,-0.00119972,0.13336334,-0.79568343,-0.05232196,0.33647250,0.67467070,0.15573463,-0.05138907,6.79176631,10.94907850,7.47586221,-7.24294353,1.08201837,-0.35533865,0.10377187,0.21388034,0.79568343
0.13008143,0.01773768,-0.78004999,0.01006598,-2.20261094,-0.00052527,1.59213427,0.78544905,0.41121306,0.27244818,0.21281055,-0.04766400,0.03510832,-0.00022494,-0.00021375,0.11826457,-0.78407098,-0.06100254,0.33578548,0.67764581,0.15433643,-0.05122352,6.84356095,10.95221069,7.47117735,-7.25088021,1.09615939,-0.35985593,0.09850726,0.21388468,0.78407098
0.13108206,0.01817141,-0.77977230,0.01028914,-2.20267185,-0.00049366,1.59213426,0.78544622,0.41923580,0.27234621,0.21484261,-0.05097436,0.03399222,-0.00033453,-0.00126646,0.10339299,-0.76257625,-0.07137536,0.33103853,0.68023680,0.15283615,-0.05111572,6.84230737,11.01684138,7.51056461,-7.26575218,1.10918781,-0.36568873,0.10784996,0.21388936,0.76257625
0.13208268,0.01862006,-0.77948924,0.01051202,-2.20273683,-0.00046518,1.59213577,0.78544745,0.42885002,0.27408532,0.21613929,-0.05475441,0.03218423,0.00024604,-0.00065690,0.08877623,-0.72876571,-0.08232161,0.32114515,0.68245753,0.15119638,-0.05103858,6.81832832,11.05409988,7.56285900,-7.27365122,1.12727379,-0.37648042,0.10537782,0.21389436,0.72876571
0.13308331,0.01907451,-0.77921101,0.01073570,-2.20280510,-0.00043570,1.59213501,0.78545136,0.43448560,0.27565185,0.21817594,-0.05784100,0.03110668,-0.00013101,0.00143556,0.07474170,-0.68124015,-0.09177616,0.30525391,0.68438795,0.14936843,-0.05095115,6.84939492,11.09587786,7.60201707,-7.29135012,1.14018473,-0.38037889,0.09238350,0.21389962,0.68438795
0.13408394,0.01952021,-0.77891846,0.01096569,-2.20287503,-0.00040327,1.59213891,0.78545609,0.43969711,0.28065455,0.22232217,-0.06096847,0.03070059,0.00090557,0.00213834,0.06222121,-0.62319655,-0.09862618,0.28430165,0.68618348,0.14738192,-0.05083210,6.88837855,11.08492244,7.61377822,-7.30902796,1.14827248,-0.39462887,0.08910598,0.21390500,0.68618348
0.13508456,0.01998699,-0.77861887,0.01119982,-2.20294524,-0.00037424,1.59213739,0.78545323,0.44748880,0.28721465,0.22487796,-0.06338518,0.03052488,0.00038448,0.00123955,0.05160593,-0.56235244,-0.10340978,0.26098797,0.68797265,0.14534766,-0.05070164,6.89021675,11.05104010,7.65031584,-7.33642004,1.15499540,-0.39770389,0.09744163,0.21391039,0.68797265
0.13608519,0.02046699,-0.77831312,0.01143230,-2.20302299,-0.00034478,1.59213735,0.78545570,0.45557640,0.29316676,0.22765166,-0.06797307,0.03001372,0.00021116,0.00119779,0.04245768,-0.50744310,-0.10699745,0.23885418,0.68981447,0.14345358,-0.05058845,6.88714272,11.02298188,7.68397561,-7.33200565,1.16405442,-0.40330486,0.09952839,0.21391638,0.68981447
0.13708582,0.02093818,-0.77799938,0.01168048,-2.20310106,-0.00031876,1.59213860,0.78545112,0.46157007,0.29834136,0.23425291,-0.07165373,0.02895606,-0.00038086,-0.00023827,0.03386194,-0.46341513,-0.11124734,0.22049053,0.69168314,0.14188299,-0.05051119,6.91422788,11.00156040,7.65993917,-7.33967364,1.17705697,-0.40609128,0.11173835,0.21392238,0.69168314
0.13808644,0.02142030,-0.77769620,0.01192062,-2.20317911,-0.00029198,1.59213700,0.78545699,0.46732815,0.29942708,0.23416167,-0.07344241,0.02806534,-0.00051525,0.00161072,0.02575454,-0.42753064,-0.11687347,0.20462288,0.69350481,0.14054835,-0.05046230,6.94321246,11.04772658,7.72652662,-7.37288614,1.18895009,-0.41134544,0.10038711,0.21392838,0.69350481
0.13908707,0.02190905,-0.77737551,0.01215471,-2.20326895,-0.00026787,1.59213769,0.78545342,0.47572890,0.30609102,0.23389910,-0.07832971,0.02677325,-0.00047278,0.00098401,0.01977360,-0.39496054,-0.11997168,0.18866337,0.69530903,0.13924682,-0.05039742,6.93668097,11.00944109,7.80382984,-7.36258055,1.20386808,-0.41832694,0.10689577,0.21393531,0.69530903
0.14008769,0.02240176,-0.77705662,0.01239922,-2.20335546,-0.00024234,1.59214135,0.78545509,0.47913226,0.31128598,0.23832296,-0.08095761,0.02637253,0.00013010,0.00076904,0.01719783,-0.36742652,-0.11758241,0.17344134,0.69718201,0.13800275,-0.05027586,6.99903790,10.99057915,7.80910065,-7.38411642,1.21238781,-0.42935483,0.11025013,0.21394197,0.69718201
0.14108832,0.02289747,-0.77673103,0.01264556,-2.20344924,-0.00021516,1.59214394,0.78546059,0.48543723,0.31601403,0.24082418,-0.08520783,0.02574425,0.00063151,0.00227424,0.01806472,-0.34730140,-0.11085111,0.16011351,0.69911061,0.13685284,-0.05007839,7.02135858,10.97645169,7.84283534,-7.38116784,1.22248000,-0.43956769,0.10139247,0.21394919,0.69911061
0.14208895,0.02341582,-0.77639986,0.01288677,-2.20355083,-0.00019326,1.59214184,0.78545784,0.49548115,0.31965441,0.23992125,-0.09048723,0.02499083,0.00055042,0.00027031,0.02184460,-0.33371795,-0.10050456,0.14887161,0.70105120,0.13580604,-0.04980845,6.99002606,10.97756526,7.92667587,-7.36171152,1.23380471,-0.44530870,0.11752545,0.21395704,0.70105120
0.14308957,0.02393093,-0.77608155,0.01313940,-2.20365597,-0.00017510,1.59214165,0.78546339,0.49902212,0.31833023,0.24443647,-0.09431152,0.02263708,0.00043531,0.00105706,0.02789137,-0.32132802,-0.08652383,0.13830252,0.70296323,0.13480302,-0.04949924,7.04824093,11.04854782,7.92301547,-7.36093705,1.25635914,-0.45069544,0.11367760,0.21396515,0.70296323
0.14409020,0.02444976,-0.77575602,0.01339980,-2.20376821,-0.00015415,1.59214133,0.78546145,0.50740538,0.32041480,0.25053446,-0.09924051,0.02193495,0.00022552,-0.00020936,0.03476359,-0.30180469,-0.07229346,0.12534899,0.70473764,0.13366687,-0.04919351,7.04015064,11.06389741,7.90309507,-7.34354412,1.26726799,-0.45576268,0.12463962,0.21397382,0.70473764
0.14509083,0.02497826,-0.77543180,0.01365209,-2.20387560,-0.00012381,1.59213809,0.78546560,0.51318930,0.32248329,0.24940231,-0.10158604,0.02446262,-0.00083073,0.00116674,0.04120455,-0.27184551,-0.06048872,0.10863971,0.70634018,0.13228167,-0.04890979,7.06763572,11.09168560,7.98367072,-7.36405460,1.25523573,-0.45427142,0.11675442,0.21398210,0.70634018
0.14609145,0.02551106,-0.77510048,0.01390029,-2.20398927,-0.00009573,1.59213805,0.78546107,0.51665516,0.32519498,0.24988426,-0.10554078,0.02565987,-0.00041584,-0.00057411,0.04886926,-0.23244352,-0.04721350,0.08810269,0.70795260,0.13056715,-0.04863619,7.12748036,11.10790593,8.04131194,-7.36172438,1.25260779,-0.46332747,0.13113304,0.21399088,0.70795260
0.14709208,0.02603233,-0.77475554,0.01416689,-2.20411056,-0.00006431,1.59213478,0.78546822,0.51897653,0.32949229,0.25632367,-0.11043235,0.02709559,-0.00121929,0.00099114,0.05963139,-0.18731694,-0.02986204,0.06554033,0.70974662,0.12861309,-0.04835910,7.20492301,11.09177445,8.01380129,-7.34517746,1.24805893,-0.46405628,0.12182774,0.21400024,0.70974662
0.14809271,0.02657097,-0.77441312,0.01443016,-2.20423275,-0.00003510,1.59213369,0.78546628,0.52438616,0.33128961,0.25687726,-0.11441492,0.02738641,-0.00123300,-0.00022412,0.07333272,-0.14062540,-0.01034377,0.04367018,0.71171256,0.12662524,-0.04807314,7.23787910,11.11702567,8.06889644,-7.33992603,1.25176201,-0.46996853,0.13242380,0.21400967,0.71171256
0.14909333,0.02710762,-0.77406906,0.01469010,-2.20435789,-0.00000647,1.59213181,0.78546982,0.52851174,0.33627057,0.25773772,-0.11810589,0.02769638,-0.00150603,0.00083764,0.09020080,-0.09428603,0.01186436,0.02365094,0.71381407,0.12467653,-0.04777310,7.28991561,11.09731280,8.12248064,-7.33973878,1.25539998,-0.47416044,0.12682541,0.21401933,0.71381407
0.15009396,0.02767139,-0.77371496,0.01496488,-2.20448188,0.00002474,1.59213321,0.78547327,0.53659026,0.34357618,0.26398892,-0.12004070,0.02807529,-0.00148773,0.00208497,0.10959083,-0.05266921,0.03609300,0.00690908,0.71595991,0.12281357,-0.04744735,7.28524736,11.03386553,8.10370338,-7.36319020,1.25841327,-0.48094624,0.11999626,0.21402887,0.71595991
0.15109458,0.02822774,-0.77334469,0.01524901,-2.20461220,0.00005172,1.59213237,0.78547442,0.54382433,0.35225181,0.26892264,-0.12255240,0.02752697,-0.00168767,0.00240673,0.12844610,-0.02327104,0.05673846,-0.00416243,0.71794369,0.12114089,-0.04709679,7.29386176,10.95018726,8.10351925,-7.37843436,1.26817416,-0.48609086,0.11977081,0.21403890,0.71794369
0.15209521,0.02878405,-0.77296987,0.01551942,-2.20475163,0.00008200,1.59213372,0.78547474,0.54900773,0.35816846,0.26820320,-0.12751976,0.02820125,-0.00108450,0.00128948,0.14561666,-0.01160990,0.07226629,-0.00741020,0.71977732,0.11978101,-0.04673657,7.33105472,10.91235906,8.18038452,-7.35813992,1.26928181,-0.49653335,0.12962422,0.21404966,0.71977732
0.15309584,0.02935242,-0.77259832,0.01581711,-2.20488359,0.00011526,1.59213200,0.78548040,0.55446091,0.36334925,0.27852946,-0.12911713,0.02956526,-0.00021433,0.00282792,0.16154967,-0.01685537,0.08370056,-0.00308348,0.72157506,0.11872558,-0.04637884,7.36291253,10.87161394,8.09723874,-7.38372917,1.26523317,-0.50907873,0.12066758,0.21405978,0.72157506
0.15409646,0.02992365,-0.77221321,0.01610298,-2.20502322,0.00014866,1.59212879,0.78547623,0.56194894,0.37021401,0.28103051,-0.13216517,0.03120705,-0.00104083,0.00087968,0.17487545,-0.03485881,0.08809001,0.00645401,0.72324822,0.11782894,-0.04604319,7.36757334,10.81290413,8.12955423,-7.38896414,1.25942627,-0.50943265,0.13661074,0.21407052,0.72324822
0.15509709,0.03049168,-0.77183077,0.01640013,-2.20517087,0.00018182,1.59212852,0.78548408,0.56142510,0.37297060,0.28557733,-0.13741022,0.03253513,-0.00063875,0.00232535,0.18604169,-0.06215772,0.08602653,0.01960880,0.72483321,0.11704482,-0.04574009,7.48266731,10.81435470,8.12064431,-7.36235666,1.25567236,-0.51827060,0.12814759,0.21408188,0.72483321
0.15609772,0.03107203,-0.77145434,0.01670149,-2.20532734,0.00021621,1.59213081,0.78548139,0.56592750,0.37441437,0.29010306,-0.14262751,0.03329327,0.00013563,0.00127019,0.19761936,-0.09264885,0.08146267,0.03471081,0.72647484,0.11638957,-0.04547035,7.52706538,10.83083797,8.11389482,-7.33292609,1.25589253,-0.52980499,0.13774882,0.21409391,0.72647484
0.15709834,0.03165510,-0.77107222,0.01699800,-2.20548599,0.00024854,1.59213229,0.78548180,0.57236136,0.37504847,0.29061029,-0.14713672,0.03336119,0.00095581,0.00017324,0.21079226,-0.11777939,0.07698188,0.04881836,0.72814905,0.11577440,-0.04524369,7.54484124,10.86234809,8.16485187,-7.31238892,1.26116427,-0.54130889,0.14748184,0.21410612,0.72814905
0.15809897,0.03224720,-0.77069041,0.01729384,-2.20564150,0.00028193,1.59213148,0.78548374,0.57695078,0.37729936,0.29203374,-0.15030833,0.03308800,0.00117030,0.00094705,0.22636103,-0.13123159,0.07602207,0.05897508,0.72979782,0.11501300,-0.04503843,7.58783650,10.87170021,8.20303896,-7.31173684,1.26877691,-0.54848844,0.14404831,0.21411807,0.72979782
0.15909960,0.03284579,-0.77028639,0.01759634,-2.20580540,0.00031322,1.59213118,0.78549291,0.58553141,0.38486256,0.29516608,-0.15433574,0.03210806,0.00100966,0.00327635,0.24455126,-0.13478157,0.08025923,0.06530690,0.73140595,0.11405038,-0.04480168,7.57680665,10.79567987,8.22620143,-7.29884218,1.28151145,-0.55359957,0.12944514,0.21413067,0.73140595
0.16010022,0.03345357,-0.76988024,0.01790190,-2.20597031,0.00034940,1.59213006,0.78549200,0.59060706,0.39007280,0.29776289,-0.15756786,0.03278607,0.00043567,0.00242975,0.26433629,-0.13668650,0.08830800,0.07097769,0.73297770,0.11302406,-0.04450571,7.61306276,10.75656623,8.25068856,-7.29661131,1.28237033,-0.55546452,0.13754355,0.21414333,0.73297770
0.16110085,0.03406050,-0.76947327,0.01821953,-2.20613644,0.00037965,1.59212919,0.78549571,0.59449874,0.39530978,0.30425581,-0.16052798,0.03247504,-0.00035460,0.00264157,0.28489257,-0.14174014,0.09803221,0.07759975,0.73453345,0.11199797,-0.04416217,7.66586473,10.71184796,8.21761957,-7.29756436,1.29036371,-0.55597536,0.13802133,0.21415606,0.73453345
0.16210148,0.03466466,-0.76906308,0.01852533,-2.20630714,0.00041337,1.59212589,0.78550391,0.59979281,0.39850113,0.30433495,-0.16373692,0.03314886,-0.00065909,0.00509129,0.30626451,-0.14906725,0.10859313,0.08421524,0.73611107,0.11090676,-0.04378511,7.69977449,10.70369261,8.27518015,-7.29364626,1.29144475,-0.55924807,0.12258269,0.21416916,0.73611107
0.16310210,0.03527760,-0.76864793,0.01883115,-2.20647652,0.00044987,1.59212393,0.78550947,0.60148982,0.40439361,0.30398080,-0.16626015,0.03381938,-0.00109472,0.00454171,0.33047575,-0.15699234,0.12380326,0.08947157,0.73786930,0.10966479,-0.04337887,7.78351373,10.66038105,8.33892036,-7.30158889,1.29243399,-0.56170244,0.12826592,0.21418214,0.73786930
0.16410273,0.03590711,-0.76822438,0.01913693,-2.20665684,0.00048807,1.59212443,0.78551273,0.60920126,0.40893608,0.30660303,-0.17058664,0.03464875,-0.00038671,0.00413356,0.35927192,-0.16614146,0.14714832,0.09332213,0.73993911,0.10827958,-0.04297081,7.78264894,10.62384743,8.36456497,-7.27996793,1.29221180,-0.57252174,0.13313836,0.21419599,0.73993911
0.16510335,0.03654334,-0.76780162,0.01945284,-2.20684534,0.00052116,1.59212578,0.78551390,0.61992575,0.41117131,0.30901011,-0.17561507,0.03397939,0.00064895,0.00317033,0.39038828,-0.17607575,0.17553483,0.09625585,0.74216462,0.10685882,-0.04259622,7.73926584,10.61690786,8.39186986,-7.24522994,1.30275213,-0.58553377,0.14201738,0.21421044,0.74216462
0.16610398,0.03719283,-0.76737911,0.01977333,-2.20703715,0.00055192,1.59212782,0.78552422,0.62871650,0.41566541,0.31301732,-0.18079363,0.03341828,0.00130177,0.00569553,0.41977157,-0.18479926,0.20317552,0.09859902,0.74428232,0.10550903,-0.04225319,7.72207539,10.57629996,8.39711156,-7.20914579,1.31262830,-0.59608947,0.12603894,0.21422514,0.74428232
0.16710461,0.03783984,-0.76695722,0.02009712,-2.20722166,0.00058727,1.59212745,0.78553330,0.63648077,0.41641116,0.31608437,-0.18136765,0.03305107,0.00072970,0.00658989,0.44489255,-0.18923591,0.22622896,0.09899377,0.74611696,0.10411377,-0.04191593,7.71836311,10.59461741,8.40865049,-7.23643464,1.32093284,-0.59735471,0.12149071,0.21423925,0.74611696
0.16810523,0.03849966,-0.76652596,0.02041726,-2.20741339,0.00062421,1.59212657,0.78554514,0.64250789,0.41967837,0.31644809,-0.18531009,0.03496421,0.00016917,0.00807674,0.46559866,-0.18450209,0.24499842,0.09414415,0.74763563,0.10235304,-0.04156954,7.73871654,10.57857994,8.46098693,-7.21758926,1.31326169,-0.59877337,0.11266890,0.21425392,0.74763563
0.16910586,0.03917862,-0.76609961,0.02074831,-2.20761106,0.00066760,1.59212566,0.78556134,0.65272572,0.42194726,0.32208729,-0.18875333,0.03715785,-0.00073348,0.01067745,0.48180449,-0.16912214,0.26010954,0.08319244,0.74887586,0.10013443,-0.04120979,7.69905333,10.56501341,8.43975913,-7.20217883,1.30321974,-0.59807493,0.09589178,0.21426904,0.74887586
0.17010649,0.03985328,-0.76566609,0.02108118,-2.20781359,0.00071723,1.59212262,0.78557708,0.66299324,0.42525798,0.32578477,-0.19242725,0.04095519,-0.00153098,0.01260110,0.49104878,-0.14464406,0.26802301,0.06745367,0.74971547,0.09758371,-0.04084866,7.65991974,10.53795295,8.44725313,-7.18339228,1.28171334,-0.59794866,0.08388372,0.21428453,0.74971547
0.17110711,0.04054430,-0.76522362,0.02143178,-2.20801353,0.00076557,1.59212099,0.78559888,0.67153272,0.43178210,0.33589370,-0.19539027,0.04444715,-0.00218201,0.01514205,0.49012290,-0.11515044,0.26315126,0.04908664,0.74989747,0.09488158,-0.04050928,7.64384950,10.45470717,8.36470731,-7.17570535,1.26228348,-0.59947861,0.06730280,0.21429976,0.74989747
0.17210774,0.04125697,-0.76476459,0.02177552,-2.20822077,0.00080662,1.59211943,0.78562446,0.68328010,0.43954035,0.33834395,-0.19900156,0.04406419,-0.00157831,0.01850130,0.47711592,-0.08900113,0.24168652,0.03194854,0.74922025,0.09229835,-0.04019558,7.58266947,10.36034430,8.39637512,-7.15845574,1.27059853,-0.60944800,0.04480557,0.21431557,0.74922025
0.17310837,0.04196452,-0.76430547,0.02212382,-2.20843152,0.00085055,1.59211595,0.78564204,0.69112334,0.44475320,0.34021509,-0.20284352,0.04275186,-0.00183539,0.01836946,0.45311996,-0.07300835,0.20643686,0.01934234,0.74773130,0.09005407,-0.03989679,7.57533387,10.30624254,8.42838131,-7.13720093,1.28522536,-0.61293664,0.04710513,0.21433164,0.74773130
0.17410899,0.04268377,-0.76383938,0.02248403,-2.20864247,0.00089024,1.59211606,0.78566744,0.69842416,0.45046039,0.34927308,-0.20538595,0.04169815,-0.00126553,0.02122681,0.42029135,-0.06804504,0.16144313,0.01187915,0.74559439,0.08817625,-0.03960029,7.57433376,10.23285417,8.35731246,-7.13314175,1.29808668,-0.62280602,0.02813281,0.21434768,0.74559439
0.17510962,0.04340384,-0.76337558,0.02283906,-2.20886434,0.00093970,1.59211558,0.78569532,0.70593020,0.45526862,0.35026873,-0.21017022,0.04337803,-0.00068548,0.02305013,0.37986717,-0.07224807,0.10789438,0.00888445,0.74296061,0.08659459,-0.03927649,7.57101958,10.18395811,8.40014148,-7.09680924,1.29152159,-0.63218049,0.01624065,0.21436458,0.74296061
0.17611024,0.04413413,-0.76290679,0.02321793,-2.20908323,0.00099230,1.59211141,0.78571488,0.71177426,0.45809417,0.35922033,-0.21333229,0.04623575,-0.00159528,0.02244020,0.33329008,-0.08226382,0.04768499,0.00925798,0.74001648,0.08522912,-0.03890324,7.58860387,10.15103912,8.32259500,-7.08131433,1.27630972,-0.63117842,0.02181875,0.21438119,0.74001648
0.17711087,0.04486522,-0.76245130,0.02358521,-2.20930806,0.00104921,1.59210785,0.78573662,0.72032143,0.45863627,0.36014367,-0.21628345,0.04981863,-0.00220692,0.02155969,0.28176185,-0.09070501,-0.01743807,0.00980839,0.73682599,0.08387808,-0.03848199,7.56884019,10.16387728,8.35916276,-7.06684214,1.25603679,-0.63154886,0.02914292,0.21439827,0.73682599
0.17811150,0.04561366,-0.76197769,0.02396465,-2.20953784,0.00110225,1.59210414,0.78576333,0.72739994,0.46295020,0.36716013,-0.21907710,0.05099114,-0.00307686,0.02309595,0.22642933,-0.09115360,-0.08546014,0.00740027,0.73336049,0.08232656,-0.03800147,7.56871036,10.11041895,8.31203440,-7.05522884,1.25270451,-0.63075823,0.01936301,0.21441571,0.73336049
0.17911212,0.04637939,-0.76151043,0.02434838,-2.20976246,0.00115093,1.59209966,0.78578373,0.73811277,0.46565975,0.37035182,-0.22174959,0.04980114,-0.00402496,0.02201395,0.16801446,-0.08299512,-0.15546024,0.00162796,0.72957568,0.08053565,-0.03746368,7.51669011,10.08363341,8.31967479,-7.04389235,1.26625475,-0.62899336,0.02822574,0.21443271,0.72957568
0.18011275,0.04713051,-0.76102998,0.02474236,-2.20999863,0.00119809,1.59209090,0.78580141,0.74460709,0.47023785,0.38001672,-0.22552352,0.04914822,-0.00611532,0.02096224,0.10649915,-0.06842273,-0.22880473,-0.00620656,0.72543398,0.07863125,-0.03692156,7.52474911,10.01896631,8.23298586,-7.01695334,1.27591039,-0.61956982,0.03704897,0.21445058,0.72543398
0.18111338,0.04789646,-0.76054529,0.02512991,-2.21023409,0.00124777,1.59208510,0.78581595,0.75094970,0.47680147,0.37972135,-0.22923514,0.04935061,-0.00583411,0.01859332,0.04363322,-0.05265814,-0.30442877,-0.01318493,0.72111171,0.07687965,-0.03641745,7.53503970,9.94386063,8.29119239,-6.99335165,1.27979062,-0.62628032,0.05520339,0.21446839,0.72111171
0.18211400,0.04867499,-0.76005320,0.02551441,-2.21048276,0.00129818,1.59207799,0.78582694,0.75726433,0.47987984,0.38310731,-0.23390041,0.04886423,-0.00554700,0.01646747,-0.01638545,-0.04098255,-0.37624831,-0.01650795,0.71699912,0.07552469,-0.03593941,7.54342192,9.90945509,8.29221930,-6.95204373,1.28829951,-0.63294417,0.07184360,0.21448722,0.71699912
0.18311463,0.04944537,-0.75956239,0.02590464,-2.21072695,0.00135441,1.59207608,0.78583721,0.76332306,0.48025075,0.38397377,-0.23656053,0.05113120,-0.00421137,0.01508439,-0.06995199,-0.03072343,-0.43856149,-0.01728723,0.71336755,0.07452969,-0.03546242,7.55550391,9.92064853,8.32341058,-6.93785610,1.27730584,-0.64662947,0.08327452,0.21450568,0.71336755
0.18411526,0.05022126,-0.75907123,0.02630505,-2.21097476,0.00140948,1.59207006,0.78584794,0.76402271,0.48489140,0.38992815,-0.24078042,0.05167027,-0.00459193,0.01296809,-0.11470843,-0.01678230,-0.48905659,-0.01808558,0.71034335,0.07370661,-0.03496919,7.64202253,9.86468628,8.28222021,-6.90464194,1.27830134,-0.64873666,0.09985223,0.21452438,0.71034335
0.18511588,0.05100412,-0.75856686,0.02669027,-2.21122331,0.00146456,1.59206336,0.78586730,0.77163887,0.49054944,0.38754391,-0.24221280,0.05232858,-0.00553947,0.01413536,-0.14845350,-0.00099392,-0.52584065,-0.01871353,0.70808094,0.07298022,-0.03443071,7.63387318,9.80300591,8.36951437,-6.90924550,1.27884467,-0.64628811,0.09301999,0.21454315,0.70808094
0.18611651,0.05178493,-0.75805929,0.02708495,-2.21147328,0.00151887,1.59205657,0.78587835,0.77220964,0.49390778,0.39063146,-0.24516085,0.05332292,-0.00560478,0.01316984,-0.16925949,0.01337765,-0.54606983,-0.01873678,0.70671605,0.07226788,-0.03382814,7.72187099,9.76942004,8.36704984,-6.89253022,1.27679242,-0.65006205,0.10150228,0.21456199,0.70671605
0.18711714,0.05257584,-0.75756091,0.02748674,-2.21173687,0.00157137,1.59205528,0.78588597,0.77579425,0.49682624,0.39257311,-0.25073747,0.05319983,-0.00420419,0.01245052,-0.17610721,0.02643966,-0.54890926,-0.01828442,0.70631330,0.07152208,-0.03319068,7.76764821,9.73945075,8.38272508,-6.83607875,1.28269029,-0.66439819,0.10846486,0.21458186,0.70631330
0.18811776,0.05336240,-0.75704455,0.02788635,-2.21199984,0.00163213,1.59204874,0.78589303,0.77917118,0.50216353,0.39723006,-0.25323682,0.05538505,-0.00427895,0.01114549,-0.16984106,0.03769264,-0.53725828,-0.01651835,0.70681660,0.07080763,-0.03256693,7.81756645,9.66977229,8.36321942,-6.82341240,1.27200651,-0.66838608,0.11958451,0.21460167,0.70681660
0.18911839,0.05416807,-0.75652159,0.02828671,-2.21225959,0.00169232,1.59204237,0.78589607,0.78623699,0.50936094,0.39531290,-0.25535960,0.05634424,-0.00478763,0.00906317,-0.15208927,0.04376872,-0.51379916,-0.01259126,0.70807445,0.07013278,-0.03197826,7.81620905,9.58121082,8.44381405,-6.81667502,1.27021586,-0.66902532,0.13635403,0.21462120,0.70807445
0.19011901,0.05497099,-0.75599774,0.02868945,-2.21252963,0.00174724,1.59203725,0.78590677,0.79175301,0.51402997,0.40017264,-0.25949846,0.05604332,-0.00445683,0.00888706,-0.12464256,0.04110329,-0.48020564,-0.00581631,0.70990511,0.06950704,-0.03141082,7.83536338,9.51496874,8.42236129,-6.77829630,1.27722606,-0.67591004,0.13942567,0.21464152,0.70990511
0.19111964,0.05578594,-0.75546558,0.02909402,-2.21280530,0.00180144,1.59203232,0.78591294,0.79823187,0.51780216,0.39998682,-0.26312348,0.05470663,-0.00431565,0.00746589,-0.08984604,0.03007492,-0.43923692,0.00374540,0.71210202,0.06897643,-0.03084543,7.84028328,9.46938299,8.47171538,-6.74588036,1.29169258,-0.68093631,0.15140949,0.21466224,0.71210202
0.19212027,0.05660377,-0.75493824,0.02951020,-2.21307265,0.00185180,1.59203186,0.78592089,0.80051165,0.52123809,0.40598163,-0.26480194,0.05334266,-0.00307258,0.00739617,-0.04956257,0.01477115,-0.39357176,0.01412497,0.71449469,0.06843985,-0.03027446,7.90200372,9.42353398,8.42624021,-6.74173551,1.30631458,-0.69406947,0.15383794,0.21468226,0.71449469
0.19312089,0.05741687,-0.75440914,0.02991683,-2.21335068,0.00190849,1.59202751,0.78593253,0.80556240,0.52292714,0.40561292,-0.26914345,0.05455749,-0.00371753,0.00895996,-0.00481474,0.00037503,-0.34477933,0.02261867,0.71701454,0.06768562,-0.02967873,7.92625807,9.40878804,8.47257582,-6.69748238,1.30275292,-0.69329772,0.14463757,0.21470312,0.71701454
0.19412152,0.05824472,-0.75388246,0.03033196,-2.21362846,0.00196476,1.59201708,0.78593952,0.80969299,0.52543797,0.40925715,-0.27202448,0.05588486,-0.00561314,0.00825543,0.04366474,-0.00890814,-0.29327231,0.02770943,0.71967849,0.06659573,-0.02904720,7.96168648,9.37656322,8.46071849,-6.67352703,1.29830984,-0.68370675,0.15157230,0.21472392,0.71967849
0.19512215,0.05909133,-0.75334427,0.03073879,-2.21391362,0.00202785,1.59200832,0.78594634,0.81898560,0.52779312,0.40676279,-0.27586126,0.05815275,-0.00590417,0.00764727,0.09478138,-0.01109568,-0.23902899,0.02903655,0.72246622,0.06516092,-0.02840252,7.92520876,9.35035125,8.54285548,-6.63391945,1.28720453,-0.68507737,0.15785515,0.21474530,0.72246622
0.19612277,0.05991145,-0.75280258,0.03115740,-2.21419797,0.00209173,1.59200164,0.78595551,0.81967947,0.53073970,0.41298021,-0.27845916,0.05957308,-0.00564903,0.00812020,0.14726130,-0.00602027,-0.18287397,0.02679089,0.72526281,0.06341735,-0.02777039,8.00894824,9.30838044,8.49058681,-6.61364402,1.28163522,-0.69076038,0.15643627,0.21476656,0.72526281
0.19712340,0.06074355,-0.75225835,0.03157559,-2.21447910,0.00214298,1.59199482,0.78596168,0.82186940,0.53560733,0.41254676,-0.27930125,0.05746076,-0.00544696,0.00766711,0.20105776,0.00472892,-0.12559647,0.02132571,0.72796138,0.06136319,-0.02716524,8.07216518,9.25177334,8.53731268,-6.61951864,1.30171599,-0.69556183,0.16162742,0.21478753,0.72796138
0.19812403,0.06158207,-0.75168953,0.03197804,-2.21476922,0.00219587,1.59198573,0.78596944,0.82816601,0.54482258,0.41138202,-0.28224452,0.05568108,-0.00613380,0.00784901,0.25736655,0.01450572,-0.06531679,0.01500180,0.73061283,0.05908556,-0.02657517,8.08069741,9.12344496,8.60876094,-6.59589759,1.31950673,-0.69460669,0.16238631,0.21480923,0.73061283
0.19912465,0.06244011,-0.75112617,0.03239683,-2.21505184,0.00225344,1.59196717,0.78597410,0.83621156,0.54916487,0.41210884,-0.28322066,0.05649827,-0.00978149,0.00611395,0.31582983,0.01566491,-0.00097310,0.01130020,0.73329359,0.05680638,-0.02597283,8.06112775,9.06149533,8.64457244,-6.59597527,1.31877918,-0.67201588,0.17670365,0.21483028,0.73329359
0.20012528,0.06331933,-0.75056485,0.03283202,-2.21533758,0.00231908,1.59195224,0.78597861,0.84757834,0.55344430,0.41998907,-0.28364761,0.05933648,-0.01163579,0.00630189,0.37187499,0.00917627,0.06100140,0.00985847,0.73576245,0.05459480,-0.02535828,7.99358198,8.98225797,8.58056475,-6.60068279,1.30330084,-0.66278137,0.17764901,0.21485151,0.73576245
0.20112590,0.06419555,-0.74998784,0.03325865,-2.21563504,0.00237927,1.59194623,0.78598986,0.85998484,0.55974687,0.42069550,-0.28694311,0.05966619,-0.00964642,0.00792693,0.41930642,-0.00156434,0.11126345,0.00930724,0.73764355,0.05250228,-0.02472870,7.91399913,8.88235559,8.62504863,-6.56572818,1.30593002,-0.68063936,0.16819377,0.21487364,0.73764355
0.20212653,0.06506745,-0.74941644,0.03369412,-2.21592958,0.00243648,1.59193688,0.78599723,0.86327254,0.56572515,0.42687570,-0.29021335,0.05998548,-0.00917556,0.00793262,0.45578389,-0.01850404,0.14655440,0.01141823,0.73888226,0.05074724,-0.02407325,7.95919278,8.78659376,8.57884911,-6.53344104,1.30847734,-0.68779031,0.17022318,0.21489549,0.73888226
0.20312716,0.06594712,-0.74883957,0.03412942,-2.21622032,0.00249764,1.59192871,0.78600316,0.87319487,0.56778078,0.43036551,-0.28961705,0.06112899,-0.00846125,0.00709304,0.48181891,-0.04057121,0.16725398,0.01589552,0.73955573,0.04927745,-0.02342195,7.91128947,8.74822249,8.57130803,-6.55047218,1.30521124,-0.69599775,0.17823315,0.21491702,0.73955573
0.20412778,0.06686018,-0.74825362,0.03457958,-2.21651152,0.00256616,1.59190965,0.78601305,0.88712628,0.57163240,0.43861326,-0.29099558,0.06357930,-0.01131108,0.00778432,0.49553567,-0.06076003,0.17053543,0.01867946,0.73950091,0.04771474,-0.02282891,7.80574570,8.66428588,8.50245762,-6.53796574,1.29229079,-0.67953229,0.17544409,0.21493853,0.73950091
0.20512841,0.06779486,-0.74766787,0.03503998,-2.21681544,0.00264833,1.59189001,0.78601690,0.90047640,0.57796911,0.44323654,-0.29485783,0.06961296,-0.01319904,0.00656515,0.49321476,-0.07740702,0.15153304,0.01915474,0.73851661,0.04600764,-0.02233345,7.70770455,8.54965713,8.48823801,-6.49142031,1.25374040,-0.66982420,0.18634095,0.21496099,0.73851661
0.20612904,0.06871134,-0.74708056,0.03550138,-2.21712744,0.00272882,1.59187850,0.78602468,0.90809160,0.57978661,0.45268804,-0.29980507,0.07395782,-0.01280453,0.00779546,0.47329624,-0.09378760,0.10818426,0.02031008,0.73657775,0.04446366,-0.02193876,7.68786554,8.49483385,8.38991717,-6.42693285,1.22676881,-0.67627929,0.17984179,0.21498404,0.73657775
0.20712966,0.06963813,-0.74650009,0.03596040,-2.21743351,0.00280444,1.59187832,0.78603014,0.91125530,0.58003933,0.45429939,-0.30205183,0.07474063,-0.00832580,0.00748879,0.43858943,-0.10696763,0.04464420,0.02166070,0.73377981,0.04309199,-0.02160917,7.72766974,8.48993332,8.39447353,-6.40267852,1.22524054,-0.71059195,0.18407742,0.21500659,0.73377981
0.20813029,0.07058813,-0.74590482,0.03643090,-2.21773588,0.00287901,1.59186696,0.78603785,0.92062132,0.58457731,0.46005587,-0.30078269,0.07506972,-0.00893923,0.00759057,0.39404010,-0.11105334,-0.03091635,0.01912274,0.73022542,0.04143795,-0.02129511,7.68168339,8.40679568,8.35338443,-6.42700556,1.22694541,-0.70948375,0.18546859,0.21502879,0.73022542
0.20913092,0.07153997,-0.74530585,0.03690202,-2.21804521,0.00296579,1.59183945,0.78605414,0.93040443,0.58768899,0.46182992,-0.30278989,0.07855523,-0.01494121,0.01085887,0.34221284,-0.10529279,-0.11310627,0.01041454,0.72593903,0.03913096,-0.02094362,7.62954766,8.34727176,8.36664119,-6.40335869,1.20601163,-0.66950668,0.16425857,0.21505152,0.72593903
0.21013154,0.07251954,-0.74472743,0.03738285,-2.21836320,0.00305408,1.59181417,0.78605684,0.94544119,0.58388671,0.46530928,-0.30866414,0.08167705,-0.01817100,0.00840992,0.28302987,-0.08807706,-0.19993044,-0.00441121,0.72091592,0.03625051,-0.02054063,7.49979803,8.37503972,8.34825671,-6.31722722,1.18735679,-0.64883473,0.18377371,0.21507488,0.72091592
0.21113217,0.07346818,-0.74412612,0.03787242,-2.21868299,0.00313685,1.59180461,0.78606944,0.94865945,0.58883685,0.47588454,-0.31171892,0.08156179,-0.01574625,0.00976669,0.21570014,-0.05705884,-0.29242586,-0.02423250,0.71514619,0.03314426,-0.02011531,7.53841227,8.27582635,8.22974108,-6.28002969,1.19146163,-0.66947417,0.17615259,0.21509829,0.71514619
0.21213279,0.07442635,-0.74353128,0.03836812,-2.21900140,0.00321993,1.59180267,0.78607978,0.94812675,0.59166496,0.47903970,-0.31409118,0.08177319,-0.01130546,0.01032840,0.14296155,-0.01706379,-0.38971975,-0.04667997,0.70883231,0.03006700,-0.01966132,7.62686121,8.23114183,8.20702617,-6.25351122,1.19349119,-0.70340512,0.17408412,0.21512153,0.70883231
0.21313342,0.07541060,-0.74291374,0.03886399,-2.21932592,0.00330119,1.59179223,0.78608937,0.95586888,0.59944389,0.48313685,-0.31669648,0.08046872,-0.01100443,0.01033774,0.07063183,0.02318970,-0.48556726,-0.06890846,0.70241304,0.02708314,-0.01915308,7.60193478,8.09729526,8.19058546,-6.22213384,1.20633265,-0.70883305,0.17607742,0.21514521,0.70241304
0.21413405,0.07638306,-0.74230334,0.03934907,-2.21965558,0.00338935,1.59177080,0.78609518,0.96019369,0.60102778,0.48595964,-0.31988457,0.08209007,-0.01462067,0.00836631,0.00227919,0.05767182,-0.57522840,-0.08846156,0.69626224,0.02422397,-0.01859256,7.62195723,8.06000708,8.17662320,-6.17873805,1.19822598,-0.68535933,0.19203138,0.21516932,0.69626224
0.21513467,0.07738298,-0.74169268,0.03983986,-2.21998005,0.00347980,1.59175102,0.78610311,0.97124202,0.60464774,0.48372964,-0.32319112,0.08501316,-0.01715344,0.00810971,-0.06005154,0.08661980,-0.65495993,-0.10493836,0.69067190,0.02149480,-0.01797605,7.54885029,7.99574311,8.24651178,-6.13318482,1.18119983,-0.66946949,0.19592808,0.21519296,0.69067190
0.21613530,0.07834857,-0.74108209,0.04032112,-2.22031719,0.00357067,1.59174307,0.78611811,0.97122355,0.60604272,0.48459020,-0.32720573,0.08644687,-0.01358912,0.01099454,-0.11340917,0.11300854,-0.71921203,-0.11923824,0.68592384,0.01888238,-0.01726719,7.62929435,7.97111984,8.25515662,-6.07899308,1.17432515,-0.69645636,0.17736573,0.21521758,0.71921203
0.21713593,0.07931580,-0.74045346,0.04080504,-2.22064916,0.00365823,1.59174239,0.78613073,0.96581794,0.61202829,0.48285371,-0.32904614,0.08669501,-0.00860715,0.01233482,-0.15212112,0.13698683,-0.76075430,-0.13186993,0.68236630,0.01631703,-0.01643144,7.78552927,7.89374139,8.30223781,-6.06130648,1.17609017,-0.73355573,0.16968714,0.21524174,0.76075430
0.21813655,0.08031780,-0.73983616,0.04130021,-2.22098746,0.00374267,1.59173213,0.78613113,0.97383403,0.61418924,0.48300539,-0.33035927,0.08651435,-0.00822201,0.00883577,-0.17156032,0.15757001,-0.77473662,-0.14370133,0.68017785,0.01358263,-0.01549615,7.75278397,7.85009298,8.33010944,-6.04094581,1.18096793,-0.73817320,0.19662315,0.21526632,0.77473662
0.21913718,0.08131554,-0.73920965,0.04178633,-2.22132549,0.00384166,1.59170477,0.78614916,0.98402229,0.61765490,0.48733977,-0.33233716,0.08985122,-0.01342058,0.01207960,-0.17482834,0.17652527,-0.76662255,-0.15620131,0.67900213,0.01049388,-0.01451844,7.69109918,7.77140695,8.30436178,-6.00987192,1.16033898,-0.70351282,0.17556741,0.21529091,0.76662255
0.22013781,0.08231794,-0.73856921,0.04228242,-2.22166181,0.00393814,1.59168467,0.78615478,0.98797107,0.62305590,0.48934893,-0.33512458,0.09176307,-0.01591998,0.01038375,-0.16775778,0.19387339,-0.74617948,-0.16892936,0.67835523,0.00717358,-0.01352592,7.71543382,7.67606162,8.30656727,-5.97171045,1.14987597,-0.68783268,0.18964693,0.21531528,0.74617948
0.22113843,0.08330605,-0.73793870,0.04277748,-2.22201386,0.00402815,1.59167460,0.78616876,0.99128173,0.62719435,0.49246390,-0.33915154,0.09181905,-0.01391048,0.01083108,-0.15204530,0.20571458,-0.71751507,-0.17935260,0.67807325,0.00398029,-0.01254964,7.74936100,7.59722081,8.28990651,-5.91360167,1.15264458,-0.70415575,0.18830023,0.21534083,0.71751507
0.22213906,0.08428908,-0.73729833,0.04327203,-2.22237036,0.00411147,1.59167616,0.78617531,0.98582783,0.62965816,0.49243099,-0.34383873,0.08924635,-0.00866522,0.00919091,-0.12535666,0.21035778,-0.67870860,-0.18589542,0.67828942,0.00117147,-0.01162771,7.90283826,7.56049138,8.30323386,-5.84845078,1.17416324,-0.74280180,0.20179869,0.21536666,0.67870860
0.22313969,0.08531113,-0.73666758,0.04375895,-2.22271710,0.00419794,1.59166827,0.78618212,0.99595386,0.63070873,0.48883530,-0.34415992,0.08815469,-0.00829410,0.00747497,-0.08471229,0.21181576,-0.62504991,-0.19041454,0.67921375,-0.00139799,-0.01077390,7.83901255,7.53704413,8.38474313,-5.83763601,1.18546855,-0.74659004,0.21592232,0.21539173,0.67921375
0.22414031,0.08630417,-0.73603037,0.04425119,-2.22307942,0.00429820,1.59164556,0.78619418,0.99903375,0.63254601,0.49309383,-0.34914099,0.09115371,-0.01283398,0.00849212,-0.03150996,0.21613500,-0.55694041,-0.19587468,0.68083447,-0.00402635,-0.00997434,7.87408501,7.48513155,8.34588949,-5.76152106,1.16696998,-0.71615964,0.21069200,0.21541799,0.68083447
0.22514094,0.08731113,-0.73539408,0.04473024,-2.22343978,0.00439711,1.59162774,0.78620864,0.99991294,0.63510771,0.48676059,-0.35409138,0.09433593,-0.01440506,0.00991743,0.03242084,0.22424199,-0.47631611,-0.20136539,0.68320184,-0.00665302,-0.00917859,7.93903926,7.45194732,8.45818561,-5.68885490,1.14771816,-0.70557397,0.20237540,0.21544410,0.68320184
0.22614156,0.08833129,-0.73473957,0.04520941,-2.22379718,0.00449366,1.59161937,0.78621784,1.00468667,0.64069656,0.48347083,-0.35542770,0.09527645,-0.01256653,0.00945289,0.10863060,0.23234270,-0.37934585,-0.20443350,0.68652712,-0.00911005,-0.00833272,7.95089718,7.36441814,8.53805564,-5.66699919,1.14430276,-0.71982989,0.20762534,0.21546993,0.68652712
0.22714219,0.08934264,-0.73408015,0.04569925,-2.22415958,0.00458607,1.59160439,0.78622983,1.00956924,0.64474577,0.48785291,-0.35745935,0.09485357,-0.01298783,0.01052465,0.19544568,0.23685591,-0.26742734,-0.20446738,0.69066625,-0.01141317,-0.00743949,7.96062972,7.27811306,8.50382394,-5.63184506,1.15025015,-0.71852135,0.20204299,0.21549606,0.69066625
0.22814282,0.09039349,-0.73341673,0.04620058,-2.22451487,0.00468544,1.59157817,0.78624264,1.02305222,0.65133793,0.49126463,-0.35729767,0.09572514,-0.01747422,0.01082917,0.28525844,0.23579209,-0.15236748,-0.20157544,0.69505836,-0.01359691,-0.00655246,7.85035586,7.14651560,8.49821688,-5.62583888,1.14696290,-0.68854805,0.20190004,0.21552158,0.69505836
0.22914344,0.09143745,-0.73276132,0.04669420,-2.22487950,0.00478720,1.59154393,0.78625180,1.03353424,0.65260552,0.49534993,-0.35981195,0.09716079,-0.02275959,0.01043989,0.36906441,0.22995860,-0.04695348,-0.19642699,0.69908687,-0.01561910,-0.00573605,7.77885160,7.09177721,8.46877843,-5.57802718,1.13939663,-0.65202543,0.20673585,0.21554782,0.69908687
0.23014407,0.09250002,-0.73209891,0.04719782,-2.22524469,0.00488127,1.59152593,0.78626099,1.04153924,0.65422767,0.49783679,-0.36151303,0.09704819,-0.02177544,0.01109366,0.44122520,0.22456600,0.04209176,-0.19100655,0.70236012,-0.01738941,-0.00503158,7.73966550,7.03999180,8.45846273,-5.54300293,1.14313272,-0.65982243,0.20421631,0.21557399,0.70236012
0.23114470,0.09358211,-0.73144100,0.04772291,-2.22562337,0.00497755,1.59151778,0.78626605,1.05351392,0.65604403,0.50851588,-0.36664446,0.09703820,-0.01714691,0.00929311,0.49774577,0.22428912,0.10971696,-0.18656895,0.70462318,-0.01875450,-0.00445136,7.64427095,6.95508641,8.33506530,-5.45548544,1.14565226,-0.69487910,0.21922404,0.21560108,0.70462318
0.23214532,0.09465848,-0.73077318,0.04823228,-2.22599760,0.00508014,1.59150850,0.78628129,1.06444258,0.65845643,0.50968774,-0.36645609,0.09840597,-0.01504018,0.01026694,0.53451792,0.23053482,0.15067473,-0.18337931,0.70564977,-0.01967761,-0.00397620,7.56429572,6.89183929,8.34780859,-5.44459435,1.13870920,-0.71079690,0.21418408,0.21562784,0.70564977
0.23314595,0.09575351,-0.73010260,0.04875344,-2.22636557,0.00518871,1.59149125,0.78629378,1.07297350,0.66362719,0.51337256,-0.36739575,0.10188072,-0.01577900,0.01115818,0.55119980,0.24239176,0.16666963,-0.18224375,0.70543604,-0.02043124,-0.00353557,7.51635541,6.78292706,8.32576405,-5.42065227,1.11659976,-0.70692067,0.20989927,0.21565405,0.70543604
0.23414658,0.09686846,-0.72940428,0.04927236,-2.22673899,0.00530334,1.59147043,0.78630654,1.08367679,0.67075697,0.51800436,-0.36886727,0.10535007,-0.01841193,0.01168749,0.54936510,0.25384829,0.16176038,-0.18161799,0.70411376,-0.02120032,-0.00305306,7.43799525,6.63470715,8.29765694,-5.38840467,1.09421345,-0.69004761,0.20820240,0.21568066,0.70411376
0.23514720,0.09797974,-0.72872441,0.04980082,-2.22711196,0.00541711,1.59145366,0.78632453,1.09583859,0.67400614,0.51794361,-0.37149763,0.10738734,-0.01838416,0.01392357,0.52974947,0.25858098,0.13847393,-0.17853479,0.70175962,-0.02194250,-0.00248878,7.33827335,6.55389871,8.32901662,-5.33679914,1.08201983,-0.69105990,0.19423378,0.21570714,0.70175962
0.23614783,0.09911598,-0.72804443,0.05034026,-2.22749635,0.00553175,1.59143361,0.78633804,1.10579926,0.67790557,0.52411206,-0.37489158,0.10979013,-0.01947321,0.01410280,0.49306875,0.25593024,0.09947519,-0.17189996,0.69839840,-0.02262063,-0.00184414,7.26584246,6.44873579,8.26827981,-5.27323260,1.06689620,-0.68476840,0.19493548,0.21573441,0.69839840
0.23714845,0.10022664,-0.72736053,0.05088032,-2.22787208,0.00564665,1.59140901,0.78635544,1.10897618,0.67853697,0.53133049,-0.37477781,0.11087338,-0.02097997,0.01487810,0.44018151,0.24992467,0.04527227,-0.16311207,0.69399365,-0.02333173,-0.00116105,7.28579376,6.40215883,8.17469637,-5.25946279,1.06087023,-0.67439282,0.19114005,0.21576096,0.69399365
0.23814908,0.10135467,-0.72668568,0.05142284,-2.22825521,0.00576538,1.59137965,0.78637299,1.11226406,0.67733212,0.53103196,-0.37957917,0.11366257,-0.02383825,0.01565676,0.37488195,0.24807978,-0.02024461,-0.15545879,0.68866629,-0.02426031,-0.00048462,7.30205181,6.39634393,8.18448083,-5.17519776,1.04292236,-0.65352213,0.18726255,0.21578804,0.68866629
0.23914971,0.10248289,-0.72599188,0.05196225,-2.22864145,0.00588026,1.59135428,0.78638225,1.11699676,0.68230145,0.53501823,-0.38128623,0.11310404,-0.02515681,0.01396306,0.30322615,0.25355802,-0.08905085,-0.14969018,0.68277672,-0.02532942,0.00015701,7.30180052,6.28857484,8.14878651,-5.13704163,1.04859353,-0.64464238,0.20121178,0.21581531,0.68277672
0.24015033,0.10362733,-0.72528956,0.05251620,-2.22903175,0.00600196,1.59133355,0.78640014,1.12269460,0.68622317,0.54073005,-0.38336007,0.11503044,-0.02450787,0.01557339,0.22855821,0.26161906,-0.15814164,-0.14359450,0.67658695,-0.02625988,0.00076433,7.28612588,6.18810932,8.08572021,-5.09143342,1.03641780,-0.64985788,0.19161871,0.21584279,0.67658695
0.24115096,0.10476370,-0.72459039,0.05306592,-2.22940846,0.00611295,1.59131108,0.78641392,1.12268846,0.69239420,0.53910530,-0.38138840,0.11417926,-0.02340189,0.01437189,0.15412194,0.26706457,-0.22504843,-0.13635439,0.67032731,-0.02697203,0.00137759,7.35019032,6.08929264,8.12420237,-5.10887090,1.04464990,-0.65691775,0.20177078,0.21586917,0.67032731
0.24215159,0.10588734,-0.72386910,0.05360220,-2.22980275,0.00622608,1.59129513,0.78642773,1.12306425,0.69672640,0.53873917,-0.38602965,0.11343924,-0.02087785,0.01454294,0.08681624,0.26604077,-0.28112282,-0.12765127,0.66448112,-0.02749061,0.00205446,7.40964495,6.00130373,8.14348886,-5.02961868,1.05177803,-0.67459799,0.20235856,0.21589691,0.66448112
0.24315221,0.10702975,-0.72317611,0.05414807,-2.23018891,0.00633905,1.59128585,0.78644851,1.12584503,0.69937541,0.54093730,-0.38522064,0.11329063,-0.01685373,0.01646860,0.03197911,0.25772135,-0.32037829,-0.11721224,0.65946659,-0.02785987,0.00283348,7.43271929,5.93835317,8.12344386,-5.02448947,1.05471966,-0.70280721,0.19030501,0.21592394,0.65946659
0.24415284,0.10818775,-0.72245800,0.05469723,-2.23058353,0.00646117,1.59126853,0.78645664,1.13199482,0.70018515,0.53941301,-0.38759510,0.11573176,-0.01742044,0.01450775,-0.00940690,0.24736230,-0.34285524,-0.10750741,0.65538584,-0.02836398,0.00369812,7.40765451,5.89833396,8.15670759,-4.97054495,1.03914472,-0.69817975,0.20610871,0.21595156,0.65538584
0.24515347,0.10931031,-0.72174340,0.05524119,-2.23097580,0.00658480,1.59124678,0.78647962,1.13157330,0.70456392,0.53975129,-0.38641470,0.11792217,-0.01923370,0.01608666,-0.03666786,0.23974265,-0.34828063,-0.10112804,0.65231345,-0.02932360,0.00461269,7.47687930,5.81631317,8.16171850,-4.97155150,1.02524228,-0.68458775,0.19634729,0.21597898,0.65231345
0.24615409,0.11044210,-0.72102457,0.05580428,-2.23136224,0.00670980,1.59122678,0.78649328,1.12808335,0.71255716,0.54664773,-0.38730808,0.12019617,-0.01951861,0.01498797,-0.04817528,0.23124013,-0.33721558,-0.09708149,0.65037069,-0.03080313,0.00555552,7.58864183,5.66528157,8.07480166,-4.94713702,1.01037427,-0.68293797,0.20587328,0.21600581,0.65037069
0.24715472,0.11156428,-0.72028479,0.05634233,-2.23176124,0.00683766,1.59120506,0.78650625,1.12862563,0.72099780,0.54574959,-0.38979429,0.12210269,-0.01978600,0.01490036,-0.04257430,0.21127541,-0.31184642,-0.09068045,0.64962802,-0.03253943,0.00649654,7.64753966,5.51733941,8.10899082,-4.89827114,0.99831975,-0.68072406,0.20835254,0.21603368,0.64962802
0.24815534,0.11270314,-0.71955128,0.05689333,-2.23215605,0.00695467,1.59118724,0.78651340,1.13057940,0.72381701,0.54447069,-0.39256505,0.12060344,-0.01885880,0.01268936,-0.01851815,0.17379478,-0.27133133,-0.07824799,0.65009754,-0.03422145,0.00740814,7.68190782,5.45052852,8.13600190,-4.84024857,1.01053610,-0.68627201,0.22593416,0.21606109,0.65009754
0.24915597,0.11386113,-0.71883319,0.05744107,-2.23256325,0.00707236,1.59116461,0.78652251,1.13681078,0.72353162,0.54545453,-0.39556015,0.11855014,-0.02097799,0.01106825,0.02322504,0.12535418,-0.21566855,-0.06149520,0.65156613,-0.03582052,0.00826494,7.65379144,5.41709042,8.12938602,-4.77235758,1.02641192,-0.67026892,0.23933406,0.21608942,0.65156613
0.25015660,0.11500798,-0.71810485,0.05795677,-2.23296486,0.00717886,1.59114485,0.78653805,1.14216776,0.72403407,0.53661657,-0.39670388,0.11383569,-0.02120668,0.01216962,0.08069203,0.07812863,-0.14528396,-0.04515324,0.65376082,-0.03750186,0.00907240,7.63961542,5.40172686,8.26708451,-4.73298763,1.06201303,-0.66627341,0.23324396,0.21611741,0.65376082
0.25115722,0.11618465,-0.71738001,0.05850734,-2.23337312,0.00728033,1.59113225,0.78655226,1.15232389,0.72624660,0.54020020,-0.40145028,0.11004710,-0.01836250,0.01245182,0.15142261,0.03885010,-0.06072422,-0.03180335,0.65653854,-0.03932471,0.00986818,7.55775344,5.31567934,8.23451025,-4.63979263,1.09075356,-0.68629475,0.23317322,0.21614566,0.65653854
0.25215785,0.11734275,-0.71664240,0.05907167,-2.23378110,0.00738677,1.59111392,0.78656499,1.15946385,0.72780703,0.55268095,-0.40282883,0.10878315,-0.01833275,0.01209511,0.22698359,0.00832494,0.02540780,-0.02089991,0.65952686,-0.04115612,0.01064337,7.51708476,5.22134028,8.06605959,-4.59258714,1.10111419,-0.68686272,0.23767148,0.21617377,0.65952686
0.25315848,0.11852427,-0.71589654,0.05962359,-2.23418754,0.00749553,1.59109174,0.78658798,1.16539868,0.73072419,0.55141454,-0.40121878,0.10854385,-0.01972827,0.01496902,0.29868552,-0.01285983,0.09911925,-0.01329348,0.66231363,-0.04306986,0.01137452,7.49183700,5.14956512,8.09628867,-4.59025093,1.10494256,-0.67539659,0.21889159,0.21620178,0.66231363
0.25415910,0.11973635,-0.71517080,0.06019694,-2.23459226,0.00760685,1.59106824,0.78660111,1.17958070,0.73051023,0.55820068,-0.40307162,0.11022111,-0.02102318,0.01431010,0.36249711,-0.02259062,0.15662335,-0.01162362,0.66470169,-0.04529257,0.01205196,7.34910358,5.08543850,8.01360193,-4.53190298,1.09470056,-0.66578652,0.22550506,0.21622950,0.66470169
0.25515973,0.12093602,-0.71442858,0.06078653,-2.23500414,0.00772225,1.59105168,0.78661828,1.19130629,0.73373021,0.57321306,-0.40413125,0.11264366,-0.01988702,0.01508860,0.41105887,-0.01979426,0.18893341,-0.01650391,0.66623425,-0.04775642,0.01262420,7.24257126,4.95033397,7.81572059,-4.48638241,1.07867150,-0.67478941,0.22193942,0.21625762,0.66623425
0.25616036,0.12214891,-0.71369815,0.06135892,-2.23541399,0.00783433,1.59104358,0.78663781,1.19689177,0.73488441,0.57193180,-0.40622836,0.11325223,-0.01625866,0.01619082,0.43894658,-0.00647036,0.18889534,-0.02661264,0.66650073,-0.05026915,0.01306245,7.21753893,4.90165710,7.83901660,-4.42937152,1.07625581,-0.69896487,0.21572601,0.21628561,0.66650073
0.25716098,0.12336791,-0.71294867,0.06193712,-2.23582432,0.00794269,1.59103983,0.78665050,1.20842495,0.73932722,0.57328379,-0.40609184,0.11184218,-0.01363116,0.01548537,0.44934915,0.01383513,0.16469772,-0.04084330,0.66556725,-0.05283415,0.01340675,7.11299318,4.78789661,7.83996933,-4.40265172,1.08813672,-0.71719049,0.22263709,0.21631352,0.66556725
0.25816161,0.12461316,-0.71218782,0.06252220,-2.23624329,0.00805124,1.59103488,0.78666539,1.21904736,0.74437318,0.58152241,-0.40892996,0.11104501,-0.01044197,0.01579593,0.44412068,0.03555838,0.12247189,-0.05709757,0.66343646,-0.05547397,0.01370028,7.01822030,4.64081298,7.74194310,-4.33292145,1.09528364,-0.74037955,0.22241565,0.21634200,0.66343646
0.25916224,0.12587869,-0.71142810,0.06310602,-2.23665633,0.00815484,1.59102640,0.78667387,1.23191000,0.75202591,0.58051143,-0.41134480,0.10966230,-0.00967971,0.01337922,0.42181524,0.05001261,0.06193677,-0.07081919,0.66002353,-0.05803843,0.01398440,6.89315364,4.47864698,7.78573981,-4.27140633,1.10731116,-0.74556605,0.24157394,0.21636996,0.66002353
0.26016286,0.12711671,-0.71065717,0.06369071,-2.23707987,0.00826064,1.59101166,0.78669360,1.23452846,0.75718328,0.58269429,-0.41407099,0.10850514,-0.01086390,0.01519630,0.38478974,0.04949618,-0.01140698,-0.07770307,0.65559621,-0.06038448,0.01433568,6.90726349,4.35799111,7.76181120,-4.20582880,1.11733781,-0.73626119,0.23040870,0.21639866,0.65559621
0.26116349,0.12837411,-0.70989625,0.06429046,-2.23749405,0.00836880,1.59099411,0.78671116,1.23910309,0.76009878,0.58792651,-0.41437805,0.10830035,-0.01322468,0.01579592,0.33734268,0.03378080,-0.09082740,-0.07751564,0.65053942,-0.06257561,0.01482134,6.89065718,4.26225806,7.68900600,-4.17136241,1.12039074,-0.71851095,0.22788514,0.21642651,0.65053942
0.26216411,0.12963142,-0.70912452,0.06489764,-2.23791098,0.00848127,1.59097352,0.78672165,1.23993452,0.76288046,0.59599825,-0.41454152,0.10872421,-0.01479395,0.01395394,0.28132522,0.00949615,-0.17544110,-0.07383913,0.64500463,-0.06481841,0.01542302,6.92426117,4.16503384,7.56849878,-4.13941393,1.11864134,-0.70621332,0.24278272,0.21645447,0.64500463
0.26316474,0.13087001,-0.70834821,0.06550524,-2.23833882,0.00859072,1.59095654,0.78673746,1.24075145,0.76506646,0.59836555,-0.41716593,0.10886189,-0.01597103,0.01499355,0.21875953,-0.01724118,-0.26459029,-0.06970355,0.63912513,-0.06717861,0.01609052,6.95974037,4.08882936,7.52801311,-4.07150091,1.11927008,-0.69610686,0.23719405,0.21648318,0.63912513
0.26416537,0.13212753,-0.70758089,0.06609871,-2.23876424,0.00869473,1.59094260,0.78674841,1.24286252,0.76754615,0.59064352,-0.42033041,0.10683373,-0.01514222,0.01401454,0.15603352,-0.04409829,-0.34927551,-0.06543918,0.63332945,-0.06948732,0.01681597,6.97646005,4.03644163,7.63622457,-3.99675462,1.13588567,-0.69888446,0.24589274,0.21651171,0.63332945
0.26516599,0.13337386,-0.70680830,0.06668718,-2.23919473,0.00879621,1.59093647,0.78676481,1.24529655,0.76644738,0.59165306,-0.42257591,0.10491078,-0.01219772,0.01467118,0.10038723,-0.06827762,-0.41800537,-0.06152833,0.62809183,-0.07162981,0.01759409,6.98657492,4.01090008,7.61121729,-3.92977847,1.15134148,-0.71739776,0.24290899,0.21654057,0.62809183
0.26616662,0.13464651,-0.70603389,0.06728181,-2.23962531,0.00890045,1.59092534,0.78677441,1.25018759,0.76583121,0.59220241,-0.42652340,0.10519564,-0.01166600,0.01322259,0.05376235,-0.08406648,-0.46882646,-0.05967039,0.62358399,-0.07364745,0.01838876,6.96091139,3.97209984,7.59659698,-3.83763685,1.15117316,-0.71899484,0.25505245,0.21656935,0.62358399
0.26716725,0.13590030,-0.70526486,0.06786839,-2.24006680,0.00900480,1.59090788,0.78678802,1.24549346,0.76795807,0.58372747,-0.43052438,0.10479186,-0.01229287,0.01300477,0.01854194,-0.08991483,-0.49977519,-0.05922719,0.62013352,-0.07552872,0.01919240,7.06885805,3.93607481,7.70412133,-3.75058465,1.15633276,-0.71065266,0.25819387,0.21659894,0.62013352
0.26816787,0.13713489,-0.70447533,0.06844679,-2.24049636,0.00911796,1.59088854,0.78680238,1.24348243,0.77415088,0.58163423,-0.42924671,0.10747609,-0.01389164,0.01353740,0.00160205,-0.09205798,-0.50223250,-0.05739791,0.61836269,-0.07728038,0.02006435,7.14440859,3.82190135,7.73441963,-3.73963946,1.13928344,-0.69649733,0.25615895,0.21662763,0.61836269
0.26916850,0.13838436,-0.70368957,0.06904282,-2.24092882,0.00923546,1.59086674,0.78682443,1.24210982,0.78071275,0.58546088,-0.43061928,0.11107985,-0.01705567,0.01631709,0.00561986,-0.09965170,-0.47569057,-0.05146570,0.61847223,-0.07893667,0.02105425,7.20943548,3.67988776,7.67940315,-3.68997860,1.11517002,-0.67226715,0.23810680,0.21665638,0.61847223
0.27016913,0.13961956,-0.70288811,0.06963451,-2.24135924,0.00935672,1.59083809,0.78683036,1.23456196,0.78722766,0.58967507,-0.43040071,0.11493985,-0.02035748,0.01301013,0.02861283,-0.12025733,-0.42822628,-0.03871181,0.62020753,-0.08037083,0.02213774,7.35890573,3.54796521,7.60927790,-3.66492820,1.08904790,-0.64620255,0.26337607,0.21668495,0.62020753
0.27116975,0.14085661,-0.70208375,0.07021466,-2.24180034,0.00946851,1.59081008,0.78685487,1.23863941,0.79156453,0.58510805,-0.43256786,0.11395514,-0.02347931,0.01667009,0.06988127,-0.15678858,-0.36398340,-0.01764221,0.62326141,-0.08137734,0.02326896,7.34980361,3.44970354,7.67833796,-3.59867501,1.09771683,-0.62072606,0.23900309,0.21671430,0.62326141
0.27217038,0.14213486,-0.70129216,0.07078908,-2.24223354,0.00956709,1.59078709,0.78686788,1.24858136,0.79424360,0.58021246,-0.43316476,0.10897786,-0.02305202,0.01618947,0.12821185,-0.20594608,-0.28302058,0.01068951,0.62724191,-0.08180695,0.02442115,7.25583156,3.37150926,7.75744043,-3.55111569,1.13502709,-0.62016075,0.24422098,0.21674300,0.62724191
0.27317100,0.14339684,-0.70048816,0.07139029,-2.24266683,0.00965943,1.59076994,0.78687927,1.25667399,0.79637195,0.58730803,-0.43218412,0.10272668,-0.02041603,0.01461467,0.19774094,-0.25981912,-0.19124485,0.04250638,0.63154362,-0.08170658,0.02552365,7.18695228,3.27009226,7.65698814,-3.52419945,1.18088930,-0.63653464,0.25725418,0.21677144,0.63154362
0.27417163,0.14467881,-0.69969884,0.07199688,-2.24309830,0.00974420,1.59074611,0.78689106,1.26274949,0.79712529,0.59458571,-0.43433101,0.09673158,-0.02103336,0.01382865,0.26928628,-0.31041699,-0.10223625,0.07394034,0.63559405,-0.08120856,0.02648016,7.14185405,3.18786394,7.54623970,-3.45255498,1.22516571,-0.62967576,0.26473166,0.21679964,0.63559405
0.27517226,0.14599364,-0.69889810,0.07259212,-2.24353806,0.00983515,1.59072115,0.78691153,1.27773783,0.79750853,0.59215375,-0.43428065,0.09520778,-0.02232853,0.01599989,0.33583712,-0.35185442,-0.02525139,0.10271030,0.63921881,-0.08039664,0.02725958,6.97310332,3.12595218,7.58809582,-3.40706953,1.23841981,-0.61698046,0.25107260,0.21682847,0.63921881
0.27617288,0.14727976,-0.69808697,0.07320478,-2.24397923,0.00994226,1.59070076,0.78691819,1.28418936,0.80035562,0.60136073,-0.43475578,0.09829291,-0.02130364,0.01272409,0.39305476,-0.38132762,0.03651266,0.12721143,0.64249067,-0.07940963,0.02786472,6.92364784,3.00563671,7.45443413,-3.35847126,1.21795621,-0.62216839,0.27627181,0.21685725,0.64249067
0.27717351,0.14858306,-0.69730473,0.07383429,-2.24441085,0.01005916,1.59067589,0.78693327,1.28960128,0.79620402,0.61388783,-0.43422065,0.10527829,-0.02220971,0.01395658,0.43596143,-0.39577898,0.07632111,0.14516939,0.64530686,-0.07847529,0.02828428,6.88032144,2.98414953,7.25077843,-3.31843829,1.16931894,-0.61287776,0.26941559,0.21688517,0.64530686
0.27817414,0.14989204,-0.69651367,0.07442810,-2.24485946,0.01017151,1.59066168,0.78694589,1.29953756,0.79365847,0.60905878,-0.43830170,0.10880807,-0.01944746,0.01294717,0.46220375,-0.38879931,0.09162501,0.15361290,0.64747583,-0.07783819,0.02853725,6.77770911,2.97589810,7.31148833,-3.21284087,1.14604463,-0.62816823,0.27830072,0.21691450,0.64747583
0.27917476,0.15123409,-0.69571259,0.07504054,-2.24528944,0.01027807,1.59064910,0.78696173,1.31222378,0.79444907,0.61021652,-0.43613633,0.10875299,-0.01648543,0.01428997,0.47385961,-0.35826360,0.09003205,0.15140828,0.64886420,-0.07771048,0.02868163,6.63606761,2.90366750,7.29586679,-3.19716287,1.14800363,-0.64577440,0.27065312,0.21694223,0.64886420
0.28017539,0.15257482,-0.69489898,0.07567221,-2.24573376,0.01038435,1.59062973,0.78697709,1.31938753,0.79857581,0.61808490,-0.43633718,0.10810832,-0.01809208,0.01461826,0.47120076,-0.31051503,0.07480945,0.14003686,0.64914280,-0.07826896,0.02877267,6.57080957,2.76513687,7.18142289,-3.15055158,1.15366094,-0.63223936,0.27019853,0.21697082,0.64914280
0.28117602,0.15390558,-0.69407829,0.07626423,-2.24616203,0.01048510,1.59060456,0.78699082,1.32663429,0.80847798,0.61135705,-0.43242230,0.10531155,-0.02028251,0.01380766,0.45528706,-0.25960975,0.04791253,0.12387721,0.64812933,-0.07953134,0.02886667,6.51019091,2.59180969,7.29552837,-3.16907176,1.17575102,-0.61259225,0.27768135,0.21699840,0.64812933
0.28217664,0.15525979,-0.69324820,0.07687905,-2.24659012,0.01058751,1.59057965,0.78700367,1.33432698,0.81553307,0.61187504,-0.43079166,0.10454653,-0.02179323,0.01352441,0.43120974,-0.22125197,0.01810526,0.10777352,0.64603987,-0.08140835,0.02902510,6.43848194,2.43223955,7.29638139,-3.15178703,1.18295394,-0.59851084,0.28158055,0.21702575,0.64603987
0.28317727,0.15659377,-0.69243664,0.07751602,-2.24703235,0.01069353,1.59055726,0.78701580,1.33684256,0.81695545,0.61980655,-0.43310501,0.10423556,-0.02262272,0.01367252,0.40070061,-0.20117318,-0.01234208,0.09400235,0.64302741,-0.08369247,0.02927351,6.43351079,2.33758247,7.16542240,-3.07386991,1.18609262,-0.58947758,0.28245900,0.21705392,0.64302741
