sakibchowdhury131/FrankaEmikaControl_lowerLevel/joint_traces.csv
t,q0,q1,q2,q3,q4,q5,q6,dq0,dq1,dq2,dq3,dq4,dq5,dq6,ddq0,ddq1,ddq2,ddq3,ddq4,ddq5,ddq6
0.000000000000000000e+00,0.000000000000000000e+00,-1.562000000000000055e+00,0.000000000000000000e+00,-2.700000000000000178e-01,0.000000000000000000e+00,3.140000000000000124e+00,0.000000000000000000e+00,0.000000000000000000e+00,0.000000000000000000e+00,-0.000000000000000000e+00,0.000000000000000000e+00,-0.000000000000000000e+00,-0.000000000000000000e+00,-0.000000000000000000e+00,0.000000000000000000e+00,0.000000000000000000e+00,-0.000000000000000000e+00,0.000000000000000000e+00,-0.000000000000000000e+00,-0.000000000000000000e+00,-0.000000000000000000e+00
1.000000000000000021e-02,1.559983509866061435e-14,-1.561998594678230434e+00,-1.893208312875893247e-14,-2.699999154439368665e-01,-6.522032171072026709e-14,3.139998665282543122e+00,-8.891951551284465309e-14,4.671764557916641184e-12,4.208590920277664195e-04,-5.669690378718264561e-12,2.532244837712192918e-05,-1.953187232410071592e-11,-3.997148476328696710e-04,-2.662919437627218162e-11,9.310808146824808961e-10,8.387704932769300681e-02,-1.129967033092214110e-09,5.046753870498977765e-03,-3.892694370691440640e-09,-7.966300984582636024e-02,-5.307187827387949538e-09
2.000000000000000042e-02,1.241447197634693826e-13,-1.561988816338368169e+00,-1.506630127622490288e-13,-2.699993270961713598e-01,-5.190284711635102564e-13,3.139989378213065230e+00,-7.076285271626593107e-13,1.855640353280964399e-11,1.671666250578729028e-03,-2.252019794004818655e-11,1.005816035245926112e-04,-7.758124368299909504e-11,-1.587680611635694300e-03,-1.057720419070290250e-10,1.842597801112968979e-09,1.659916778628466039e-01,-2.236191249645598493e-09,9.987465575381868077e-03,-7.703595622133961042e-09,-1.576521441074027752e-01,-1.050286126255690222e-08
2.999999999999999889e-02,4.167874985233598774e-13,-1.561962453414331486e+00,-5.058166012119720843e-13,-2.699977408793219902e-01,-1.742519364261343150e-12,3.139964339780097813e+00,-2.375700910049337471e-12,4.145896617368999149e-11,3.734859204473717133e-03,-5.031492891229950739e-11,2.247207704256147737e-04,-1.733330573394388227e-10,-3.547217361168328829e-03,-2.363173176198797807e-10,2.734688465597646968e-09,2.463562729547056074e-01,-3.318839528399763542e-09,1.482288044252139808e-02,-1.143327864537414879e-08,-2.339791677852002538e-01,-1.558780409546671518e-08
4.000000000000000083e-02,9.827383837126850939e-13,-1.561911469343383541e+00,-1.192659067009508348e-12,-2.699946732456909859e-01,-4.108666094086960653e-12,3.139915917183231819e+00,-5.601637479046861297e-12,7.318587679263048569e-11,6.592999556026006916e-03,-8.881895831117807254e-11,3.966907073421183615e-04,-3.059780054666295067e-10,-6.261762815395338633e-03,-4.171616344420323270e-10,3.607490314442695930e-09,3.249832219525145005e-01,-4.378078748094315514e-09,1.955374379979028798e-02,-1.508231833145858814e-08,-3.086558458796896387e-01,-2.056280011607723231e-08
5.000000000000000278e-02,1.909278706101834483e-12,-1.561828001327396409e+00,-2.317115722780475782e-12,-2.699896511027314316e-01,-7.982377420007526663e-12,3.139836642656615773e+00,-1.088294436779927783e-11,1.135449347647657459e-10,1.022877278104132245e-02,-1.377990299397858017e-10,6.154496258147608076e-04,-4.747125291482466510e-10,-9.714872343485997722e-03,-6.472094432002928949e-10,4.461140853954300135e-09,4.018849122055183076e-01,-5.414075787468866249e-09,2.418080097506127013e-02,-1.865128957143387247e-08,-3.816939433913421609e-01,-2.542863311434831736e-08
5.999999999999999778e-02,3.281774665527852552e-12,-1.561704359094117311e+00,-3.982787663118492900e-12,-2.699822117385148879e-01,-1.372055525677929072e-11,3.139719212292457318e+00,-1.870621140771669656e-11,1.623453145282922718e-10,1.462498822881783817e-02,-1.970235563886207410e-10,8.799631906629265185e-04,-6.787388183784317210e-10,-1.389021896461429574e-02,-9.253730326210667701e-10,5.295777590438638477e-09,4.770737310629613592e-01,-6.426997525263020969e-09,2.870479729620706300e-02,-2.214076725634657861e-08,-4.531052253206284686e-01,-3.018608688023980596e-08
7.000000000000000666e-02,5.183691081525062309e-12,-1.561533023658431940e+00,-6.290968452459142646e-12,-2.699719027471980670e-01,-2.167215216365225849e-11,3.139556484864521657e+00,-2.954719050697127880e-11,2.193975655844683431e-10,1.976457912214617252e-02,-2.662626190355770507e-10,1.189204519984727714e-03,-9.172648120617920524e-10,-1.877159334795892517e-02,-1.250572529330357232e-09,6.111538030201897296e-09,5.505620658740887352e-01,-7.417010840216393582e-09,3.312647809110041280e-02,-2.555132627724330985e-08,-5.229014566680199039e-01,-3.483594520371157674e-08
8.000000000000000167e-02,7.696605143955665132e-12,-1.561306646083632010e+00,-9.340660812953915331e-12,-2.699582819544905088e-01,-3.217822883347478852e-11,3.139341480651632210e+00,-4.387087402949316345e-11,2.845136124976139422e-10,2.563060255730938153e-02,-3.452879680459447849e-10,1.542154185157002585e-03,-1.189504198013400206e-09,-2.434290381270328568e-02,-1.621735897853765503e-09,6.908559679550255073e-09,6.223623039881447383e-01,-8.384282611068586416e-09,3.744658868761401027e-02,-2.888354152517063308e-08,-5.910944024339871428e-01,-3.937899187472345210e-08
8.999999999999999667e-02,1.090022016364038790e-11,-1.561018046242677482e+00,-1.322859331234420022e-11,-2.699409173431214226e-01,-4.557201158179835785e-11,3.139067380261171269e+00,-6.213157317396654505e-11,3.575067548951108706e-10,3.220623950408296743e-02,-4.338730223724100207e-10,1.937800210835317026e-03,-1.494676412958794637e-09,-3.058817632803547543e-02,-2.037798940616491887e-09,7.686980044789894424e-09,6.924868327543743929e-01,-9.328979716559213379e-09,4.166587441362060162e-02,-3.213798789117514830e-08,-6.576958276190012498e-01,-4.381601068323529412e-08
1.000000000000000056e-01,1.487237932298908405e-11,-1.560660211579464329e+00,-1.804923705183522848e-11,-2.699193869783071409e-01,-6.217894983598216925e-11,3.138727523452577994e+00,-8.477299635282566299e-11,4.381916674674033429e-10,3.947479480573492377e-02,-5.317928697550557379e-10,2.375138074953966807e-03,-1.832006642533982078e-09,-3.749155451314836046e-02,-2.497705297943337212e-09,8.446936632227003755e-09,7.609480395220223903e-01,-1.025126903542788424e-08,4.578508059699293309e-02,-3.531524026630345217e-08,-7.227174972235334005e-01,-4.814778541920697814e-08
1.100000000000000006e-01,1.968907942663134842e-11,-1.560226295870087654e+00,-2.389482235397003508e-11,-2.698932789332182947e-01,-8.231677362429775043e-11,3.138315407960850401e+00,-1.122283275712506662e-10,5.263843999679966432e-10,4.741969717902563830e-02,-6.388242667213601120e-10,2.853170708725971498e-03,-2.200725821285432158e-09,-4.503729963723945851e-02,-3.000406448058698183e-09,9.188566948167757413e-09,8.277583116403333108e-01,-1.115131744641420464e-08,4.980495256560369538e-02,-3.841587354160211161e-08,-7.861711762480543264e-01,-5.237509987259833317e-08
1.199999999999999956e-01,2.542448465204712357e-11,-1.559709617984107899e+00,-3.085535545050338111e-11,-2.698621912144469337e-01,-1.062955510650336324e-10,3.137824688320044686e+00,-1.449203048061635783e-10,6.219023772134579005e-10,5.602449921420794843e-02,-7.547456385861973935e-10,3.370908496643077942e-03,-2.600070632670080920e-09,-5.320979061951097711e-02,-3.544861707086569035e-09,9.912008498918336359e-09,8.929300364585515126e-01,-1.202929182825777691e-08,5.372623564732560697e-02,-4.144046260811770343e-08,-8.480686296930346479e-01,-5.649873783336919483e-08
1.300000000000000044e-01,3.215094030019738284e-11,-1.559103660645815292e+00,-3.901863517027583851e-11,-2.698257316874738687e-01,-1.344177458556002087e-10,3.137249174686774555e+00,-1.832612983852246630e-10,7.245643990834167604e-10,6.527287737502718290e-02,-8.793370794518385802e-10,3.927369276475763289e-03,-3.029283509055331440e-09,-6.199352402916992466e-02,-4.130038229050546907e-09,1.061739879078493314e-08,9.564756013259225753e-01,-1.288535905969822653e-08,5.754967517003144878e-02,-4.438958235689686402e-08,-9.084216225589463178e-01,-6.051948309147945831e-08
1.400000000000000133e-01,3.993898654615465510e-11,-1.558402069195494954e+00,-4.847026962708758880e-11,-2.697835180021356805e-01,-1.669782747616340714e-10,3.136582831663711435e+00,-2.276533893658278849e-10,8.341906405205640414e-10,7.514863199872107158e-02,-1.012380352207950279e-09,4.521578339273229358e-03,-3.487612631719052587e-09,-7.137311408542793001e-02,-4.754911005873822745e-09,1.130487533007372043e-08,1.018407393591690413e+00,-1.371968601947514921e-08,6.127601646159389764e-02,-4.726380767898614373e-08,-9.672419198462596235e-01,-6.443811943688895921e-08
1.499999999999999944e-01,4.885737218973365615e-11,-1.557598650350692449e+00,-5.929369290757244311e-11,-2.697351775180922284e-01,-2.042645651061026828e-10,3.135819777123085572e+00,-2.784884479140969009e-10,9.506026515306522516e-10,8.563568729601978013e-02,-1.153658888531594915e-09,5.152568429363404805e-03,-3.974311930849575923e-09,-8.133329265750133263e-02,-5.418462867379188334e-09,1.197457562309088418e-08,1.078737800605100050e+00,-1.453243958632815720e-08,6.490600484988569285e-02,-5.006371346543212600e-08,-1.024541286555445518e+00,-6.825543065955752657e-08
1.600000000000000033e-01,5.897306840612208482e-11,-1.556687370967478667e+00,-7.157018175907196896e-11,-2.696803472302935489e-01,-2.465566122584097324e-10,3.134954281030183587e+00,-3.361482116838821229e-10,1.073623357182496623e-09,9.671809135114600720e-02,-1.302957788887232277e-09,5.819379744352949461e-03,-4.488641085545704797e-09,-9.185890926461129369e-02,-6.119684481289035467e-09,1.262663717614260699e-08,1.137479209715396289e+00,-1.532378663899686112e-08,6.844038566277955982e-02,-5.278987460728141413e-08,-1.080331487686975400e+00,-7.197220054944504893e-08
1.700000000000000122e-01,7.035128249651093453e-11,-1.555662356801714719e+00,-8.537887227750910637e-11,-2.696186736944473639e-01,-2.941270371234985940e-10,3.133980764266851349e+00,-4.010043641957548998e-10,1.203077057607973663e-09,1.083800161218148317e-01,-1.460063822526716735e-09,6.521059935127246528e-03,-5.029865523816704840e-09,-1.029349310759835878e-01,-6.857574353225353470e-09,1.326119749553506651e-08,1.194644008271823266e+00,-1.609389405622086327e-08,7.187990422814821700e-02,-5.544286599558057832e-08,-1.134624288241319556e+00,-7.558921289651133546e-08
1.799999999999999933e-01,8.305547163872530556e-11,-1.554517891270317032e+00,-1.007967765952624238e-10,-2.695498129524859787e-01,-3.472411436309578375e-10,3.132893797454991525e+00,-4.734186132160047228e-10,1.338789428002020535e-09,1.206057574392336851e-01,-1.624765427489298470e-09,7.256664105850402571e-03,-5.597256422582303128e-09,-1.145464429108486032e-01,-7.631138826709721749e-09,1.387839408757445034e-08,1.250244583623626227e+00,-1.684292871673977924e-08,7.522530587386440371e-02,-5.802326252137622188e-08,-1.187431453218949606e+00,-7.910725149071627471e-08
1.900000000000000022e-01,9.714735663785513335e-11,-1.553248414212522466e+00,-1.178987995690400706e-10,-2.694734304580338469e-01,-4.061569762241261723e-10,3.131688099780064238e+00,-5.537427691356357853e-10,1.480587518622639298e-09,1.333797350081027122e-01,-1.796852710601626791e-09,8.025254813965265743e-03,-6.190090707672704322e-09,-1.266786472384417161e-01,-8.439392083163337095e-09,1.447836445856694107e-08,1.304293323120049974e+00,-1.757105749929321960e-08,7.847733592780085921e-02,-6.053163907571494147e-08,-1.238764747620336504e+00,-8.252710012201972879e-08
2.000000000000000111e-01,1.126869356768854710e-10,-1.551848520651153196e+00,-1.367577554677535025e-10,-2.693892010018744676e-01,-4.711253773491958138e-10,3.130358537814588171e+00,-6.423188233493608277e-10,1.628299754790891115e-09,1.466864924066142994e-01,-1.976117447477744343e-09,8.825902070193401491e-03,-6.807651053828570809e-09,-1.393168641780028194e-01,-9.281356141906981419e-09,1.506124611481872134e-08,1.356802614110339089e+00,-1.827844728262078836e-08,8.163673971783028116e-02,-6.296857054964330731e-08,-1.288635936445950980e+00,-8.584954258038152008e-08
2.099999999999999922e-01,1.297324980673273660e-10,-1.550312959553882708e+00,-1.574443846603915832e-10,-2.692968086374177283e-01,-5.423900449443184605e-10,3.128900124341639000e+00,-7.394790266345990673e-10,1.781755936890899357e-09,1.605106970864532689e-01,-2.162353082519089378e-09,9.657683338535096029e-03,-7.449225884701027667e-09,-1.524465314987764608e-01,-1.015606086016103251e-08,1.562717656263596879e-08,1.407784843943738151e+00,-1.896526494546209941e-08,8.470426257182540886e-02,-6.533463183420790946e-08,-1.337056784696263989e+00,-8.907536265576151068e-08
2.200000000000000011e-01,1.483406379998484918e-10,-1.548636632594499574e+00,-1.800273703038946974e-10,-2.691959466061672468e-01,-6.201875899287093590e-10,3.127308017178350052e+00,-8.455459675304718013e-10,1.940787240369849806e-09,1.748371403727969342e-01,-2.355354728914497827e-09,1.051968353626937108e-02,-8.114109372851671764e-09,-1.660532046200120238e-01,-1.106254393304547312e-08,1.617629330832486604e-08,1.457252399969491963e+00,-1.963167736655675342e-08,8.768064981765896770e-02,-6.763039782045533135e-08,-1.384039057371746706e+00,-9.220534413811956268e-08
2.300000000000000100e-01,1.685662682949035466e-10,-1.546814592914173225e+00,-2.045733550310283741e-10,-2.690863172631873246e-01,-7.047475936917516261e-10,3.125577517999412080e+00,-9.608326507167973893e-10,2.105226215737989420e-09,1.896507374643151278e-01,-2.554919168640201438e-09,1.141099503395397868e-02,-8.801601439752566796e-09,-1.801225566109635468e-01,-1.199985089357988437e-08,1.670873385819159240e-08,1.505217669536844438e+00,-2.027785142464436101e-08,9.056664678320364148e-02,-6.985644339943212996e-08,-1.429594519472869418e+00,-9.524027081741547200e-08
2.399999999999999911e-01,1.904626341533650913e-10,-1.544842043882719063e+00,-2.311469576382575422e-10,-2.689676320025703449e-01,-7.962926655821017097e-10,3.123704071160573026e+00,-1.085642575393088614e-09,2.274906788568627566e-09,2.049365274331699238e-01,-2.760844852459826327e-09,1.233071765542538729e-02,-9.511007755786232532e-09,-1.946403781908897235e-01,-1.296703511268343911e-08,1.722463571854234041e-08,1.551693039995041490e+00,-2.090395399846453607e-08,9.336299879633223886e-02,-7.201334346218496814e-08,-1.473734936000104190e+00,-9.818092648360918015e-08
2.500000000000000000e-01,2.140813269071542197e-10,-1.542714337859863560e+00,-2.598107897736205795e-10,-2.688396111829039481e-01,-8.950385003967942802e-10,3.121683262522138680e+00,-1.220269813657548182e-09,2.449664259498136649e-09,2.206796732250161930e-01,-2.972931899924398769e-09,1.327795867779880956e-02,-1.024163974024567294e-08,-2.095925777290542080e-01,-1.396315779917492510e-08,1.772413639568328607e-08,1.596690898693327476e+00,-2.151015196675688589e-08,9.607045118491741587e-02,-7.410167289976037640e-08,-1.516472071953921530e+00,-1.010280949266604830e-07
2.600000000000000089e-01,2.394722977698707763e-10,-1.540426974956508710e+00,-2.906254726246027161e-10,-2.687019840527382075e-01,-1.001193935870345158e-09,3.119510818272472452e+00,-1.364999088886064015e-09,2.629335304225949212e-09,2.368654616590010198e-01,-3.190982099372337754e-09,1.425183283146817283e-02,-1.099281456133434227e-08,-2.249651812447251154e-01,-1.498728799977271355e-08,1.820737339592061200e-08,1.640223632980946533e+00,-2.209661220826101777e-08,9.868974927683193954e-02,-7.612200660320495141e-08,-1.557817692334791948e+00,-1.037825599365292560e-07
2.700000000000000178e-01,2.666838715874244531e-10,-1.537975601795998015e+00,-3.236496536060104967e-10,-2.685544886760528605e-01,-1.114961010163857444e-09,3.117182603751493808e+00,-1.520105854111205887e-09,2.813757973514557521e-09,2.534793034277637580e-01,-3.414798907929457056e-09,1.525146230010612260e-02,-1.176385513616615829e-08,-2.407443324071751323e-01,-1.603850259909476909e-08,1.867448422556050412e-08,1.682303630207144574e+00,-2.266350160171654892e-08,1.012216383999485353e-01,-7.807491946356531631e-08,-1.597783562143187508e+00,-1.064451053031753611e-07
2.800000000000000266e-01,2.957627605886650590e-10,-1.535356010275380934e+00,-3.589400230478457524e-10,-2.683968718577244839e-01,-1.236535019354125897e-09,3.114694622274181146e+00,-1.685856370401221442e-09,3.002771693189521840e-09,2.705067330974366691e-01,-3.644187451508972259e-09,1.627597672066406070e-02,-1.255409013076552379e-08,-2.569162925356821559e-01,-1.711588631965867950e-08,1.912560639090913843e-08,1.722943277721165067e+00,-2.321098702586307672e-08,1.036668638821399147e-01,-7.996098637188801486e-08,-1.636381446379578497e+00,-1.090165148165586208e-07
2.899999999999999800e-01,3.267540781360131251e-10,-1.532564136326677984e+00,-3.965513308831788485e-10,-2.682288890689938921e-01,-1.366104574922740377e-09,3.112043013954068016e+00,-1.862507785239030557e-09,3.196217264139455542e-09,2.879334091076438118e-01,-3.878954524811485875e-09,1.732451318337207419e-02,-1.336285396006727696e-08,-2.734674405995281554e-01,-1.821853172188159122e-08,1.956087739827269424e-08,1.762154962872252595e+00,-2.373923535944020182e-08,1.060261710512787475e-01,-8.178078221921961724e-08,-1.673623110044434981e+00,-1.114975722666388575e-07
2.999999999999999889e-01,3.597013524760913118e-10,-1.529596058678146298e+00,-4.365364033360243365e-10,-2.680503043729329793e-01,-1.503851661245194975e-09,3.109224054526747327e+00,-2.050308210901226733e-09,3.393936862316044544e-09,3.057451137715025968e-01,-4.118908591325008844e-09,1.839621623173902723e-02,-1.418948678791676088e-08,-2.903842732180005326e-01,-1.934553920408030197e-08,1.998043475395736078e-08,1.799951073009652847e+00,-2.424841348118755468e-08,1.083003052352378426e-01,-8.353488189660674662e-08,-1.709520318138229245e+00,-1.138890614433759994e-07
3.099999999999999978e-01,3.946465404903539805e-10,-1.526447997615544061e+00,-4.789461596092130382e-10,-2.678608903499123950e-01,-1.649951693079986492e-09,3.106234154173367124e+00,-2.249496802837066495e-09,3.595774038734028287e-09,3.239277532756221767e-01,-4.363859783324938205e-09,1.949023786255248136e-02,-1.503333452706975564e-08,-3.076534046603908723e-01,-2.049601700247117146e-08,2.038441596426931737e-08,1.836343995482609737e+00,-2.473868826984472936e-08,1.104900117618898836e-01,-8.522386029509598643e-08,-1.744084835661431798e+00,-1.161917661367298424e-07
3.200000000000000067e-01,4.316300414457179538e-10,-1.523116313743396288e+00,-5.238296285722664574e-10,-2.676604280230683863e-01,-1.804573573057722026e-09,3.103069856344134347e+00,-2.460303838047467065e-09,3.801573719471209244e-09,3.424673576801041674e-01,-4.613619901874068261e-09,2.060573752587871454e-02,-1.589374883919251150e-08,-3.252615668459954423e-01,-2.166908119117015774e-08,2.077295853551475323e-08,1.871346117640368734e+00,-2.521022660415134638e-08,1.125960359591076376e-01,-8.684829230573393335e-08,-1.777328427614514039e+00,-1.184064701366602883e-07
3.300000000000000155e-01,4.706907107451936899e-10,-1.519597506746259041e+00,-5.712339654492716556e-10,-2.674487067837701404e-01,-1.967879749170224475e-09,3.099727836581811058e+00,-2.682950793464005063e-09,4.011182205668454990e-09,3.613500809185429818e-01,-4.868002416822593887e-09,2.174188212506275586e-02,-1.677008713486174885e-08,-3.431956093441155820e-01,-2.286385568219283044e-08,2.114619997399984437e-08,1.904969826832174196e+00,-2.566319536284700312e-08,1.146191231547638023e-01,-8.840875281956715759e-08,-1.809262858997946477e+00,-1.205339572331271464e-07
3.400000000000000244e-01,5.118658736785155264e-10,-1.515888214149985647e+00,-6.212044685067541644e-10,-2.672255243170870154e-01,-2.140026272259634748e-09,3.096204901345218197e+00,-2.917650424327909013e-09,4.224447173529692412e-09,3.805622007980252741e-01,-5.126822466808103913e-09,2.289784601672835776e-02,-1.766171257356465821e-08,-3.614424993740571468e-01,-2.407947222545435425e-08,2.150427778603076678e-08,1.937227510407270259e+00,-2.609776142467131346e-08,1.165600186767310753e-01,-8.990581672764224259e-08,-1.839899894812199843e+00,-1.225750112160902918e-07
3.500000000000000333e-01,5.551913391727726475e-10,-1.511985210082990250e+00,-6.737845957415527577e-10,-2.669906865272557717e-01,-2.321162853507520788e-09,3.092497986832731804e+00,-3.164606842569059490e-09,4.441217674321911431e-09,4.000901189991302731e-01,-5.389896859255581952e-09,2.407281101077799607e-02,-1.856799406369889196e-08,-3.799893218051306754e-01,-2.531507040876949553e-08,2.184732947791371632e-08,1.968131555714902836e+00,-2.651409166836389133e-08,1.184194678528822514e-01,-9.134005892100581150e-08,-1.869251300057746201e+00,-1.245304158755095736e-07
3.599999999999999867e-01,6.007014135430388107e-10,-1.507885404037514476e+00,-7.290159815686924161e-10,-2.667440074631476921e-01,-2.511432921923975019e-09,3.088604157805786343e+00,-3.424015595184979353e-09,4.661344134375159624e-09,4.199203610759291716e-01,-5.657044070377406400e-09,2.526596637039285262e-02,-1.948830626257255443e-08,-3.988232791566511670e-01,-2.656979765785259252e-08,2.217549255595486567e-08,1.997694350104315397e+00,-2.691235297266433409e-08,1.201982160110899867e-01,-9.271205429070439481e-08,-1.897328839735055173e+00,-1.264009550013448140e-07
3.699999999999999956e-01,6.484289142430047617e-10,-1.503585839630891208e+00,-7.869384535092602880e-10,-2.664853092437359239e-01,-2.710973681836729788e-09,3.084520606412371801e+00,-3.696063742619839268e-09,4.884678355082554634e-09,4.400395764559865142e-01,-5.928084245173358708e-09,2.647650881203288467e-02,-2.042202957640424819e-08,-4.179316915979390812e-01,-2.784280923631763475e-08,2.248890452646040077e-08,2.025928280924753189e+00,-2.729271221631226226e-08,1.218970084792270481e-01,-9.402237772778462892e-08,-1.924144278844598821e+00,-1.281874123835559149e-07
3.800000000000000044e-01,6.984051836156064621e-10,-1.499083693366810799e+00,-8.475900488782767926e-10,-2.662144219835626546e-01,-2.919916170380250051e-09,3.080244651010536128e+00,-3.980929937143440493e-09,5.111073512900269280e-09,4.604345384403584762e-01,-6.202839197430608489e-09,2.770364250543673468e-02,-2.136855016032300792e-08,-4.373019969483188385e-01,-2.913326824567816380e-08,2.278770289573650422e-08,2.052845735525461457e+00,-2.765533627804727983e-08,1.235165905851661611e-01,-9.527160412329307079e-08,-1.949709382386847656e+00,-1.298905718121027251e-07
3.900000000000000133e-01,7.506601026436572455e-10,-1.494376273396584853e+00,-9.110070314725713746e-10,-2.659311837182060656e-01,-3.138385314984844677e-09,3.075773734991882780e+00,-4.278784501230220821e-09,5.340384159347541482e-09,4.810921442035941409e-01,-6.481132409723727586e-09,2.894657907362179275e-02,-2.232725991836835992e-08,-4.569217506771199866e-01,-3.044034562534734606e-08,2.307202517008934873e-08,2.078459101255683450e+00,-2.800039203660898415e-08,1.250577076567800094e-01,-9.646030836827630387e-08,-1.974035915362272187e+00,-1.315112170769450406e-07
4.000000000000000222e-01,8.052221047004786299e-10,-1.489461018280412885e+00,-9.772239082586565022e-10,-2.656354403297480626e-01,-3.366499990865771135e-09,3.071105425605073158e+00,-4.589789505938247700e-09,5.572466221006667644e-09,5.019994147937348883e-01,-6.762789033414678488e-09,3.020453759288416890e-02,-2.329755650349027914e-08,-4.767786259036765895e-01,-3.176322015263792642e-08,2.334200885582513675e-08,2.102780765464665524e+00,-2.832804637073701231e-08,1.265211050219413880e-01,-9.758906535378096454e-08,-1.997135642771344699e+00,-1.330501319680427896e-07
4.100000000000000311e-01,8.621181893005298895e-10,-1.484335495748645872e+00,-1.046273446060601354e-09,-2.653270454722410632e-01,-3.604373078512338936e-09,3.066237412779324600e+00,-4.914098849288213837e-09,5.807176999523007618e-09,5.231434951323141735e-01,-7.047635888652820947e-09,3.147674459279869302e-02,-2.427884331754920900e-08,-4.968604133973272829e-01,-3.310107844276225147e-08,2.359779145925002774e-08,2.125823115501651372e+00,-2.863846615917094180e-08,1.279075280085229527e-01,-9.865844997085358330e-08,-2.019020329614534592e+00,-1.345081002753557415e-07
4.199999999999999845e-01,9.213739358500395906e-10,-1.478997401463052030e+00,-1.118186688247905506e-09,-2.650058604971752274e-01,-3.852111521177015142e-09,3.061167507947911037e+00,-5.251858334642434869e-09,6.044375171604986357e-09,5.445116540143587480e-01,-7.335501464374915289e-09,3.276243405621893923e-02,-2.527052951131606802e-08,-5.171550215774158854e-01,-3.445311494883229257e-08,2.383951048667022087e-08,2.147598538715886018e+00,-2.893181828065040640e-08,1.292177219443974845e-01,-9.966903711054078329e-08,-2.039701740892314596e+00,-1.358859057888438512e-07
4.299999999999999933e-01,9.830135173976354732e-10,-1.473444557778082364e+00,-1.192992971423372723e-09,-2.646717543789460225e-01,-4.109816382364524509e-09,3.055893642871662763e+00,-5.603205749083840416e-09,6.283920789024084820e-09,5.660912841083869385e-01,-7.626215918305114140e-09,3.406084741927719456e-02,-2.627202998447222996e-08,-5.376504765132905650e-01,-3.581853196185958310e-08,2.406730344439188551e-08,2.168119422456613599e+00,-2.920826961391499022e-08,1.304524321574376533e-01,-1.006214016638891083e-07,-2.059191641605153222e+00,-1.371843322984668351e-07
4.400000000000000022e-01,1.047059714384975677e-09,-1.467674912502134665e+00,-1.270719942110986092e-09,-2.643246036403210097e-01,-4.377582903320962850e-09,3.050413868462466649e+00,-5.968270941794977543e-09,6.525675278614850717e-09,5.878699019564102013e-01,-7.919611076954965737e-09,3.537123357138449026e-02,-2.728276538560954701e-08,-5.583349219243042283e-01,-3.719653961075528453e-08,2.428130783872121421e-08,2.187398154073079581e+00,-2.946798703770432373e-08,1.316124039755162400e-01,-1.015161185219451946e-07,-2.077501796753523866e+00,-1.384041635941846744e-07
4.500000000000000111e-01,1.113533928397378624e-09,-1.461686537658819507e+00,-1.351393573443780162e-09,-2.639642922779073531e-01,-4.655500560522893037e-09,3.044726353606766800e+00,-6.347175902436999332e-09,6.769501442274888593e-09,6.098351479739319014e-01,-8.215520435623414752e-09,3.669284885523056011e-02,-2.830216211223031664e-08,-5.791966191798143537e-01,-3.858635586233012693e-08,2.448166117596438297e-08,2.205447120914528547e+00,-2.971113743075800759e-08,1.326983827265059424e-01,-1.023537625757555993e-07,-2.094643971337896371e+00,-1.395461834659571386e-07
4.600000000000000200e-01,1.182456195914455173e-09,-1.455477628248224908e+00,-1.435038181851716591e-09,-2.635907116876188283e-01,-4.943653123166455063e-09,3.038829383989062993e+00,-6.740034839528667515e-09,7.015263456964873881e-09,6.319747864499484225e-01,-8.513779158396808913e-09,3.802495706678390291e-02,-2.932965231074733462e-08,-6.002239472991838243e-01,-3.998720652129448834e-08,2.466850096242757440e-08,2.222278710330204632e+00,-2.993788767181564579e-08,1.337111137382794579e-01,-1.031349087163669057e-07,-2.110629930358741468e+00,-1.406111757037441030e-07
4.700000000000000289e-01,1.253845202060736953e-09,-1.449046501008180998e+00,-1.521676443749557733e-09,-2.632037605901432764e-01,-5.242118710656469901e-09,3.032721360915411335e+00,-7.146954258825343528e-09,7.262826874708528921e-09,6.542767055469476123e-01,-8.814224078148875013e-09,3.936682945529167837e-02,-3.036467387648381886e-08,-6.214054029517790401e-01,-4.139832523025826246e-08,2.484196470441697443e-08,2.237905309669353304e+00,-3.014840463961685555e-08,1.346513423387095953e-01,-1.038601318348257371e-07,-2.125471438816530778e+00,-1.415999240975054695e-07
4.799999999999999822e-01,1.327718294356308516e-09,-1.442391593175526454e+00,-1.611329412224738566e-09,-2.628033449564095569e-01,-5.550969850095538395e-09,3.026400800136924474e+00,-7.568033041697982048e-09,7.512058622592650251e-09,6.767289173009108927e-01,-9.116693696540751999e-09,4.071774472327983896e-02,-3.140667045367348553e-08,-6.427296004569722498e-01,-4.281895346973102406e-08,2.500218990823876568e-08,2.252339306281218700e+00,-3.034285521290124083e-08,1.355198138556689968e-01,-1.045300068221786503e-07,-2.139180261711735032e+00,-1.425132124372010338e-07
4.899999999999999911e-01,1.404091496467439292e-09,-1.435511461247371834e+00,-1.704016533725245862e-09,-2.623893779330548903e-01,-5.870273533773161662e-09,3.019866330673270927e+00,-8.003362523512144377e-09,7.762827002767097032e-09,6.993195576213115938e-01,-9.421028184020971118e-09,4.207698902655304662e-02,-3.245509143546051268e-08,-6.641852717841398857e-01,-4.424834055812191646e-08,2.514931408019912746e-08,2.265593087515045845e+00,-3.052140627040841557e-08,1.363172736170304711e-01,-1.051451085694722553e-07,-2.151768164044825848e+00,-1.433518245127906714e-07
5.000000000000000000e-01,1.482979521957210156e-09,-1.428404779742365793e+00,-1.799755664747485148e-09,-2.619617797678920890e-01,-6.200091276654822619e-09,3.013116693636176180e+00,-8.453026572006967166e-09,8.015001692444783599e-09,7.220368862911158425e-01,-9.727069379825462537e-09,4.344385597419470058e-02,-3.350939196389956005e-08,-6.857612665526633400e-01,-4.568574365173969130e-08,2.528347472660423906e-08,2.277679040720079318e+00,-3.068422469087798041e-08,1.370444669506666324e-01,-1.057060119677530959e-07,-2.163246910816272628e+00,-1.441165441142342047e-07
5.100000000000000089e-01,1.564395788036147657e-09,-1.421070339961960194e+00,-1.898563088524159674e-09,-2.615204777353766774e-01,-6.540479173871108863e-09,3.006150741052920683e+00,-8.917101665674179106e-09,8.268453743901686907e-09,7.448692869667815630e-01,-1.003466079197754045e-08,4.481764662856688175e-02,-3.456903292995569964e-08,-7.074465520319281886e-01,-4.713042774479265555e-08,2.540480935376029635e-08,2.288609553245564587e+00,-3.083147735304956252e-08,1.377021391844503451e-01,-1.062132919080678349e-07,-2.173628267026548322e+00,-1.448081550314915618e-07
5.200000000000000178e-01,1.648352429312853485e-09,-1.413507048751674544e+00,-2.000453531712143371e-09,-2.610654060620742900e-01,-6.891487958206811566e-09,2.998967434689842726e+00,-9.395656972137087850e-09,8.523055584476846532e-09,7.678052671782594762e-01,-1.034364759728792624e-08,4.619766950531044303e-02,-3.563348097350451492e-08,-7.292302131413253008e-01,-4.858166566938876415e-08,2.551345546797345547e-08,2.298397012440744014e+00,-3.096333113566273609e-08,1.382910356462541679e-01,-1.066675232814629499e-07,-2.182923997676121886e+00,-1.454274410545224594e-07
5.300000000000000266e-01,1.734860311544634145e-09,-1.405713927262361329e+00,-2.105440181080351746e-09,-2.605965058521276800e-01,-7.253163057590026023e-09,2.991565844875834657e+00,-9.888754426529576028e-09,8.778681016572366325e-09,7.908334583289928776e-01,-1.065387664135473360e-08,4.758324057334494678e-02,-3.670220848333204793e-08,-7.511014524502499512e-01,-5.003873809553555387e-08,2.560955057554993212e-08,2.307053805654865730e+00,-3.107995291745715474e-08,1.388119016639510206e-01,-1.070692809789851566e-07,-2.191145867765466715e+00,-1.459751859732869316e-07
5.400000000000000355e-01,1.823929045388134560e-09,-1.397690109711471118e+00,-2.213534700197623535e-09,-2.601137250127238953e-01,-7.625544652581269574e-09,2.983945149325846646e+00,-1.039644880987511381e-08,9.035205217653409447e-09,8.139426156959174152e-01,-1.096519643856347183e-08,4.897368325486867874e-02,-3.777469359713479264e-08,-7.730495901781020418e-01,-5.150093353114014329e-08,2.569323218279587584e-08,2.314592320237170764e+00,-3.118150957717238604e-08,1.392654825654134343e-01,-1.074191398916809193e-07,-2.198305642295050877e+00,-1.464521735777446419e-07
5.500000000000000444e-01,1.915567000149963821e-09,-1.389434842144317894e+00,-2.324747246120583945e-09,-2.596170181795618426e-01,-8.008667733862564780e-09,2.976104631964383795e+00,-1.091878782746572017e-08,9.292504740248203335e-09,8.371216184294612006e-01,-1.127745717208705078e-08,5.036832842535868271e-02,-3.885042020151973468e-08,-7.950640641942867681e-01,-5.296754832200929236e-08,2.576463779601748247e-08,2.321024943536906360e+00,-3.126816799354805054e-08,1.396525236785142177e-01,-1.077176749105968878e-07,-2.204415086265346879e+00,-1.468591876578555187e-07
5.600000000000000533e-01,2.009781317537330855e-09,-1.380947481195343718e+00,-2.439086486081527957e-09,-2.591063466423191297e-01,-8.402562159726563135e-09,2.968043681749007234e+00,-1.145581218724099366e-08,9.550457511948034738e-09,8.603594695535445869e-01,-1.159051069388576767e-08,5.176651441357067729e-02,-3.992887793200429836e-08,-8.171344300182130649e-01,-5.443788665184930975e-08,2.582390492152095118e-08,2.326364062903317098e+00,-3.134009504532378198e-08,1.399737703311262071e-01,-1.079654609267796851e-07,-2.209485964676826786e+00,-1.471970120035795430e-07
5.700000000000000622e-01,2.106577925408672034e-09,-1.372227492849384056e+00,-2.556559614176289153e-09,-2.585816782701194083e-01,-8.807252713565644786e-09,2.959761791493834338e+00,-1.200755567816709022e-08,9.808942835407251369e-09,8.836452959655806128e-01,-1.190421052470732525e-08,5.316758700153915301e-02,-4.100956217301637980e-08,-8.392503608192954934e-01,-5.591126054226613227e-08,2.587117106561242818e-08,2.330622065685645783e+00,-3.139745761123914795e-08,1.402299678511219061e-01,-1.081630728312757888e-07,-2.213530042529959108e+00,-1.474664304048763257e-07
5.799999999999999600e-01,2.205961551524278573e-09,-1.363274451202933335e+00,-2.677172368052111026e-09,-2.580429874369996046e-01,-9.222759161361000884e-09,2.951258556693038493e+00,-1.257404524861570265e-08,1.006784138834325860e-08,9.069683484364743364e-01,-1.221841185408681027e-08,5.457089942457728216e-02,-4.209197405789432703e-08,-8.614016474169523541e-01,-5.738698985276525870e-08,2.590657373459813912e-08,2.333811339233140103e+00,-3.144042257003380869e-08,1.404218615663742620e-01,-1.083110855151319412e-07,-2.216559084825217685e+00,-1.476682266517059536e-07
5.899999999999999689e-01,2.307935737296941098e-09,-1.354088037225407826e+00,-2.800929045595536902e-09,-2.574902549473771507e-01,-9.649096309171803617e-09,2.942533674344347983e+00,-1.315530108474313108e-08,1.032703522353654427e-08,9.303180016106243899e-01,-1.253297154034672664e-08,5.597581237127705056e-02,-4.317562046888701946e-08,-8.835781982806081292e-01,-5.886440228075186887e-08,2.593025043478422358e-08,2.335944270895041530e+00,-3.146915680044731854e-08,1.405501968047558337e-01,-1.084100738693945669e-07,-2.218584856563070584e+00,-1.478031845340280640e-07
5.999999999999999778e-01,2.412502851542561325e-09,-1.344668037520413861e+00,-2.927832521620260154e-09,-2.569234679615171046e-01,-1.008627406062422404e-08,2.933586941772547085e+00,-1.375133668886917310e-08,1.058640776883063404e-08,9.536837540059207585e-01,-1.284774811059695234e-08,5.738169398350907724e-02,-4.426001403715373548e-08,-9.057700395296907070e-01,-6.034283336153065826e-08,2.594233867247690058e-08,2.337033248020597753e+00,-3.148382718121932449e-08,1.406157188941394576e-01,-1.084606127851103816e-07,-2.219619122743991646e+00,-1.478720878418027175e-07
6.099999999999999867e-01,2.519664104230794355e-09,-1.335014343087011168e+00,-3.057884264555014122e-09,-2.563426199209994927e-01,-1.053429747440059218e-08,2.924418255452976734e+00,-1.436215895785619092e-08,1.084584382713212279e-08,9.770552280137460022e-01,-1.316260176073477089e-08,5.878791985642274620e-02,-4.534467314276422528e-08,-9.279673149336330473e-01,-6.182162646830595050e-08,2.594297595398232296e-08,2.337090657959051132e+00,-3.148460059108941400e-08,1.406191731623977759e-01,-1.084632771533258895e-07,-2.219673648368448937e+00,-1.478757203649896041e-07
6.199999999999999956e-01,2.629419560235675656e-09,-1.325126948080977973e+00,-3.191084353131442185e-09,-2.557477104741864293e-01,-1.099316682172848601e-08,2.915027609835032507e+00,-1.498776826148808090e-08,1.110522957641067794e-08,1.000422169898975699e+00,-1.347739435544486972e-08,6.019387303844619952e-02,-4.642912191469875052e-08,-9.501602859118732924e-01,-6.330013281218170394e-08,2.593229978560668989e-08,2.336128888059647579e+00,-3.147164390879721420e-08,1.405613049374035972e-01,-1.084186418650877268e-07,-2.218760198436915854e+00,-1.478148658935486785e-07
6.300000000000000044e-01,2.741768153086255909e-09,-1.315005948576076111e+00,-3.327431493071972373e-09,-2.551387454016892931e-01,-1.146287764386984854e-08,2.905415096165665734e+00,-1.562815852084929441e-08,1.136445256969900640e-08,1.023774449799976782e+00,-1.379198942819930535e-08,6.159894403128621243e-02,-4.751289023084794543e-08,-9.723393315338527687e-01,-6.477771144216135951e-08,2.591044767365617735e-08,2.334160325671631231e+00,-3.144512401308231914e-08,1.404428595470295915e-01,-1.083272818114424506e-07,-2.216890537949861795e+00,-1.476903082174397102e-07
6.400000000000000133e-01,2.856707698717223447e-09,-1.304651541325316799e+00,-3.466923033777687030e-09,-2.545157365418361795e-01,-1.194342080961006519e-08,2.895580901312883704e+00,-1.628331728670379083e-08,1.162340173509290580e-08,1.047102061728610645e+00,-1.410625218125757298e-08,6.300253078992844313e-02,-4.859551371801306157e-08,-9.944949485190203164e-01,-6.625372924514814508e-08,2.587755712443696466e-08,2.331197358144247112e+00,-3.140520778268433612e-08,1.402645823191484564e-01,-1.081897718834366443e-07,-2.214076431907758380e+00,-1.475028311266226010e-07
6.500000000000000222e-01,2.974234909219543645e-09,-1.294064022522224411e+00,-3.609554985016204868e-09,-2.538787017161386883e-01,-1.243478257274709909e-08,2.885525306589248551e+00,-1.695322581787407818e-08,1.188196737575120827e-08,1.070395123570228479e+00,-1.442004948566652036e-08,6.440403872263709972e-02,-4.967653375190565688e-08,-1.016617751236826406e+00,-6.772756094594467844e-08,2.583376564425524437e-08,2.327252372826740245e+00,-3.135206209634289228e-08,1.400272185816330006e-01,-1.080066869721169311e-07,-2.210329645311076785e+00,-1.472532184110571998e-07
6.600000000000000311e-01,3.094345406591084673e-09,-1.283243786562103139e+00,-3.755322033609547318e-09,-2.532276646547595433e-01,-1.293694462958058008e-08,2.875248686575378798e+00,-1.763785915962018608e-08,1.214004116989582180e-08,1.093643877083675608e+00,-1.473324988126041569e-08,6.580288069095521775e-02,-5.075549745714783389e-08,-1.038698471706728022e+00,-6.919858910725331137e-08,2.577921073941718915e-08,2.322337757068354325e+00,-3.128585383279757505e-08,1.397315136623558662e-01,-1.077786019685298547e-07,-2.205661943160287297e+00,-1.469422538607033553e-07
6.700000000000000400e-01,3.217033736487246543e-09,-1.272191324803300772e+00,-3.904217560122014387e-09,-2.525626549219796013e-01,-1.344988417640089527e-08,2.864751507943447795e+00,-1.833718622201864841e-08,1.239751617081171534e-08,1.116838687901289706e+00,-1.504572357666091945e-08,6.719847700970456306e-02,-5.183195770727217351e-08,-1.060727959598186443e+00,-7.066620412967597086e-08,2.571402991622899156e-08,2.316465898218335262e+00,-3.120674987078801159e-08,1.393782128891898620e-01,-1.075060917637220647e-07,-2.200085090455861980e+00,-1.465707212655209431e-07
6.800000000000000488e-01,3.342293381971597611e-09,-1.260907224328474463e+00,-4.056233655548062586e-09,-2.518837078416651387e-01,-1.397357396697833431e-08,2.854034328280683930e+00,-1.905116985834153915e-08,1.265428680684692213e-08,1.139970045528901021e+00,-1.535734244927709438e-08,6.859025544698563182e-02,-5.290547312472170198e-08,-1.082697182230668131e+00,-7.212980425171417233e-08,2.563836068099681436e-08,2.309649183625926305e+00,-3.111491708905378270e-08,1.389680615900076022e-01,-1.071897312487400519e-07,-2.193610852198270234e+00,-1.461394044154697324e-07
6.900000000000000577e-01,3.470116777266501981e-09,-1.249392166705855400e+00,-4.211361138000176651e-09,-2.511908644227349718e-01,-1.450798237005216014e-08,2.843097794912871734e+00,-1.977976694343544512e-08,1.291024888141252808e-08,1.163028563345831490e+00,-1.566798004530538226e-08,6.997765122417758110e-02,-5.397560808084989088e-08,-1.104597224573643066e+00,-7.358879554976901964e-08,2.555234054002686663e-08,2.301900000640374255e+00,-3.101052236633454201e-08,1.385018050926819788e-01,-1.068300953146305056e-07,-2.186250993387985009e+00,-1.456490871005097045e-07
7.000000000000000666e-01,3.600495321503746486e-09,-1.237646926750514353e+00,-4.369589569396737956e-09,-2.504841712846278545e-01,-1.505307342681971283e-08,2.831942643727850317e+00,-2.052292845210043895e-08,1.316529957298268835e-08,1.186004978604895621e+00,-1.597751157972963372e-08,7.136010701593836769e-02,-5.504193269592071003e-08,-1.126419289246587185e+00,-7.504259193814120505e-08,2.545610699962530452e-08,2.293230736610921916e+00,-3.089373258136985710e-08,1.379801887250855508e-01,-1.064277588524399431e-07,-2.178017279025475261e+00,-1.451005531106006024e-07
7.099999999999999645e-01,3.733419392475175948e-09,-1.225672371285626339e+00,-4.530907272149905339e-09,-2.497636805827693485e-01,-1.560880690842552672e-08,2.820569697999014025e+00,-2.128059953746911469e-08,1.341933743509461577e-08,1.208890152432400944e+00,-1.628581393632109335e-08,7.273707295020463703e-02,-5.610402283910857457e-08,-1.148154696518980167e+00,-7.649061516903106222e-08,2.534979756609833382e-08,2.283653778886814756e+00,-3.076471461289936173e-08,1.374039578150911545e-01,-1.059832967532150008e-07,-2.168921474111213943e+00,-1.444945862357023543e-07
7.199999999999999734e-01,3.868878360383325130e-09,-1.213469457903736171e+00,-4.695301345853488475e-09,-2.490294499340394985e-01,-1.617513837345044581e-08,2.808979867208813097e+00,-2.205271960938556077e-08,1.367226239634858576e-08,1.231675069828146674e+00,-1.659276566763839306e-08,7.410800660819175101e-02,-5.716146012849836482e-08,-1.169794884310306760e+00,-7.793229483253846028e-08,2.523354974575211066e-08,2.273181514817296911e+00,-3.062363533966263672e-08,1.367738576905714321e-01,-1.054972839080021960e-07,-2.158975343645670009e+00,-1.438319702657747033e-07
7.299999999999999822e-01,4.006860601592047374e-09,-1.201039233728022015e+00,-4.862757683970824564e-09,-2.482815423422396195e-01,-1.675201922540071439e-08,2.797174145872252105e+00,-2.283922241278439234e-08,1.392397576040794631e-08,1.254350839665426154e+00,-1.689824699502758853e-08,7.547237302439388507e-02,-5.821383193108547922e-08,-1.191331408190057450e+00,-7.936706835666298916e-08,2.510750104489284082e-08,2.261826331751614294e+00,-3.047066164039932907e-08,1.360906336793991922e-01,-1.049702952078481915e-07,-2.148190652629315966e+00,-1.431134889907776305e-07
7.399999999999999911e-01,4.147353512377139108e-09,-1.188382834173563385e+00,-5.033260990522637644e-09,-2.475200261235597776e-01,-1.733939677019706440e-08,2.785153612360391051e+00,-2.364003610606966788e-08,1.417438020599908653e-08,1.276908694691022639e+00,-1.720213980862209297e-08,7.682964468658380619e-02,-5.926073136277567548e-08,-1.212755941377725355e+00,-8.079438100730365515e-08,2.497178896982669038e-08,2.249600617039010153e+00,-3.030596039384901298e-08,1.353550311094470771e-01,-1.044029055437995310e-07,-2.136579166062622104e+00,-1.423399262006709054e-07
7.500000000000000000e-01,4.290343522676982963e-09,-1.175501481708603357e+00,-5.206794796774934303e-09,-2.467449748320459380e-01,-1.793721427366386390e-08,2.772919427723845143e+00,-2.445508333949397793e-08,1.442337978691147797e-08,1.299339991525214177e+00,-1.750432766734274333e-08,7.817930153581313657e-02,-6.030175728838530885e-08,-1.234060274742810215e+00,-8.221368588825923826e-08,2.482655102685984857e-08,2.236516758028729956e+00,-3.012969847875131558e-08,1.345677953085878398e-01,-1.037956898069027979e-07,-2.124152648946059152e+00,-1.415120656854144033e-07
7.600000000000000089e-01,4.435816109843164004e-09,-1.162396484615815018e+00,-5.383341477926853898e-09,-2.459564671850670847e-01,-1.854541101901815973e-08,2.760472834516284113e+00,-2.528428133353735498e-08,1.467087993199763333e-08,1.321636210661768951e+00,-1.780469579889775397e-08,7.952083096641210380e-02,-6.133651432164105416e-08,-1.255236316804814845e+00,-8.362444394122796135e-08,2.467192472229851786e-08,2.222587142070020061e+00,-2.994204277384587065e-08,1.337296716046943723e-01,-1.031492228882046817e-07,-2.110922866280100507e+00,-1.406306912349680790e-07
7.700000000000000178e-01,4.583755812391114089e-09,-1.149069235753566343e+00,-5.562882269798567567e-09,-2.451545869887825913e-01,-1.916392236435885915e-08,2.747815155617932881e+00,-2.612754195728635559e-08,1.491678744517315933e-08,1.343788956467950824e+00,-1.810313109978277292e-08,8.085372782598983232e-02,-6.236461282518023671e-08,-1.276276093733249573e+00,-8.502612394580784746e-08,2.450804756244884117e-08,2.207824156512121938e+00,-2.974316015787223254e-08,1.328414053256391225e-01,-1.024640796787516069e-07,-2.096901583065213348e+00,-1.396965866392915960e-07
7.800000000000000266e-01,4.734146243750734718e-09,-1.135521211317185086e+00,-5.745397285519130937e-09,-2.443394230636092290e-01,-1.979267980015576584e-08,2.734947793059071763e+00,-2.698477180681299352e-08,1.516101050541667406e-08,1.365789957184512016e+00,-1.839952213528077598e-08,8.217749441543394096e-02,-6.338566891055040874e-08,-1.297171749347624692e+00,-8.641820251949625662e-08,2.433505705361701764e-08,2.192240188704281501e+00,-2.953321750957003169e-08,1.319037417992949268e-01,-1.017408350695902231e-07,-2.082100564301870183e+00,-1.387105356883448826e-07
7.900000000000000355e-01,4.886970106017029815e-09,-1.121753969600224332e+00,-5.930865532214374034e-09,-2.435110691696885932e-01,-2.043161100673873174e-08,2.721872226843534470e+00,-2.785587228355376221e-08,1.540345866676990949e-08,1.387631064925700652e+00,-1.869375913946220570e-08,8.349164048891100087e-02,-6.439930443820981928e-08,-1.317915545117460008e+00,-8.780016411769036226e-08,2.415309070210923653e-08,2.175847625995744217e+00,-2.931238170767889194e-08,1.309174263535345661e-01,-1.009800639517671668e-07,-2.066531574990543074e+00,-1.376733221720878406e-07
8.000000000000000444e-01,5.042209203700731052e-09,-1.107769149755726934e+00,-6.119264927694760606e-09,-2.426696239323542226e-01,-2.108063991178672617e-08,2.708590013772210980e+00,-2.874073967268860431e-08,1.564404285833762547e-08,1.409304255679255435e+00,-1.898573401518485558e-08,8.479568325386616090e-02,-6.540514701752703031e-08,-1.338499860162277288e+00,-8.917150103368683361e-08,2.396228601423167712e-08,2.158658855735754667e+00,-2.908081963093841396e-08,1.298832043162307381e-01,-1.001823412163289949e-07,-2.050206380131701867e+00,-1.365857298804802924e-07
8.100000000000000533e-01,5.199844457478940561e-09,-1.093568470557490624e+00,-6.310572317143274731e-09,-2.418151907675987200e-01,-2.173968674781697112e-08,2.695102786266545980e+00,-2.963926522151996398e-08,1.588267538428766764e-08,1.430801629306408751e+00,-1.927534033409394615e-08,8.608914737102339731e-02,-6.640283000678118150e-08,-1.358917191251604262e+00,-9.053171339868202096e-08,2.376278049629050220e-08,2.140686265273555655e+00,-2.883869815808818188e-08,1.288018210152560572e-01,-9.934824175432221136e-08,-2.033136744725816847e+00,-1.354485426034819809e-07
8.200000000000000622e-01,5.359855917945742195e-09,-1.079153729161334674e+00,-6.504763489803280134e-09,-2.409478778075412053e-01,-2.240866810967399714e-08,2.681412251192037743e+00,-3.055133521785167701e-08,1.611926992385091118e-08,1.452115409541883340e+00,-1.956247333662205552e-08,8.737156495438529180e-02,-6.739199251316173872e-08,-1.379160152804971728e+00,-9.188030918177171746e-08,2.355471165459193408e-08,2.121942241958395314e+00,-2.858618416786785593e-08,1.276740217784834985e-01,-9.847834045679358502e-08,-2.015334433773361855e+00,-1.342625441310529933e-07
8.300000000000000711e-01,5.522222779362864092e-09,-1.064526799866361673e+00,-6.701813195666424167e-09,-2.400677978258942136e-01,-2.308749701201885801e-08,2.667520188681740123e+00,-3.147683106836814550e-08,1.635374153132133357e-08,1.473237943993897403e+00,-1.984702993198920204e-08,8.864247557123330901e-02,-6.837227939276879845e-08,-1.399221476891917781e+00,-9.321680418995150320e-08,2.333821699544212559e-08,2.102439173139516004e+00,-2.832344453901701032e-08,1.265005519337855933e-01,-9.757321221478956692e-08,-1.996811212274805403e+00,-1.330285182531530461e-07
8.399999999999999689e-01,5.686923393410265951e-09,-1.049689632876226408e+00,-6.901695162160466521e-09,-2.391750681634312037e-01,-2.377608294681806755e-08,2.653428450959761431e+00,-3.241562937701311553e-08,1.658600663605594185e-08,1.494161704144159053e+00,-2.012890869820276165e-08,8.990142624212750511e-02,-6.934334125061278338e-08,-1.419094013231982698e+00,-9.454072206811642760e-08,2.311343402514727591e-08,2.082189446166164082e+00,-2.805064615027527550e-08,1.252821568090351778e-01,-9.663343191935683317e-08,-1.977578845230619997e+00,-1.317472487597420411e-07
8.499999999999999778e-01,5.853935282936810690e-09,-1.034644253060397645e+00,-7.104382110837194789e-09,-2.382698106534535398e-01,-2.447433194083286723e-08,2.639138961164763764e+00,-3.336760202336885511e-08,1.681598304247481559e-08,1.514879285347869642e+00,-2.040800988205753072e-08,9.114797144090673597e-02,-7.030483444061465415e-08,-1.438770729194712716e+00,-9.585159429906116820e-08,2.288050025001352793e-08,2.061205448387580574e+00,-2.776795588038220250e-08,1.240195817321047278e-01,-9.565957446154176867e-08,-1.957649097641273039e+00,-1.304195194407796153e-07
8.599999999999999867e-01,6.023235155710869094e-09,-1.019392758715425451e+00,-7.309845774060274681e-09,-2.373521515472578614e-01,-2.518214661310822580e-08,2.624653712173465436e+00,-3.433261624103504767e-08,1.704358993006110360e-08,1.535383406833723985e+00,-2.068423539913570286e-08,9.238167309468858779e-02,-7.125642106560584321e-08,-1.458244709799659145e+00,-9.714896020348004394e-08,2.263955317634710399e-08,2.039499567153013171e+00,-2.747554060807745818e-08,1.227135720308672462e-01,-9.465221473239116864e-08,-1.937033734507239258e+00,-1.290461140862258558e-07
8.699999999999999956e-01,6.194798918170960044e-09,-1.003937320326205640e+00,-7.518056911693130846e-09,-2.364222214396032307e-01,-2.589942623246198453e-08,2.609974765424136756e+00,-3.531053469600780790e-08,1.726874785336100077e-08,1.555666911703907695e+00,-2.095748883380684248e-08,9.360210058386930765e-02,-7.219776897732818860e-08,-1.477509157716376809e+00,-9.843236693996690920e-08,2.239073031045419000e-08,2.017084189811707784e+00,-2.717356721210065645e-08,1.213648730331954306e-01,-9.361192762295162974e-08,-1.915744520828989828e+00,-1.276278164860406381e-07
8.800000000000000044e-01,6.368601689176382459e-09,-9.882801793272442126e-01,-7.728985327786826039e-09,-2.354801551941783644e-01,-2.662606677497397262e-08,2.595104249740105118e+00,-3.630121556505871750e-08,1.749137874198378447e-08,1.575722766934099850e+00,-2.122767543922793774e-08,9.480883074212394235e-02,-7.312855177643405313e-08,-1.496557393264426494e+00,-9.970136950501528626e-08,2.213416915864094543e-08,1.993971703712906773e+00,-2.686220257119137151e-08,1.199742300669619094e-01,-9.253928802426961631e-08,-1.893793221606993704e+00,-1.261654104301836785e-07
8.900000000000000133e-01,6.544617813757834015e-09,-9.724236468639235742e-01,-7.942599887267915474e-09,-2.345260918690688090e-01,-2.736196098147504657e-08,2.580044360153251226e+00,-3.730451261411374175e-08,1.771140590060177150e-08,1.595544063373471433e+00,-2.149470213734335751e-08,9.600144785640624123e-02,-7.404844881248624488e-08,-1.515382854413372282e+00,-1.009555307330182064e-07,2.187000722721356281e-08,1.970174496205855830e+00,-2.654161356408923380e-08,1.185423884600394634e-01,-9.143487082739179119e-08,-1.871191601841722951e+00,-1.246596797086149055e-07
9.000000000000000222e-01,6.722820876868067083e-09,-9.563701025537657552e-01,-8.158868532626357422e-09,-2.335601746422241720e-01,-2.810699841503632140e-08,2.564797356727508415e+00,-3.832027527663235790e-08,1.792875400895036449e-08,1.615124015744687114e+00,-2.175847751888488116e-08,9.717954366694869783e-02,-7.495714518395807023e-08,-1.533979096782785101e+00,-1.021944212962684216e-07,2.159838202247821815e-08,1.945704954639798423e+00,-2.621196706953383408e-08,1.170700935403007625e-01,-9.029925092336469813e-08,-1.847951426533647412e+00,-1.231114081112941148e-07
9.100000000000000311e-01,6.903183717132485934e-09,-9.401219932477002938e-01,-8.377758300603341924e-09,-2.325825507369254086e-01,-2.886106551845811734e-08,2.549365563382367750e+00,-3.934834873198636590e-08,1.814334912182799886e-08,1.634455962643901694e+00,-2.201891184337165884e-08,9.834271736726245272e-02,-7.585433173823321469e-08,-1.552339793642237620e+00,-1.034176197049581268e-07,2.131943105074110067e-08,1.920575466363980910e+00,-2.587342996626479949e-08,1.155580906356186016e-01,-8.913300320323496028e-08,-1.824084460683239595e+00,-1.215213794281812347e-07
9.200000000000000400e-01,7.085678440599810953e-09,-9.236818317913259024e-01,-8.599235338879209660e-09,-2.315933713472518862e-01,-2.962404567175921094e-08,2.533751366716370690e+00,-4.038857398383908294e-08,1.835511866909620247e-08,1.653533366540765215e+00,-2.227591703911026777e-08,9.949057560413750168e-02,-7.673970507160592821e-08,-1.570458735911310466e+00,-1.046247123071792773e-07,2.103329181830836654e-08,1.894798418727645206e+00,-2.552616913302170423e-08,1.140071250738655534e-01,-8.793670255804905518e-08,-1.799602469290967566e+00,-1.198903774492359289e-07
9.300000000000000488e-01,7.270276434492677499e-09,-9.070521957861792384e-01,-8.823264922761281486e-09,-2.305927915635486991e-01,-3.039581924966581486e-08,2.517957214830616408e+00,-4.144078793852415415e-08,1.856399145567953930e-08,1.672349813778417182e+00,-2.252940670319464602e-08,1.006227324776424459e-01,-7.761296752928083987e-08,-1.588329832159586008e+00,-1.058152932889232847e-07,2.074010183148624467e-08,1.868386199080039889e+00,-2.517035144854420854e-08,1.124179421829145653e-01,-8.671092387885375159e-08,-1.774517217357306498e+00,-1.182191859644183108e-07
9.400000000000000577e-01,7.456948380958292670e-09,-8.902357263509965701e-01,-9.049811471871772344e-09,-2.295809702978938993e-01,-3.117626367910078591e-08,2.501985616152255343e+00,-4.250482348342471410e-08,1.876989766156565252e-08,1.690899014573492565e+00,-2.277929610150616862e-08,1.017388095411247140e-01,-7.847382720537312997e-08,-1.605947108606653462e+00,-1.069889646740812680e-07,2.043999859658088131e-08,1.841351194770407318e+00,-2.480614379157188661e-08,1.107912872906382379e-01,-8.545624205669551381e-08,-1.748840469882724458e+00,-1.165085887636880706e-07
9.500000000000000666e-01,7.645664270819049882e-09,-8.732351268829813273e-01,-9.278838566835635685e-09,-2.285580702095656724e-01,-3.196525349667265120e-08,2.485839138257993852e+00,-4.358050956535225043e-08,1.897276884180522804e-08,1.709174803016116018e+00,-2.302550216871356488e-08,1.028384358012103539e-01,-7.932199794290834471e-08,-1.623304709122105338e+00,-1.081453363244438551e-07,2.013311961989849545e-08,1.813705793147994516e+00,-2.443371304084438544e-08,1.091279057249094353e-01,-8.417323198262105766e-08,-1.722583991867695286e+00,-1.147593696370052424e-07
9.599999999999999645e-01,7.836393417323168264e-09,-8.560531618190676539e-01,-9.510308965968459186e-09,-2.275242576305094855e-01,-3.276266040616476988e-08,2.469520406697592207e+00,-4.466767126892568590e-08,1.917253792651204088e-08,1.727171137069906548e+00,-2.326794350827299114e-08,1.039212477178042549e-01,-8.015719933382260796e-08,-1.640396895225540108e+00,-1.092840259397013419e-07,1.981960240774521677e-08,1.785462381562041845e+00,-2.405322607510124615e-08,1.074285428136005915e-01,-8.286246854767675480e-08,-1.695759548312685272e+00,-1.129723123743293706e-07
9.699999999999999734e-01,8.029104469895316336e-09,-8.386926553971861820e-01,-9.744184621964324056e-09,-2.264797024908054290e-01,-3.356835333602441218e-08,2.453032103817363918e+00,-4.576612989495033471e-08,1.936913922086291876e-08,1.744882098571975737e+00,-2.350654039242800428e-08,1.049868892040900087e-01,-8.097915671896247568e-08,-1.657218046086560648e+00,-1.104046590574436656e-07,1.949958446642726760e-08,1.756633347361797659e+00,-2.366484977308213889e-08,1.056939438845847096e-01,-8.152452664290937397e-08,-1.668378904218169589e+00,-1.111482007656205555e-07
9.799999999999999822e-01,8.223765427887257193e-09,-8.211564904175286950e-01,-9.980426698583689174e-09,-2.254245782441353096e-01,-3.438219849685187153e-08,2.436376967583675945e+00,-4.687570303879693823e-08,1.956250840509772883e-08,1.762301893232925964e+00,-2.374121476220951880e-08,1.060350116265298404e-01,-8.178760118808488297e-08,-1.673762658524773572e+00,-1.115068690531601932e-07,1.917320330225081071e-08,1.727231077896505207e+00,-2.326875101352664118e-08,1.039248542657343760e-01,-8.015998115936541921e-08,-1.640453824584616971e+00,-1.092878186008385402e-07
9.899999999999999911e-01,8.420343654328444059e-09,-8.034476070038147899e-01,-1.021899558734124379e-08,-2.243590617932499920e-01,-3.520405943888951056e-08,2.419557790406451137e+00,-4.799620466878054189e-08,1.975258253451942736e-08,1.779424850636853073e+00,-2.397189022743587950e-08,1.070652738048648162e-01,-8.258226957985734260e-08,-1.690025347009791012e+00,-1.125902971402400519e-07,1.884059642152203862e-08,1.697267960515409291e+00,-2.286509667517437354e-08,1.021220192849223579e-01,-7.876940698809150042e-08,-1.611996074412499258e+00,-1.073919496699432264e-07
1.000000000000000000e+00,8.618805889676703521e-09,-7.855690013645535430e-01,-1.045985092419382141e-08,-2.232833334154364358e-01,-3.603379710951100551e-08,2.402577417962663997e+00,-4.912744520453970294e-08,1.993930003949402331e-08,1.796245424241346145e+00,-2.419849206671282185e-08,1.080773420121147049e-01,-8.336290448185779943e-08,-1.706000843661230393e+00,-1.136545923699719178e-07,1.850190133054712405e-08,1.666756382567754491e+00,-2.245405363676493334e-08,1.002861842700213391e-01,-7.735337902013417458e-08,-1.583017418702286960e+00,-1.054613777628943968e-07
1.010000000000000009e+00,8.819118265568812886e-09,-7.675237245543127251e-01,-1.070295160622822606e-08,-2.221975766879851211e-01,-3.687126991071028636e-08,2.385438748019844901e+00,-5.026923159541524166e-08,2.012260072545056507e-08,1.812758191377483508e+00,-2.442094722743344880e-08,1.090708899745778393e-01,-8.412925423057455100e-08,-1.721683998248711100e+00,-1.146994116315439362e-07,1.815725553563226613e-08,1.635708731402786942e+00,-2.203578877703795433e-08,9.841809454890415587e-02,-7.591247214654011777e-08,-1.553529622454452142e+00,-1.034968866696520326e-07
1.020000000000000018e+00,9.021246318571176798e-09,-7.493148812349801346e-01,-1.094825580834915113e-08,-2.211019784136570576e-01,-3.771633375659078790e-08,2.368144729259576309e+00,-5.142136739882946895e-08,2.030242577288121663e-08,1.828957853249841170e+00,-2.463918432577831682e-08,1.100455988718316153e-01,-8.488107291140661808e-08,-1.737069778191862035e+00,-1.157244196520441586e-07,1.780679654308364088e-08,1.604137394369750780e+00,-2.161046897473303719e-08,9.651849544944350601e-02,-7.444726125835588697e-08,-1.523544450669465533e+00,-1.014992601801759563e-07
1.030000000000000027e+00,9.225155003930416175e-09,-7.309456284370320356e-01,-1.119572099996701224e-08,-2.199967285461511546e-01,-3.856884213085440306e-08,2.350698360100995643e+00,-5.258365285866496399e-08,2.047871773734114832e-08,1.844839234936482608e+00,-2.485313364671531676e-08,1.110011573367318261e-01,-8.561812035866320210e-08,-1.752153268560311616e+00,-1.167292889964598940e-07,1.745066185920741437e-08,1.572054758817889031e+00,-2.117826110858976605e-08,9.458813229951197610e-02,-7.295832124662797298e-08,-1.493073668347796534e+00,-9.946928208442587100e-08
1.040000000000000036e+00,9.430808709324039862e-09,-7.124191743207947125e-01,-1.144530396168586112e-08,-2.188820201155712852e-01,-3.942864614429076046e-08,2.333102687524292840e+00,-5.375588498364379525e-08,2.065142054944862951e-08,1.860397285388967425e+00,-2.506272714399978639e-08,1.119372614554132173e-01,-8.634016215556420124e-08,-1.766929672073697555e+00,-1.177137000676783177e-07,1.708898899030976590e-08,1.539473212096446275e+00,-2.073933205734775150e-08,9.262775042698233319e-02,-7.144622700240297247e-08,-1.462129040489916099e+00,-9.740773617236167863e-08
1.050000000000000044e+00,9.638171268611036876e-09,-6.937387769377132418e-01,-1.169696080199122345e-08,-2.177580491538937124e-01,-4.029559459226617109e-08,2.315360805894211893e+00,-5.493785762570629150e-08,2.082047951488496240e-08,1.875627077432344025e+00,-2.526789844017441109e-08,1.128536147672890566e-01,-8.704696963423977373e-08,-1.781394309101657747e+00,-1.186773411064859553e-07,1.672191544269690456e-08,1.506405141554669536e+00,-2.029384869974663063e-08,9.063809515972742759e-02,-6.991155341672760123e-08,-1.430722332096297178e+00,-9.531540623394334713e-08
1.060000000000000053e+00,9.847205975582531518e-09,-6.749077429916136017e-01,-1.195064697393799455e-08,-2.166250146204340421e-01,-4.116953401221283312e-08,2.297475855783551069e+00,-5.612936155839020990e-08,2.098584131439453827e-08,1.890523807765156938e+00,-2.546858282656931985e-08,1.137499282650515781e-01,-8.773831987573073486e-08,-1.795542617663838936e+00,-1.196199081915691988e-07,1.634957872267502951e-08,1.472862934541804947e+00,-1.984197791452603387e-08,8.861991182562004021e-02,-6.835487538064846918e-08,-1.398865308167412280e+00,-9.319307605913081800e-08
1.070000000000000062e+00,1.005787559771241036e-08,-6.559294265999688900e-01,-1.220631729183831359e-08,-2.154831183273146211e-01,-4.205030874111791093e-08,2.279451022796661341e+00,-5.733018455520967245e-08,2.114745400378478458e-08,1.905082796959440605e+00,-2.566471726330199919e-08,1.146259203946715238e-01,-8.841399570998821292e-08,-1.809370153429890049e+00,-1.205411052395137902e-07,1.597211633655025058e-08,1.438858978407091094e+00,-1.938388658042548580e-08,8.657394575253257729e-02,-6.677676778521192153e-08,-1.366569733703726586e+00,-9.104152943788356951e-08
1.080000000000000071e+00,1.027014238990794758e-08,-6.368072280551649866e-01,-1.246392594794942458e-08,-2.143325648649317128e-01,-4.293776097301260087e-08,2.261289536392947053e+00,-5.854011146803411567e-08,2.130526701392621785e-08,1.919299489460723374e+00,-2.585624037927735938e-08,1.154813170553985330e-01,-8.907378571587392708e-08,-1.822872589719465752e+00,-1.214406440048052851e-07,1.558966579062881656e-08,1.404405660499778330e+00,-1.891974157618466981e-08,8.450094226833805566e-02,-6.517780552146476672e-08,-1.333847373705716155e+00,-8.886155016016179464e-08
1.090000000000000080e+00,1.048396810826043027e-08,-6.175445925857649954e-01,-1.272342652916155383e-08,-2.131735615274227003e-01,-4.383173081646127657e-08,2.242994668710367012e+00,-5.975892430546731972e-08,2.145923115075239738e-08,1.933169453588025277e+00,-2.604309247218769472e-08,1.163158515997608639e-01,-8.971748422115997567e-08,-1.836045717502225116e+00,-1.223182440798286819e-07,1.520236459121687035e-08,1.369515368169107905e+00,-1.844970978054315350e-08,8.240164670090903420e-02,-6.355856348045346907e-08,-1.300709993173849055e+00,-8.665392201592514373e-08
1.100000000000000089e+00,1.069931402379581526e-08,-5.981450091177731299e-01,-1.298477203368580573e-08,-2.120063182381331790e-01,-4.473205635205064069e-08,2.224569733388932047e+00,-6.098640231122652355e-08,2.160929859525994509e-08,1.946688381533858703e+00,-2.622521550851269017e-08,1.171292648335655190e-01,-9.034489130252895527e-08,-1.848885445397831617e+00,-1.231736328948686070e-07,1.481035024462060947e-08,1.334200488764326176e+00,-1.797395807224056399e-08,8.027680437811830771e-02,-6.191961655322466496e-08,-1.267169357108597350e+00,-8.441942879513355827e-08
1.110000000000000098e+00,1.091614093622531467e-08,-5.786120090359030410e-01,-1.324791488774199387e-08,-2.108310474750844377e-01,-4.563857368987867164e-08,2.206018084394207435e+00,-6.222232204252114956e-08,2.175542290350853560e-08,1.959852089364227945e+00,-2.640255312351941800e-08,1.179213050158982035e-01,-9.095581278557385484e-08,-1.861387799675952914e+00,-1.240065457181092888e-07,1.441376025714625293e-08,1.298473409634680609e+00,-1.749265333001654498e-08,7.812716062783879589e-02,-6.026153963082508343e-08,-1.233237230510435323e+00,-8.215885428774708566e-08
1.120000000000000107e+00,1.113440918769608416e-08,-5.589491649448383725e-01,-1.351280696224656660e-08,-2.096479641964403562e-01,-4.655111702704396734e-08,2.187343114840810898e+00,-6.346645744843214374e-08,2.189755900662095908e-08,1.972656517018633204e+00,-2.657505062126240731e-08,1.186917278591235470e-01,-9.155006024479834691e-08,-1.873548924256265069e+00,-1.248167256556347424e-07,1.401273213509991386e-08,1.262346518129410011e+00,-1.700596243261063427e-08,7.595346077794284945e-02,-5.858490760430104321e-08,-1.198925378379827933e+00,-7.987298228372519093e-08
1.130000000000000115e+00,1.135407867654178705e-08,-5.391600894305035307e-01,-1.377939958950042162e-08,-2.084572857659749423e-01,-4.746951870513453969e-08,2.168548255815914594e+00,-6.471857994829056804e-08,2.203566321078298561e-08,1.985097728310061926e+00,-2.674265497458349514e-08,1.194402965288846041e-01,-9.212745100361629783e-08,-1.885365080708443219e+00,-1.256039236514282404e-07,1.360740338478781955e-08,1.225832201597763405e+00,-1.651405225876249210e-08,7.375645015630345747e-02,-5.689029536469931304e-08,-1.164245565717250130e+00,-7.756259657302798765e-08
1.140000000000000124e+00,1.157510887103328909e-08,-5.192484338213225747e-01,-1.404764357987684141e-08,-2.072592318785392851e-01,-4.839360926771725096e-08,2.149636975202742217e+00,-6.597845851005700003e-08,2.216969319724351074e-08,1.997171910924997462e+00,-2.690531482511197534e-08,1.201667816441033543e-01,-9.268780813435221784e-08,-1.896832648252171349e+00,-1.263678984873728955e-07,1.319791151251610132e-08,1.188942847388980262e+00,-1.601708968721165958e-08,7.153687409079305393e-02,-5.517827780306625799e-08,-1.129209557523168206e+00,-7.522848094561503351e-08
1.150000000000000133e+00,1.179745882312923753e-08,-4.992178869494894311e-01,-1.431748923850931618e-08,-2.060540244855288416e-01,-4.932321751782664799e-08,2.130612776504072770e+00,-6.724585972870023114e-08,2.229960802231446289e-08,2.008875376423414849e+00,-2.706298048326451587e-08,1.208709612769804514e-01,-9.323096045824099627e-08,-1.907948123757136294e+00,-1.271084167832513425e-07,1.278439402459103113e-08,1.151690842852314045e+00,-1.551524159669785650e-08,6.929547790928484996e-02,-5.344942981044885192e-08,-1.093829118798061328e+00,-7.287141919144669352e-08
1.159999999999999920e+00,1.202108718222673438e-08,-4.790721739122290046e-01,-1.458888638197945941e-08,-2.048418877203507238e-01,-5.025817057545425961e-08,2.111479197665736329e+00,-6.852054790457648104e-08,2.242536811737084962e-08,2.020204560238782587e+00,-2.721560392824520180e-08,1.215526209529953494e-01,-9.375674254542810017e-08,-1.918708121743031514e+00,-1.278252529967458973e-07,1.236698842731873039e-08,1.114088575337003340e+00,-1.500867486596062397e-08,6.703300693965123791e-02,-5.170432627789342020e-08,-1.058116014542394678e+00,-7.049219510048247245e-08
1.169999999999999929e+00,1.224595220891194524e-08,-4.588150548330645062e-01,-1.486178435500486217e-08,-2.036230478238907904e-01,-5.119829393503761611e-08,2.092239809900116043e+00,-6.980228512180825472e-08,2.254693528885070472e-08,2.031156021678057311e+00,-2.736313880804545591e-08,1.222115536509059963e-01,-9.426499471496925660e-08,-1.929109374379551101e+00,-1.285181894234382129e-07,1.194583222700538998e-08,1.076148432192294280e+00,-1.449755637373957425e-08,6.475020650976499870e-02,-4.994354209644659259e-08,-1.022082009756640542e+00,-6.809159246268227209e-08
1.179999999999999938e+00,1.247201178871071302e-08,-4.384503236230836709e-01,-1.513613204712694423e-08,-2.023977330699809896e-01,-5.214341152294927536e-08,2.072898216509649671e+00,-7.109083132666330540e-08,2.266427271825516762e-08,2.041726443921693779e+00,-2.750554043944416773e-08,1.228475598027493343e-01,-9.475556303483084969e-08,-1.939148731486398214e+00,-1.291870161968098878e-07,1.152106292995716109e-08,1.037882800767428337e+00,-1.398205299877428319e-08,6.244782194749869814e-02,-4.816765215715483342e-08,-9.857388694412668739e-01,-6.567039506800576924e-08
1.189999999999999947e+00,1.269922344583922628e-08,-4.179818067422000905e-01,-1.541187790939887123e-08,-2.011661736908664233e-01,-5.309334575498611360e-08,2.053458051710326693e+00,-7.238594440593376948e-08,2.277734496214841389e-08,2.051912634023635995e+00,-2.764276580800758766e-08,1.234604472938409248e-01,-9.522829932188966921e-08,-1.948823160533278864e+00,-1.298315312882419108e-07,1.109281804248029415e-08,9.993040684116563099e-01,-1.346233161980443916e-08,6.012659858072541552e-02,-4.637723135106499084e-08,-9.490983585967506242e-01,-6.322938670641320982e-08
1.199999999999999956e+00,1.292754435695461649e-08,-3.974133619604220957e-01,-1.568896997107340408e-08,-1.999286018026728007e-01,-5.404791759385825229e-08,2.033922979455190294e+00,-7.368738026531507661e-08,2.288611795215770490e-08,2.061711522911322092e+00,-2.777477356808937989e-08,1.240500314627751011e-01,-9.568306114193300317e-08,-1.958129746639904800e+00,-1.304515405070150043e-07,1.066123507088092052e-08,9.604246224742185589e-01,-1.293855911556959153e-08,5.778728173731761258e-02,-4.457285456922346298e-08,-9.121722422235584160e-01,-6.076935116786415151e-08
1.209999999999999964e+00,1.315693136490561803e-08,-3.767488771191149777e-01,-1.596735585629077316e-08,-1.986852513308733359e-01,-5.500694660667828934e-08,2.014296692257835808e+00,-7.499489290778493901e-08,2.299055899497331498e-08,2.071120165385679446e+00,-2.790152404283056619e-08,1.246161351014247604e-01,-9.611971180965846578e-08,-1.967065692575989733e+00,-1.310468575003092544e-07,1.022645152146524595e-08,9.212568503043618851e-01,-1.241090236480937572e-08,5.543061674514813270e-02,-4.275509670267692595e-08,-8.749722853221633123e-01,-5.829107224231858214e-08
1.219999999999999973e+00,1.338734099248316712e-08,-3.559922688922685374e-01,-1.624698280076655586e-08,-1.974363579357562293e-01,-5.597025102245029875e-08,1.994582910015912036e+00,-7.630823451198239385e-08,2.309063677234863405e-08,2.080135740121131338e+00,-2.802297922415960529e-08,1.251585884549417382e-01,-9.653812038867431513e-08,-1.975628318761255109e+00,-1.316173037532045605e-07,9.788604900539423295e-09,8.818131392513282041e-01,-1.187952824626336594e-08,5.305734893208954861e-02,-4.092453264247183745e-08,-8.375102528930334911e-01,-5.579533371973617190e-08
1.229999999999999982e+00,1.361872945617106020e-08,-3.351474815477593072e-01,-1.652779766847955570e-08,-1.961821589378916486e-01,-5.693764778955904203e-08,1.974785378834619909e+00,-7.762715551058676618e-08,2.318632134110009479e-08,2.088755549665592959e+00,-2.813910277279234987e-08,1.256772292217565035e-01,-9.693816169149921488e-08,-1.983815063265426337e+00,-1.321627085886803973e-07,9.347832714409661635e-09,8.421058766643647608e-01,-1.134460363867120422e-08,5.066822362601473145e-02,-3.908173727965490666e-08,-7.997979099366425704e-01,-5.328291939007695494e-08
1.239999999999999991e+00,1.385105267989656768e-08,-3.142184857086189886e-01,-1.680974696835967162e-08,-1.949228932435992379e-01,-5.790895263325897437e-08,1.954907869850213586e+00,-7.895140466869664507e-08,2.327758413310718255e-08,2.096977020440470962e+00,-2.824986001823202673e-08,1.261719025535782968e-01,-9.731971627956226080e-08,-1.991623481808233231e+00,-1.326829091676157882e-07,8.904272469382160131e-09,8.021474498927176899e-01,-1.080629542077251935e-08,4.826398615479649684e-02,-3.722728550527278980e-08,-7.618470214534627249e-01,-5.075461304330085953e-08
1.250000000000000000e+00,1.408426630878107917e-08,-2.932092771142960075e-01,-1.709277687097576717e-08,-1.936588012704149320e-01,-5.888398011316343629e-08,1.934954178053499563e+00,-8.028072916220899216e-08,2.336439795531242878e-08,2.104797702740662135e+00,-2.835521795876924007e-08,1.266424610553948671e-01,-9.768267046320292781e-08,-1.999051247759407790e+00,-1.331777504887891993e-07,8.458061671763033572e-09,7.619502462856259095e-01,-1.026477047130684087e-08,4.584538184630721630e-02,-3.536175221037179902e-08,-7.236693524439593572e-01,-4.821119846936736395e-08
1.260000000000000009e+00,1.431832572289071550e-08,-2.721238753819232858e-01,-1.737683322522355636e-08,-1.923901248725585766e-01,-5.986254368073370611e-08,1.914928121113336879e+00,-8.161487465619797218e-08,2.344673698972147057e-08,2.112215270734560946e+00,-2.845514526148204429e-08,1.270887647854729852e-01,-9.802691630167136114e-08,-2.006096152138690858e+00,-1.336470853888790162e-07,8.009337827858562181e-09,7.215266531923425486e-01,-9.720195669013891876e-09,4.341315602842013566e-02,-3.348571228599892141e-08,-6.852766679086117474e-01,-4.565345945823687292e-08
1.270000000000000018e+00,1.455318605098696405e-08,-2.509663227675833497e-01,-1.766186157501345630e-08,-1.911171072664009096e-01,-6.084445573676805920e-08,1.894833538200138445e+00,-8.295358538329399538e-08,2.352457679340301093e-08,2.119227522464053326e+00,-2.854961226223590099e-08,1.275106812553582214e-01,-9.835235160312819103e-08,-2.012756103615829240e+00,-1.340907745424631996e-07,7.558238443974822696e-09,6.808890579621029726e-01,-9.172737892633157237e-09,4.096805402900740439e-02,-3.159974062320030366e-08,-6.466807328478818562e-01,-4.308217979986863974e-08
1.280000000000000027e+00,1.478880218427733713e-08,-2.297406829275696616e-01,-1.794780717595849947e-08,-1.898399929559307919e-01,-6.182952768889103230e-08,1.874674288809367484e+00,-8.429660422206291858e-08,2.359789429848873937e-08,2.125832379844511788e+00,-2.863859096568356645e-08,1.279080854298743908e-01,-9.865887992464417542e-08,-2.019029128510566817e+00,-1.345086864620188884e-07,7.104901026418082933e-09,6.400498479441596444e-01,-8.622564020904346813e-09,3.851082117594221976e-02,-2.970441211302289318e-08,-6.078933122622478535e-01,-4.049814328422300295e-08
1.290000000000000036e+00,1.502512879016595268e-08,-2.084510396796570575e-01,-1.823461501206215666e-08,-1.885590276582224667e-01,-6.281757000904231725e-08,1.854454251585041291e+00,-8.564367277538467733e-08,2.366666781217348415e-08,2.132027888664808302e+00,-2.872205504526529680e-08,1.282808597271244688e-01,-9.894641057220087491e-08,-2.024913370792659872e+00,-1.349006974979232730e-07,6.649463081494468433e-09,5.990214104877521484e-01,-8.069840932567001721e-09,3.604220279709700187e-02,-2.780030164651304179e-08,-5.689261711521761411e-01,-3.790213370125950039e-08
1.300000000000000044e+00,1.526212032600420753e-08,-1.871014957643633014e-01,-1.852222981240625251e-08,-1.872744582289027349e-01,-6.380839229096603859e-08,1.834177323143229676e+00,-8.699453144883257964e-08,2.373087701671509643e-08,2.137812218587303192e+00,-2.879997984320868256e-08,1.286288940184899809e-01,-9.921485860069016306e-08,-2.030407092081864207e+00,-1.352666918384529074e-07,6.192062115510209789e-09,5.578161329421293946e-01,-7.514735506360790461e-09,3.356294422034473285e-02,-2.588798411471753478e-08,-5.297910745181415582e-01,-3.529493484093824563e-08
1.310000000000000053e+00,1.549973105284140275e-08,-1.656961716062141932e-01,-1.881059606783883806e-08,-1.859865325876181863e-01,-6.480180330769981935e-08,1.813847416895552955e+00,-8.834891952905222922e-08,2.379050296943448339e-08,2.143183663147849138e+00,-2.887234237052871814e-08,1.289520856286311135e-01,-9.946414481391433229e-08,-2.035508671647942247e+00,-1.356065615097839208e-07,5.732835634771446605e-09,5.164464026565325216e-01,-6.957414621025268212e-09,3.107379077355791608e-02,-2.396803440868278353e-08,-4.904997873606116721e-01,-3.267733049321885591e-08
1.320000000000000062e+00,1.573791504917532600e-08,-1.442392040750115623e-01,-1.909965804766201038e-08,-1.846954996435025143e-01,-6.579761106906374097e-08,1.793468461872687048e+00,-8.970657526214032962e-08,2.384552810271568759e-08,2.148140639755796943e+00,-2.893912130702787460e-08,1.292503393354872132e-01,-9.969419576458646445e-08,-2.040216606410665268e+00,-1.359202063759924146e-07,5.271921145584377214e-09,4.749246069802074421e-01,-6.398045155300065426e-09,2.857548778460935676e-02,-2.204102741945544428e-08,-4.510640746800586576e-01,-3.005010444806127935e-08
1.330000000000000071e+00,1.597662622470295624e-08,-1.227347452470948230e-01,-1.938935981631986452e-08,-1.834016092206434967e-01,-6.679562287914967381e-08,1.773044401547857474e+00,-9.106723593202401771e-08,2.389593622400571167e-08,2.152681689693982658e+00,-2.900029700129590448e-08,1.295235673702757606e-01,-9.990494375432967643e-08,-2.044529510939802730e+00,-1.362075341390536153e-07,4.809456154255174306e-09,4.332631332623981257e-01,-5.836793987924778640e-09,2.606878058137173174e-02,-2.010753803808206407e-08,-4.114957014769528021e-01,-2.741404049542531188e-08
1.340000000000000080e+00,1.621581833407104440e-08,-1.011869611666076363e-01,-1.967964525008631971e-08,-1.821051119835503940e-01,-6.779564539381022387e-08,1.752579192660343121e+00,-9.243063793883957514e-08,2.394171251581467051e-08,2.156805478118737351e+00,-2.905585147071000060e-08,1.297716894174932578e-01,-1.000963268336777686e-07,-2.048446117455130722e+00,-1.364684603388425364e-07,4.345578167090059376e-09,3.914743688523527609e-01,-5.273827997639062294e-09,2.355441449171797805e-02,-1.816814115560939177e-08,-3.718064327517682788e-01,-2.476992242527102403e-08
1.350000000000000089e+00,1.645544499062677015e-08,-7.960003060676279496e-02,-1.997045805375301183e-08,-1.808062593626211245e-01,-6.879748467814794414e-08,1.732076804038974016e+00,-9.379651687731164276e-08,2.398284353571574491e-08,2.160510794059886219e+00,-2.910576840143477951e-08,1.299946326149149511e-01,-1.002682888020750133e-07,-2.051965275826432400e+00,-1.367029083531338198e-07,3.880424690395157137e-09,3.495707010993108765e-01,-4.709314063182459158e-09,2.103313484352051232e-02,-1.622341166308377593e-08,-3.320080335049712672e-01,-2.211853402755794703e-08
1.360000000000000098e+00,1.669545968016833578e-08,-5.797814383110799774e-02,-2.026174177731713609e-08,-1.795053034796094127e-01,-6.980094626400430778e-08,1.711541215425634199e+00,-9.516460761513197177e-08,2.401931721634516177e-08,2.163796550420744591e+00,-2.915003314842221530e-08,1.301923315535947479e-01,-1.004207792078760883e-07,-2.055085953573493107e+00,-1.369108093976016821e-07,3.414133230476688670e-09,3.075645173525207721e-01,-4.143419063294623672e-09,1.850568696465227508e-02,-1.427392445155196540e-08,-2.921122687370361626e-01,-1.946065909224615474e-08
1.370000000000000107e+00,1.693581577469564948e-08,-3.632550135478940234e-02,-2.055343983266937923e-08,-1.782024970730920477e-01,-7.080583520744894600e-08,1.690976416298757723e+00,-9.653464437133866458e-08,2.405112286540222383e-08,2.166661783978122369e+00,-2.918863273541170581e-08,1.303647282778653549e-01,-1.005537533483462095e-07,-2.057807235866104811e+00,-1.370921025258199951e-07,2.946841293640844449e-09,2.654682049612277495e-01,-3.576309876715173879e-09,1.597281618298602643e-02,-1.232025441206058335e-08,-2.521309034484344180e-01,-1.679708140929554232e-08
1.380000000000000115e+00,1.717646654616089934e-08,-1.464631270581939759e-02,-2.084549551028171919e-08,-1.768980934239361980e-01,-7.181195614626863442e-08,1.670386404696832638e+00,-9.790636079469493923e-08,2.407825116564927327e-08,2.169105655382318254e+00,-2.922155585493000976e-08,1.305117722853380569e-01,-1.006671722696609319e-07,-2.060128325524061221e+00,-1.372467346292620199e-07,2.478686386193780623e-09,2.232941512746742518e-01,-3.008153382183687293e-09,1.343526782639435993e-02,-1.036297643565610567e-08,-2.120757026396349609e-01,-1.412858476866581473e-08
1.390000000000000124e+00,1.741736518021923991e-08,7.055204813662285801e-03,-2.113785199589537385e-08,-1.755923462807664204e-01,-7.281911335745651773e-08,1.649775186041897879e+00,-9.927949004206837026e-08,2.410069417491174471e-08,2.171127449157128186e+00,-2.924879286829132944e-08,1.306334205269030491e-01,-1.007610027669064151e-07,-2.062048543017164448e+00,-1.373746604373008579e-07,2.009806014441647133e-09,1.810547436421020284e-01,-2.439116458439733980e-09,1.089378722274982232e-02,-8.402665413384986769e-09,-1.719584313111059415e-01,-1.145595296031664213e-08
1.400000000000000133e+00,1.765846478997936627e-08,2.877482736611924885e-02,-2.143045238720860733e-08,-1.742855097854320578e-01,-7.382711081470108284e-08,1.629146771963045026e+00,-1.006537648568096398e-07,2.411844532607811551e-08,2.172726573699838237e+00,-2.927033580559723463e-08,1.307296374067291322e-01,-1.008352173840792373e-07,-2.063567326465219676e+00,-1.374758425172091592e-07,1.540337684690704145e-09,1.387623694127628760e-01,-1.869365984223018011e-09,8.349119699925564020e-03,-6.439896236294140965e-09,-1.317908544633250301e-01,-8.779969774208321730e-09
1.409999999999999920e+00,1.789971842975419721e-08,5.050832581735709148e-02,-2.172323971056466874e-08,-1.729778383984743040e-01,-7.483575224587542320e-08,1.608505179119916972e+00,-1.020289176471317787e-07,2.413149942709992235e-08,2.173902561281225498e+00,-2.928617836573668575e-08,1.308003947822638791e-01,-1.008897944140864088e-07,-2.064684231638035605e+00,-1.375502512741590695e-07,1.070418903247093950e-09,9.642941593589782201e-02,-1.299068838273098494e-09,5.802010585794093595e-03,-4.475243795429985435e-09,-9.158473709675975238e-02,-6.101419000300477390e-09
1.419999999999999929e+00,1.814107910881147582e-08,7.225146697525608452e-02,-2.201615693763961842e-08,-1.716695868245934897e-01,-7.584484119052621198e-08,1.587854428026208131e+00,-1.034046805644889701e-07,2.413985266099177114e-08,2.174655068045562079e+00,-2.929631591638605042e-08,1.308456719642335786e-01,-1.009247178987454250e-07,-2.065398931955427120e+00,-1.375978649512223891e-07,6.001871764170053689e-10,5.406827056075218241e-02,-7.283918993295927474e-10,3.253205208228170282e-03,-2.509282981839135881e-09,-5.135184421188166565e-02,-3.421084428552997677e-09
1.429999999999999938e+00,1.838249980512440302e-08,9.400001482850672829e-02,-2.230914700213021374e-08,-1.703610099381163145e-01,-7.685418105736282081e-08,1.567198541873165984e+00,-1.047807855819556322e-07,2.414350258583133043e-08,2.174983874010610663e+00,-2.930074549400910014e-08,1.308654557166432642e-01,-1.009399776287842661e-07,-2.065711218487213952e+00,-1.376186696293705467e-07,1.297800105065637100e-10,1.169132063656555705e-02,-1.575020461320407254e-10,7.034488951002141818e-04,-5.425886865679418609e-10,-1.110394080915688003e-02,-7.397498489254123630e-10
1.439999999999999947e+00,1.862393347912227122e-08,1.157497317853439789e-01,-2.260215281644178820e-08,-1.690523627084630776e-01,-7.786357518174649147e-08,1.546541545353089298e+00,-1.061569645726053275e-07,2.414244813475931812e-08,2.174888883067627177e+00,-2.929946580385697389e-08,1.308597402567766022e-01,-1.009355691438413315e-07,-2.065620999953218462e+00,-1.376126592274744666e-07,-3.406650881779459687e-10,-3.068904648740809760e-02,4.134338425798240074e-10,-1.846513025716492234e-03,1.424264199336579121e-09,2.914720811093482813e-02,1.941800948621840531e-09
1.449999999999999956e+00,1.886533308744111444e-08,1.374963799122848052e-01,-2.289511728837614391e-08,-1.677439001256146311e-01,-7.887282688317944139e-08,1.525887463482827000e+00,-1.075329493878900042e-07,2.413668961597954455e-08,2.174370122981360787e+00,-2.929247721996825423e-08,1.308285272551961975e-01,-1.009114937324655847e-07,-2.065128302723272302e+00,-1.375798355023048865e-07,-8.110106133303983071e-10,-7.306044346192920591e-02,9.842488880664616017e-10,-4.395935226349531252e-03,3.390700784828077921e-09,6.938983754792735215e-02,4.622784174129232472e-09
1.459999999999999964e+00,1.910665159667427245e-08,1.592357221728570860e-01,-2.318798333781935791e-08,-1.664358771255802227e-01,-7.988173952279377066e-08,1.505240320427283507e+00,-1.089084719360185092e-07,2.412622871275883633e-08,2.173427745390050791e+00,-2.927978178516886145e-08,1.307718258357431496e-01,-1.008677584321163025e-07,-2.064233270817205312e+00,-1.375202080485318810e-07,-1.281119058644612214e-09,-1.154104829377531338e-01,1.554776211588264276e-09,-6.944072378926182017e-03,5.356146178859971304e-09,1.096121825013497836e-01,7.302416037636916461e-09
1.469999999999999973e+00,1.934784199712313022e-08,1.809635236663438285e-01,-2.348069391342976726e-08,-1.651285485158637822e-01,-8.089011656084096457e-08,1.484604138322910050e+00,-1.102832642603362649e-07,2.411106848342713564e-08,2.172062025805432395e+00,-2.926138321107217596e-08,1.306896525755374683e-01,-1.008043760291634185e-07,-2.062936165904858843e+00,-1.374337942987253914e-07,-1.750852917814390286e-09,-1.577267775656338578e-01,2.124848934405605455e-09,-9.490179155573638670e-03,7.320025490385609652e-09,1.498024779707298748e-01,9.979912749184955957e-09
1.479999999999999982e+00,1.958885731654764236e-08,2.026755528665089567e-01,-2.377319200932573235e-08,-1.638221689009320969e-01,-8.189776161418056236e-08,1.463982936101212884e+00,-1.116570586177036246e-07,2.409121336137738772e-08,2.170273363612729156e+00,-2.923728687807890262e-08,1.305820315049776859e-01,-1.007213650588871132e-07,-2.061237367306072876e+00,-1.373206195233546161e-07,-2.220074684533591162e-09,-1.999969399963303640e-01,2.694300177778925413e-09,-1.203351022841939698e-02,9.281763828358576200e-09,1.899489589556001556e-01,1.265449051881372958e-08
1.489999999999999991e+00,1.982965063391702630e-08,2.243675828603375333e-01,-2.406542068177357568e-08,-1.625169926076812654e-01,-8.290447851376952748e-08,1.443380728312248618e+00,-1.130295875568752179e-07,2.406666915506562690e-08,2.168062282070658320e+00,-2.920749983537717667e-08,1.304489941077411896e-01,-1.006187498054781315e-07,-2.059137371990694465e+00,-1.371807168307885409e-07,-2.688646852495970395e-09,-2.422085828805922714e-01,3.262963062968539930e-09,-1.457332026959039066e-02,1.124078630173202281e-08,2.300398604554843018e-01,1.532536555656302946e-08
1.500000000000000000e+00,2.007017509316036607e-08,2.460353925867682090e-01,-2.435732306587541797e-08,-1.612132736109044284e-01,-8.391007136215126041e-08,1.422801523948126645e+00,-1.144005839968787956e-07,2.403744304801100970e-08,2.165429428311436144e+00,-2.917203080094260671e-08,1.302905793207843610e-01,-1.004965603020379417e-07,-2.056636794578581284e+00,-1.370141271672961235e-07,-3.156431915395401822e-09,-2.843493188691799678e-01,3.830670711234907476e-09,-1.710886395121419962e-02,1.319651801945959847e-08,2.700634174699161338e-01,1.799175407247332439e-08
1.510000000000000009e+00,2.031038391691724924e-08,2.676747680754301140e-01,-2.464884239225709377e-08,-1.599112654587587223e-01,-8.491434459094474387e-08,1.402249325266506474e+00,-1.157697813053943377e-07,2.400354359879563612e-08,2.162375573340759694e+00,-2.913089016153804638e-08,1.301068335343417426e-01,-1.003548323305779941e-07,-2.053736367339584312e+00,-1.368208993170451822e-07,-3.623292366925648647e-09,-3.264067606128438492e-01,4.397256243838354174e-09,-1.963939594541780354e-02,1.514838409049448648e-08,3.100078649984199797e-01,2.065287227658444952e-08
1.520000000000000018e+00,2.055023042028844355e-08,2.892815036853788602e-01,-2.493992200375602725e-08,-1.586112211982323161e-01,-8.591710301833374102e-08,1.381728126614097052e+00,-1.171369133771331884e-07,2.396498074106472836e-08,2.158901612037824602e+00,-2.908408997271381941e-08,1.298978105919268711e-01,-1.001936074220204356e-07,-2.050436940193565594e+00,-1.366010899021035077e-07,-4.089090700780521222e-09,-3.683685207623385582e-01,4.962552782039261980e-09,-2.216417092432843364e-02,1.709580962379006701e-08,3.498614380405243307e-01,2.330793637893651629e-08
1.530000000000000027e+00,2.078966802458640475e-08,3.108514033438245505e-01,-2.523050537210901218e-08,-1.573133933006122254e-01,-8.691815190655551714e-08,1.361241913250164082e+00,-1.185017147122164763e-07,2.392176578352664072e-08,2.155008563155325074e+00,-2.903164395880774272e-08,1.296635717903324436e-01,-1.000129328561981896e-07,-2.046739480710397352e+00,-1.363547633824389156e-07,-4.553689410653991199e-09,-4.102222119684331147e-01,5.526393447098207236e-09,-2.468244356007419718e-02,1.903821972830039683e-08,3.896123715957711675e-01,2.595616258957053610e-08
1.540000000000000036e+00,2.102865027108606574e-08,3.323802817848766633e-01,-2.552053611464023331e-08,-1.560180335869508772e-01,-8.791729701939050099e-08,1.340794660170019359e+00,-1.198639204945548718e-07,2.387391140995263129e-08,2.150697569319433455e+00,-2.897356751294482868e-08,1.294041858796289857e-01,-9.981286166185397618e-08,-2.042645074109943337e+00,-1.360819920559178441e-07,-5.016950990239628221e-09,-4.519554468818606785e-01,6.088611360275282386e-09,-2.719346852478102955e-02,2.097503951297785689e-08,4.292489006636685533e-01,2.859676711852525389e-08
1.550000000000000044e+00,2.126713083477533449e-08,3.538639657882702849e-01,-2.580995801094900663e-08,-1.547253931535336746e-01,-8.891434467965092713e-08,1.320390330928528977e+00,-1.212232666702269808e-07,2.382143167917715976e-08,2.145969897029827322e+00,-2.890987769703764241e-08,1.291197290631665162e-01,-9.959345261664155624e-08,-2.038154923262083251e+00,-1.357828560583072064e-07,-5.478737933231452331e-09,-4.935558381533945993e-01,6.649039642831121677e-09,-2.969650049057729474e-02,2.290569408677669754e-08,4.687592602437625766e-01,3.122896617584196561e-08
1.560000000000000053e+00,2.150506353810581040e-08,3.752982954181076636e-01,-2.609871501959775112e-08,-1.534357222973461166e-01,-8.990910182667021933e-08,1.300032876463608433e+00,-1.225794900258587307e-07,2.376434202509766240e-08,2.140826936659669055e+00,-2.884059324178606692e-08,1.288102849975733544e-01,-9.935477024712483170e-08,-2.033270348686695428e+00,-1.354574433632729614e-07,-5.938912733323194058e-09,-5.350109984337824143e-01,7.207511416026011937e-09,-3.219079412958979897e-02,2.482960855864996807e-08,5.081316853355749563e-01,3.385197597156031618e-08
1.570000000000000062e+00,2.174240236474337155e-08,3.966791252615882168e-01,-2.638675129479979849e-08,-1.521492704415410291e-01,-9.090137607379195054e-08,1.279726233919725065e+00,-1.239323282670021223e-07,2.370265925667470429e-08,2.135270202455618715e+00,-2.876573454667744201e-08,1.284759447927568410e-01,-9.909688482877841445e-08,-2.027992788553666603e+00,-1.351058497823811198e-07,-6.397337884208679057e-09,-5.763085403737799872e-01,7.763859801120354150e-09,-3.467560411394585151e-02,2.674620803755112143e-08,5.473544109386352385e-01,3.646501271572051298e-08
1.580000000000000071e+00,2.197910147331879178e-08,4.180023256677443122e-01,-2.667401120310727892e-08,-1.508662860609058798e-01,-9.189097576585889543e-08,1.259474325471399148e+00,-1.252815200965141921e-07,2.363640155793185687e-08,2.129301332537824720e+00,-2.868532367998645182e-08,1.281168070119028390e-01,-9.881987238598717643e-08,-2.022323798682886142e+00,-1.347281789650969234e-07,-6.853875879581750354e-09,-6.174360766241451248e-01,8.317917919374567493e-09,-3.715018511577287269e-02,2.865491763243366682e-08,5.864156720524748012e-01,3.906729261836283288e-08
1.590000000000000080e+00,2.221511521117844045e-08,4.392637839861801563e-01,-2.696043934009903334e-08,-1.495870166073297036e-01,-9.287771003670241386e-08,1.239281057146699450e+00,-1.266268052929363858e-07,2.356558848795580053e-08,2.122922088899932280e+00,-2.859938437877522077e-08,1.277329776714760667e-01,-9.852381469204663341e-08,-2.016265052544249592e+00,-1.343245423987854538e-07,-7.308389213136235259e-09,-6.583812198356338019e-01,8.869518892049058738e-09,-3.961379180719818566e-02,3.055516245225106382e-08,6.253037036766233570e-01,4.165803188952748658e-08
1.600000000000000089e+00,2.245039812813484326e-08,4.604594058058026906e-01,-2.724598054706845620e-08,-1.483117084352706117e-01,-9.386138886663123871e-08,1.219150317650746551e+00,-1.279679247888731376e-07,2.349024098089622203e-08,2.116134357409073186e+00,-2.850794204889321096e-08,1.273245702412198199e-01,-9.820879926916256121e-08,-2.009818341257654684e+00,-1.338950594087112091e-07,-7.760740378565833696e-09,-6.991315826589906690e-01,9.418495840404071703e-09,-4.206567886034841969e-02,3.244636760595622605e-08,6.640067408105997382e-01,4.423644673925394363e-08
1.610000000000000098e+00,2.268490499021735226e-08,4.815851161935575941e-01,-2.753057992771137133e-08,-1.470406067272228001e-01,-9.484182313992081967e-08,1.199085977189211505e+00,-1.293046207493711106e-07,2.341038134596593030e-08,2.108940147805877796e+00,-2.841102376497734466e-08,1.268917056441563052e-01,-9.787491938845140594e-08,-2.002985573593007107e+00,-1.334398571580384211e-07,-8.210791869564545854e-09,-7.396747777449875771e-01,9.964681885700222436e-09,-4.450510094735184857e-02,3.432795820250333770e-08,7.025130184539488676e-01,4.680175337758340071e-08
1.620000000000000107e+00,2.291859079342273974e-08,5.026368609331635096e-01,-2.781418286481389785e-08,-1.457739554191839204e-01,-9.581882470230221698e-08,1.179091886291818048e+00,-1.306366366502979881e-07,2.332603326744072080e-08,2.101341593704462163e+00,-2.830865827045186528e-08,1.264345122565861679e-01,-9.752227406993983406e-08,-1.995768775970212738e+00,-1.329590706478307120e-07,-8.658406179826056768e-09,-7.799984177443678446e-01,1.050791014919773986e-08,-4.693131274033501832e-02,3.619935935084524623e-08,7.408107716061881343e-01,4.935316801455523474e-08
1.630000000000000115e+00,2.315141077746585169e-08,5.236106077638467138e-01,-2.809673503694031613e-08,-1.445119971261223379e-01,-9.679220641845127311e-08,1.159171874635841037e+00,-1.319637173567215552e-07,2.323722180465954093e-08,2.093340952592442239e+00,-2.820087597752850282e-08,1.259531259080891863e-01,-9.715096808256528821e-08,-1.988170092459187632e+00,-1.324528427170516495e-07,-9.103445803044192093e-09,-8.200901153078874461e-01,1.104801375215702331e-08,-4.934356891142524515e-02,3.805999615993540127e-08,7.788882352668473619e-01,5.188990686020964978e-08
1.640000000000000124e+00,2.338332043953028110e-08,5.445023476190817835e-01,-2.837818243512102635e-08,-1.432549730674439470e-01,-9.776178222947795647e-08,1.139329749869602448e+00,-1.332856092012889932e-07,2.314397339202434780e-08,2.084940605830922333e+00,-2.808770896720633164e-08,1.254476898815236330e-01,-9.676111194417551076e-08,-1.980191784779850250e+00,-1.319213240425641910e-07,-9.545773232912858548e-09,-8.599374830863096841e-01,1.158482581583857303e-08,-5.174112413275028244e-02,3.990929373872758997e-08,8.167336444354632574e-01,5.441118612458729329e-08
1.650000000000000133e+00,2.361427554801893209e-08,5.653080958653193822e-01,-2.865847137954032512e-08,-1.420031229924597349e-01,-9.872736721041518907e-08,1.119569296435976913e+00,-1.346020600626055377e-07,2.304631583900013464e-08,2.076143058654496887e+00,-2.796919098927178693e-08,1.249183549130263027e-01,-9.635282192152854383e-08,-1.971836232302120129e+00,-1.313646731391306842e-07,-9.985250963125804034e-09,-8.995281337303835389e-01,1.211817946150269569e-08,-5.412323307643704395e-02,4.174667719617493110e-08,8.543352341115586501e-01,5.691622201772791936e-08
1.660000000000000142e+00,2.384423215630464028e-08,5.860238935407198202e-01,-2.893754853622426144e-08,-1.407566851058532076e-01,-9.968877762770784605e-08,1.099894274395893046e+00,-1.359128194436131899e-07,2.294427833011502681e-08,2.066950940171258910e+00,-2.784535746229879050e-08,1.243652791920131923e-01,-9.592622003029327191e-08,-1.963105932045928315e+00,-1.307830563594135547e-07,-1.042174148737683766e-08,-9.388496798908635421e-01,1.264790781040977078e-08,-5.648915041461273490e-02,4.357157164123080151e-08,8.916812392946620314e-01,5.940423074967161958e-08
1.669999999999999929e+00,2.407314661648086264e-08,6.066458085938946088e-01,-2.921536093372859863e-08,-1.395158959931471210e-01,-1.006458309967021789e-07,1.080308418251827440e+00,-1.372176385499704081e-07,2.283789142496016924e-08,2.057367003362790214e+00,-2.771624547364859524e-08,1.237886283611787236e-01,-9.548143403504877333e-08,-1.954003498681206041e+00,-1.301766478939745122e-07,-1.085510729935980328e-08,-9.778897342185073338e-01,1.317384398382022243e-08,-5.883813081940478251e-02,4.538340218284872363e-08,9.287598949843044460e-01,6.187442853045870390e-08
1.679999999999999938e+00,2.430097559311233755e-08,6.271699371226444608e-01,-2.949185597982671665e-08,-1.382809905461706290e-01,-1.015983461391349872e-07,1.060815435771303328e+00,-1.385162703684309244e-07,2.272718705818975629e-08,2.047394125084163630e+00,-2.758189377946985132e-08,1.231885755164960072e-01,-9.501859744928461146e-08,-1.944531664527889392e+00,-1.295456297712748151e-07,-1.128521089276851001e-08,-1.016635909364069557e+00,1.369582110299443177e-08,-6.116942896294041282e-02,4.718159392998207433e-08,9.655594361800143854e-01,6.432603157012925729e-08
1.689999999999999947e+00,2.452767607698555630e-08,6.475924046126764200e-01,-2.976698147819727948e-08,-1.370522018885272919e-01,-1.025461432406220754e-07,1.041419006810403225e+00,-1.398084697452220595e-07,2.261219853952106144e-08,2.037035306063946116e+00,-2.744234280469861939e-08,1.225653012072169812e-01,-9.453784953540088762e-08,-1.934693279555919965e+00,-1.288901918576754822e-07,-1.171191476129680335e-08,-1.055075817978307740e+00,1.421367228919281964e-08,-6.348229951734704612e-02,4.896557199158437603e-08,1.002068097881323006e+00,6.675825607872358309e-08
1.699999999999999956e+00,2.475320539885958197e-08,6.679093671763614015e-01,-3.004068564511237573e-08,-1.358297613010613081e-01,-1.034890439081482057e-07,1.022122782137252273e+00,-1.410939934644247839e-07,2.249296055373444069e-08,2.026293670904199207e+00,-2.729763464305838053e-08,1.219189934358724109e-01,-9.403933530470818818e-08,-1.924491311385245984e+00,-1.282105318574371341e-07,-1.213508139863849242e-08,-1.093197072711976636e+00,1.472723066367577213e-08,-6.577599715475190845e-02,5.073476147660901882e-08,1.038274115087758798e+00,6.917031826628179274e-08
1.709999999999999964e+00,2.497752124321655069e-08,6.881170127914508772e-01,-3.031291712612517606e-08,-1.346138981473254670e-01,-1.044268712275555415e-07,1.002930382255532216e+00,-1.423726003263517149e-07,2.236950916067326629e-08,2.015172468080472346e+00,-2.714781305705995354e-08,1.212498476582715146e-01,-9.352320551742743893e-08,-1.913928845285815861e+00,-1.275068553127198078e-07,-1.255457329848735655e-08,-1.130987286215828114e+00,1.523632934770363066e-08,-6.804977654728208702e-02,5.248858749400924060e-08,1.074165722798847700e+00,7.156143434284381238e-08
1.719999999999999973e+00,2.520058166201236810e-08,7.082115625398237579e-01,-3.058362501275795136e-08,-1.334048397990479085e-01,-1.053594498210331368e-07,9.838453962279709586e-01,-1.436440512259268865e-07,2.224188179524402609e-08,2.003675069941812659e+00,-2.699292347800162395e-08,1.205580667835025876e-01,-9.298961668269023597e-08,-1.903009084177588184e+00,-1.267793756035834594e-07,-1.297025295453727102e-08,-1.168434071140622477e+00,1.574080146253685743e-08,-7.030289236706513400e-02,5.422647515273870276e-08,1.109731156014122977e+00,7.393082051845009756e-08
1.729999999999999982e+00,2.542234508842729995e-08,7.281892718462137370e-01,-3.085275885918984934e-08,-1.322028115615996591e-01,-1.062866059046057905e-07,9.648713804998503285e-01,-1.449081092310642233e-07,2.211011726741621098e-08,1.991804972710754962e+00,-2.683301300596900509e-08,1.198438611739323090e-01,-9.243873105853842221e-08,-1.891735348630521507e+00,-1.260283139479872234e-07,-1.338198286048191590e-08,-1.205525040137102710e+00,1.624048012943567309e-08,-7.253459928622760233e-02,5.594784956175023953e-08,1.144958649733102574e+00,7.627769300314003179e-08
1.739999999999999991e+00,2.564277035061669836e-08,7.480464317169548405e-01,-3.112026869894491594e-08,-1.310080365994611973e-01,-1.072081673456236280e-07,9.460118577224951864e-01,-1.461645396610471512e-07,2.197425576222241417e-08,1.979565796483328421e+00,-2.666813040983514392e-08,1.191074486452062819e-01,-9.187071665192440500e-08,-1.880111076864581232e+00,-1.252538994017901798e-07,-1.378962551001533027e-08,-1.242247805856043774e+00,1.673519846966074167e-08,-7.474415197689794621e-02,5.765213582999818729e-08,1.179836438955333966e+00,7.860126800695502353e-08
1.750000000000000000e+00,2.586181668546140047e-08,7.677793699786941151e-01,-3.138610506157966352e-08,-1.298207358616911000e-01,-1.081239637202501880e-07,9.272703155767936245e-01,-1.474131101649063562e-07,2.183433883975829152e-08,1.966961285229056333e+00,-2.649832612726049793e-08,1.183490544662488819e-01,-9.128574721871114287e-08,-1.868139824749738720e+00,-1.244563688587509047e-07,-1.419304339683114457e-08,-1.278589980948184435e+00,1.722478960447222426e-08,-7.693080511120244103e-02,5.933875906643518173e-08,1.214352758680330435e+00,8.090076173993413865e-08
1.760000000000000009e+00,2.607944375231869956e-08,7.873844525171584952e-01,-3.165021898937138675e-08,-1.286411280073911645e-01,-1.090338263709529702e-07,9.086502055966696467e-01,-1.486535907998006139e-07,2.169040943518253832e-08,1.953995306790951680e+00,-2.632365226469287884e-08,1.175689113592630480e-01,-9.068400226367190734e-08,-1.855825265805967073e+00,-1.236359670505274961e-07,-1.459209901462331513e-08,-1.314539178064292546e+00,1.770908665513068233e-08,-7.909381336126911077e-02,6.100714438001520852e-08,1.248495843907632796e+00,8.317539041211833564e-08
