sakibchowdhury131/FrankaEmikaControl_lowerLevel/throw_trajectory.csv
t,q0,q1,q2,q3,q4,q5,q6,dq0,dq1,dq2,dq3,dq4,dq5,dq6,ddq0,ddq1,ddq2,ddq3,ddq4,ddq5,ddq6,tau0,tau1,tau2,tau3,tau4,tau5,tau6
0.000000000000000000e+00,0.000000000000000000e+00,-7.850000000000000311e-01,0.000000000000000000e+00,-2.355999999999999872e+00,0.000000000000000000e+00,1.570999999999999952e+00,7.850000000000000311e-01,0.000000000000000000e+00,0.000000000000000000e+00,0.000000000000000000e+00,0.000000000000000000e+00,0.000000000000000000e+00,0.000000000000000000e+00,0.000000000000000000e+00,0.000000000000000000e+00,0.000000000000000000e+00,0.000000000000000000e+00,0.000000000000000000e+00,0.000000000000000000e+00,0.000000000000000000e+00,0.000000000000000000e+00,2.220446049250313081e-16,-3.180824305444683642e+00,-6.850747565644559334e-01,2.008722847768874331e+01,1.177199975578971713e+00,1.684180799999999811e+00,0.000000000000000000e+00
1.000626390697146413e-03,1.621219173699144064e-08,-7.849999890568468697e-01,8.947367593422983086e-09,-2.356000008816287128e+00,1.453583029569327497e-09,1.570999998101600736e+00,7.850000003770011281e-01,4.857204576608113933e-05,3.278638686256822615e-05,2.680595216902388560e-05,-2.641027254162757140e-05,4.354862083323865806e-06,-5.686048990264585465e-06,1.129525357978913141e-06,9.694707039176510277e-02,6.544171947913129950e-02,5.350102349275557417e-02,-5.269943519687930733e-02,8.691654607878573913e-03,-1.134266578619597642e-02,2.254560754304119237e-03,2.060831248000448979e-01,-2.945819061829623831e+00,-4.893733436841801732e-01,1.989531899033996609e+01,1.160672127094912742e+00,1.587715828339955060e+00,-7.952601735535456962e-02
2.001252781394292826e-03,1.294248497504799436e-07,-7.849999126349618273e-01,7.142415058611741112e-08,-2.356000070354038911e+00,1.160340513693768060e-08,1.570999984857474274e+00,7.850000030098505110e-01,1.937433822208315011e-04,1.307855451927558926e-04,1.069145521731982781e-04,-1.052889543876642882e-04,1.736898301909273187e-05,-2.265495708644392860e-05,4.505798915005176750e-06,1.930780158504458721e-01,1.303441429660129880e-01,1.065387774758616429e-01,-1.048713901684685673e-01,1.730771174977820126e-02,-2.255166220182220835e-02,4.490691856665698228e-03,4.104173232761339496e-01,-2.712914621452886976e+00,-2.953439555258423610e-01,1.970518018885673328e+01,1.144290251115697155e+00,1.492148912113279380e+00,-1.583767631181756674e-01
3.001879172091439021e-03,4.358895767685053876e-07,-7.849997057504645159e-01,2.405346769029483637e-07,-2.356000236850722462e+00,3.907633860908260596e-08,1.570999949044542765e+00,7.850000101374857708e-01,4.346985034562798845e-04,2.934585803563873724e-04,2.398628904291330978e-04,-2.361090209726598326e-04,3.896682429132969095e-05,-5.077318161292138055e-05,1.011040463349500773e-05,2.883950954373452613e-01,1.947087478713420694e-01,1.591145613633185574e-01,-1.565174360677037413e-01,2.584838389971005207e-02,-3.362740983183484800e-02,6.708443592628916992e-03,6.130074675471078871e-01,-2.482107289431419339e+00,-1.029825947332831532e-01,1.951680738798754788e+01,1.128053737943645496e+00,1.397477220076388971e+00,-2.365541064187904330e-01
4.002505562788585651e-03,1.031043089731972079e-06,-7.849993039579664655e-01,5.689207254443300562e-07,-2.356000560017236012e+00,9.242377627052011755e-08,1.570999879573143243e+00,7.850000239804422186e-01,7.706241640408131865e-04,5.202680760554208046e-04,4.251893575813796788e-04,-4.183450198682555124e-04,6.907305999116075549e-05,-8.990760074248698374e-05,1.792497679290721633e-05,3.829005682137660571e-01,2.585370116058156031e-01,2.112296745691266686e-01,-2.076391440475208183e-01,3.431388353168529637e-02,-4.457032926119004757e-02,8.907866247737960749e-03,8.138584378531962260e-01,-2.253393508081331653e+00,8.771485415250293571e-02,1.933019592713039003e+01,1.111961885915771830e+00,1.303697924103822459e+00,-3.140599114842251849e-01
5.003131953485732281e-03,2.009509481686947925e-06,-7.849986433490929727e-01,1.108762827128618374e-06,-2.356001091039483075e+00,1.801218442235826246e-07,1.570999765486607691e+00,7.850000467409028460e-01,1.200709379019175745e-03,8.106780943279472606e-04,6.624336445024301898e-04,-6.514730707831840710e-04,1.076125768168148517e-04,-1.399255134963374371e-04,2.793119998974317081e-05,4.765966932410112822e-01,3.218304115801308152e-01,2.628854165072863069e-01,-2.582380852608557320e-01,4.270442311971511112e-02,-5.538084107484395058e-02,1.108901010753700692e-02,1.012975122444535137e+00,-2.026769852127987548e+00,2.767526214549965724e-01,1.914534116938049024e+01,1.096013904366733183e+00,1.210808199136899521e+00,-3.908960378410905045e-01
6.003758344182878043e-03,3.465102483676961734e-06,-7.849976605510027294e-01,1.911781565934500530e-06,-2.356001880579944974e+00,3.105716145886969371e-07,1.570999595960842043e+00,7.850000806027490619e-01,1.724145423912469641e-03,1.164154175548191145e-03,9.511367422927180645e-04,-9.349708655632693079e-04,1.545104740736237645e-04,-2.006946397440759243e-04,4.011080913754680737e-05,5.694857295803836816e-01,3.845904252049845429e-01,3.140830865917977888e-01,-3.083158308606443465e-01,5.102021513781064554e-02,-6.605936585775271097e-02,1.325192545757023811e-02,1.210362417470072671e+00,-1.802233023978325521e+00,4.641350491644057330e-01,1.896223850058787974e+01,1.080208916550755571e+00,1.118805223132554705e+00,-4.670643405144569438e-01
7.004384734880024672e-03,5.490827726635307748e-06,-7.849962927249102274e-01,3.029238879943390829e-06,-2.356002978779254686e+00,4.920993182446626944e-07,1.570999360303904302e+00,7.850001277316108750e-01,2.340125834718155898e-03,1.580163338426510871e-03,1.290840942280618246e-03,-1.268317668191427895e-03,2.096920636740223374e-04,-2.720831202037126556e-04,5.444558946690471570e-05,6.615699362931861671e-01,4.468185298910740122e-01,3.648239842366614583e-01,-3.578739519998227481e-01,5.926147205998310435e-02,-7.660632419487248268e-02,1.539666258338183609e-02,1.406025226866983724e+00,-1.579779849054933738e+00,6.498665877797614732e-01,1.878088332842447272e+01,1.064545962522739808e+00,1.027686177012293811e+00,-5.425666702225420135e-01
8.005011125577171302e-03,8.178885003277337721e-06,-7.849944775646044981e-01,4.511939362381819804e-06,-2.356004435257769813e+00,7.329565575689295556e-07,1.570999047955584205e+00,7.850001902749176308e-01,3.047846407910052412e-03,2.058174080009398266e-03,1.681089836022446561e-03,-1.650994314787666666e-03,2.730828701375481813e-04,-3.539595164416640548e-04,7.091737652544596621e-05,7.528515724407216503e-01,5.085162030490962826e-01,4.151094088558777151e-01,-4.069140198313268564e-01,6.742840636024365064e-02,-8.702213667115939189e-02,1.752327177051598781e-02,1.599968462250708212e+00,-1.359407271191295674e+00,8.339517931901493375e-01,1.860127108146043895e+01,1.049024001978708265e+00,9.374482446112184508e-01,-6.174048735670440990e-01
9.005637516274317064e-03,1.162067052999276550e-05,-7.849921532949714065e-01,6.410231562663823939e-06,-2.356006299117145097e+00,1.041320519177875741e-06,1.570998648486980453e+00,7.850002703619474165e-01,3.846505200438334830e-03,2.597656375679476947e-03,2.121428315302459778e-03,-2.082483213609084838e-03,3.446086305908418503e-04,-4.461928108727534776e-04,8.950805617784224214e-05,8.433328970842929317e-01,5.696849220897484134e-01,4.649406598634467924e-01,-4.554376055080925356e-01,7.552123051260342668e-02,-9.730722387156962028e-02,1.963180330451686634e-02,1.792197042805737661e+00,-1.141112348087826023e+00,1.016395323594377453e+00,1.842339720824981342e+01,1.033641917055819093e+00,8.480886126271066638e-01,-6.915807932189750318e-01
1.000626390697146456e-02,1.590677920873797223e-05,-7.849892586705133901e-01,8.774009287433346817e-06,-2.356008618941904054e+00,1.425294186667087803e-06,1.570998151600082604e+00,7.850003701038783532e-01,4.735302529729540008e-03,3.198081679155506760e-03,2.611402572132857664e-03,-2.562268345049873147e-03,4.241952947676470723e-04,-5.486524067602111844e-04,1.101995646058078734e-04,9.330161692852032562e-01,6.303261644237273531e-01,5.143190366733692009e-01,-5.034462801830559275e-01,8.354015699107363024e-02,-1.074620063810592940e-01,2.172230747092865691e-02,1.982715895177225462e+00,-9.248922468281132181e-01,1.197201936458412552e+00,1.824725717642495226e+01,1.018398515092120205e+00,7.596044705694957599e-01,-7.650962680998508736e-01
1.100689029766861032e-02,2.112700688892827348e-05,-7.849857329738710865e-01,1.165271290160661487e-05,-2.356011442801017708e+00,1.892906553351633516e-06,1.570997547127346738e+00,7.850004915938386674e-01,5.713440973686554313e-03,3.858922922492377932e-03,3.150560098753777457e-03,-3.089835261641311458e-03,5.117690250088098277e-04,-6.612081282156731478e-04,1.329738883080996200e-04,1.021903648104754758e+00,6.904414074617304387e-01,5.632458386996451738e-01,-5.509416150091527298e-01,9.148539826966543831e-02,-1.174869047845845671e-01,2.379483455529553954e-02,2.171529953363533050e+00,-7.107442394549143838e-01,1.376376485509961611e+00,1.807284647179989179e+01,1.003292531346271055e+00,6.719930107087281890e-01,-8.379531335581253959e-01
1.200751668836575609e-02,2.737035262933026379e-05,-7.849815160143429615e-01,1.509533062941454317e-05,-2.356014818249470455e+00,2.452112835006345407e-06,1.570996825031276911e+00,7.850006369069568724e-01,6.780125370688628791e-03,4.579654516081114318e-03,3.738449687633300152e-03,-3.664671088051775494e-03,6.072561962622797854e-04,-7.837302201991826244e-04,1.578130641005169696e-04,1.109997592604251349e+00,7.500321286144543409e-01,6.117223653562751107e-01,-5.979251811393190286e-01,9.935716682238998620e-02,-1.273823396671016073e-01,2.584943484316169771e-02,2.358644158609795038e+00,-4.986656986054358587e-01,1.553923917769615137e+00,1.790016059748226951e+01,9.883226316774336162e-01,5.852514280249713208e-01,-9.101532215407569515e-01
1.300814307906290358e-02,3.472502095995411305e-05,-7.849765481264074918e-01,1.915039985544513240e-05,-2.356018792329839684e+00,3.110794682606099417e-06,1.570995975404002598e+00,7.850008081004120619e-01,7.934562819591376576e-03,5.359752348648878610e-03,4.374621431467450722e-03,-4.286264521086730755e-03,7.105833960831092191e-04,-9.160893485191904263e-04,1.846991791159019621e-04,1.197300261844995051e+00,8.090998052925966189e-01,6.597499160572593002e-01,-6.443985497264909101e-01,1.071556751232584925e-01,-1.371487316135665546e-01,2.788615862007131491e-02,2.544063459302572383e+00,-2.886540932054523223e-01,1.729849270617950241e+00,1.772919507299373976e+01,9.734874151855509306e-01,4.993769201571203742e-01,-9.816983607598139816e-01
1.400876946976004934e-02,4.327842414394578993e-05,-7.849707701682424599e-01,2.386600842568582673e-05,-2.356023411573862969e+00,3.876760395066081590e-06,1.570994988466856812e+00,7.850010072134846473e-01,9.175962679726755097e-03,6.198693787258956721e-03,5.058626723180185969e-03,-4.954105829688731227e-03,8.216774246334530071e-04,-1.058156599832552102e-03,2.136143708041390670e-04,1.283813914888289220e+00,8.676459149068538323e-01,7.073297902165979201e-01,-6.903632919236040166e-01,1.148811356462820926e-01,-1.467865012089354937e-01,2.990505617156856769e-02,2.727792810865676376e+00,-8.070698422185540455e-02,1.904157668898085909e+00,1.755994543339879144e+01,9.587854168122448284e-01,4.143666873516301252e-01,-1.052590376854033671e+00
1.500939586045719684e-02,5.311718443947949713e-05,-7.849641235202464706e-01,2.928979594856597179e-05,-2.356028722004015918e+00,4.757745131982086120e-06,1.570993854569958215e+00,7.850012362676066502e-01,1.050353657090309471e-02,7.095957677310779470e-03,5.790018255923416214e-03,-5.667686854937428048e-03,9.404652946825694994e-04,-1.209803481644531296e-03,2.445408269321556311e-04,1.369540810795436547e+00,9.256719348679235404e-01,7.544632872482917030e-01,-7.358209788835946563e-01,1.225337608654720051e-01,-1.562960690381647033e-01,3.190617778319764647e-02,2.909837175657230546e+00,1.251779795269474249e-01,2.076854322053165891e+00,1.739240722844182940e+01,9.442151099025470895e-01,3.302179324112051173e-01,-1.122831092545274911e+00
1.601002225115434260e-02,6.432713636164980508e-05,-7.849565500835596898e-01,3.546895509599910144e-05,-2.356034769135082918e+00,5.761411126370772083e-06,1.570992564191786123e+00,7.850014972664112189e-01,1.191649837340507181e-02,8.051024342539901332e-03,6.568350023076983610e-03,-6.426501010049558670e-03,1.066874231606819651e-03,-1.370901922308797802e-03,2.774607855839212006e-04,1.454483208627739721e+00,9.831793425865025249e-01,8.011517065663406045e-01,-7.807731817593985824e-01,1.301137632548393375e-01,-1.656778556862102125e-01,3.388957374050272087e-02,3.090201522868004425e+00,3.290030655030070639e-01,2.247944521298268494e+00,1.722657602169234536e+01,9.297749087277131785e-01,2.469278606433554235e-01,-1.192422327789792957e+00
1.701064864185148837e-02,7.699332894436408377e-05,-7.849479922785844721e-01,4.245023290442545669e-05,-2.356041597975730095e+00,6.895347897409956609e-06,1.570991107938761511e+00,7.850017921957845868e-01,1.341406422799372444e-02,9.063375585018015185e-03,7.393177318248673850e-03,-7.230043280378954662e-03,1.200831673389666805e-03,-1.541324271027428097e-03,3.123565351604481446e-04,1.538643367446502097e+00,1.040169615473287790e+00,8.473963475847451354e-01,-8.252214717039516589e-01,1.376213552883952806e-01,-1.749322817380282447e-01,3.585529432902798130e-02,3.268890828421111561e+00,5.307704615237986978e-01,2.417433636826309851e+00,1.706244738969816055e+01,9.154631709693418218e-01,1.644936798087895391e-01,-1.261365899924303147e+00
1.801127503254863413e-02,9.120002800223478889e-05,-7.849383930435056556e-01,5.027993207585428769e-05,-2.356049253030080948e+00,8.167072463178886446e-06,1.570989476544826458e+00,7.850021230239143666e-01,1.499545253590645576e-02,1.013249468515294710e-02,8.264056735274217039e-03,-8.077810223416538246e-03,1.342265270621678533e-03,-1.720943297850905567e-03,3.492104143797914654e-04,1.622023546313026365e+00,1.096644230938976783e+00,8.931985097175055843e-01,-8.691674198701899723e-01,1.450567494401510116e-01,-1.840597677785748842e-01,3.780338983431760086e-02,3.445910074873079321e+00,7.304822797803270928e-01,2.585327115047489688e+00,1.690001692114667975e+01,9.012782001650452290e-01,8.291260006964384921e-02,-1.329663623806786044e+00
1.901190142324578336e-02,1.070307183924717413e-04,-7.849276958328121889e-01,5.900391227890628462e-05,-2.356057778299286642e+00,9.584029553398521384e-06,1.570987660871021374e+00,7.850024917013417314e-01,1.665988395885702189e-02,1.125786640168865808e-02,9.180546168217286820e-03,-8.969299968790329231e-03,1.491102886500524907e-03,-1.909632193678120499e-03,3.880048122770486901e-04,1.704626004288615215e+00,1.152604666394266175e+00,9.385594923786226840e-01,-9.126125974110494976e-01,1.524201581841177489e-01,-1.930607343928063824e-01,3.973391054191576649e-02,3.621264251316356653e+00,9.281405607991642936e-01,2.751630475861860603e+00,1.673928021603403948e+01,8.872182481159336387e-01,2.181833937531546530e-03,-1.397317311952020802e+00
2.001252781394292912e-02,1.245681062767742503e-04,-7.849158446158172042e-01,6.866759144985589997e-05,-2.356067217283099424e+00,1.115359182217179650e-05,1.570985651905064673e+00,7.850029001610109303e-01,1.840658141903552328e-02,1.243897697170523453e-02,1.014220481136948217e-02,-9.904012218265425063e-03,1.647272596830977407e-03,-2.107264570256367920e-03,4.287221682043596536e-04,1.786453000434571781e+00,1.208052399249853082e+00,9.834805949820961679e-01,-9.555585754794663211e-01,1.597117939943066001e-01,-2.019356021656787958e-01,4.164690673736666515e-02,3.794958353283274910e+00,1.123747277348422280e+00,2.916349309964661796e+00,1.658023288484194424e+01,8.732815172561348982e-01,-7.770140377860540459e-02,-1.464328774661818322e+00
2.101315420464007488e-02,1.438941213832237458e-04,-7.849027838751788666e-01,7.931594709367386753e-05,-2.356077612981448244e+00,1.288306006072392000e-05,1.570983440760931549e+00,7.850033503183198036e-01,2.023477009910843588e-02,1.367531411061890557e-02,1.114859315925035947e-02,-1.088144824574402425e-02,1.810702690024911963e-03,-2.313714460181351927e-03,4.713449718309070408e-04,1.867506793812198973e+00,1.262988906916434617e+00,1.027963116941926769e+00,-9.980069252283759740e-01,1.669318693447287283e-01,-2.106847916821482924e-01,4.354242870621446992e-02,3.966997382651510140e+00,1.317304338288260102e+00,3.079489276184018909e+00,1.642287054772253185e+01,8.594661629846234163e-01,-1.567398960248257422e-01,-1.530699820149965529e+00
2.201378059533722065e-02,1.650899192681758675e-04,-7.848884586054212242e-01,9.099351758506949079e-05,-2.356089007896007281e+00,1.477966341014264561e-05,1.570981018678433427e+00,7.850038440711697429e-01,2.214367744221858864e-02,1.496636701218202921e-02,1.219927300660741259e-02,-1.190111089726542115e-02,1.981321667101307218e-03,-2.528856316897182006e-03,5.158557631429161157e-04,1.947789643482799260e+00,1.317415666804708119e+00,1.072008357672114220e+00,-1.039959217810714653e+00,1.740805967093953521e-01,-2.193087235271710400e-01,4.542052673400336776e-02,4.137386347551036181e+00,1.508813592366254452e+00,3.241056098850674250e+00,1.626718883369073865e+01,8.457702959596239412e-01,-2.349364235547244106e-01,-1.596432254661861450e+00
2.301440698603436641e-02,1.882358835781527853e-04,-7.848728143114550582e-01,1.037444034695330942e-04,-2.356101444031776015e+00,1.685055957411854414e-05,1.570978377022796080e+00,7.850043833000165394e-01,2.413253315198517213e-02,1.631162634848309576e-02,1.329380744841607460e-02,-1.296250459100599210e-02,2.159058241686245393e-03,-2.752565014696374546e-03,5.622371324436547212e-04,2.027303808507676219e+00,1.371334156325370257e+00,1.115617616586659810e+00,-1.081417024379418335e+00,1.811581885623176347e-01,-2.278078182857032341e-01,4.728125110627753175e-02,4.306130262272638731e+00,1.698276831957965971e+00,3.401055565199453401e+00,1.611318337982453031e+01,8.321919843558123198e-01,-3.122937649821756478e-01,-1.661527882588884397e+00
2.401503337673151217e-02,2.134116283117355056e-04,-7.848557970070982881e-01,1.176122687643783453e-04,-2.356114962898644194e+00,1.910283503168527845e-05,1.570975507284238404e+00,7.850049698679206767e-01,2.620056919250372124e-02,1.771058426994673307e-02,1.443176087987971604e-02,-1.406513531727920929e-02,2.343841340012909041e-03,-2.984715848719852408e-03,6.104717203534330621e-04,2.106051547948131653e+00,1.424745852889118591e+00,1.158792193099563494e+00,-1.122381916087422882e+00,1.881648573775067390e-01,-2.361824965427009315e-01,4.912465210858115577e-02,4.473234147177928222e+00,1.885695796753183107e+00,3.559493522802109400e+00,1.596084983047268935e+01,8.187292560846465284e-01,-3.888146968342540699e-01,-1.725988506577489368e+00
2.501565976742866140e-02,2.406960000814563675e-04,-7.848373532135968222e-01,1.326403422597847537e-04,-2.356129605512971459e+00,2.154350524995991232e-05,1.570972401077552538e+00,7.850056056205975130e-01,2.834701978834615679e-02,1.916273440533370481e-02,1.561269899642966398e-02,-1.520851063853564250e-02,2.535600100921587760e-03,-3.225184534956947527e-03,6.605422178096046273e-04,2.184035120865470248e+00,1.477652233906649570e+00,1.201533386624825228e+00,-1.162855464087664492e+00,1.951008156289738005e-01,-2.444331788831203278e-01,5.095078002645841292e-02,4.638703028610946077e+00,2.071072177388067814e+00,3.716375877031317110e+00,1.581018383647037417e+01,8.053801009780210407e-01,-4.645019936043719988e-01,-1.789815927633080062e+00
2.601628615812580717e-02,2.701670803756907801e-04,-7.848174299581456292e-01,1.488714188198399658e-04,-2.356145412399157646e+00,2.417951489688313619e-05,1.570969050141681533e+00,7.850062923864674636e-01,3.057112142456071616e-02,2.066757186174089655e-02,1.683618879372516391e-02,-1.639213968936293481e-02,2.734263875859669311e-03,-3.473847210245393103e-03,7.124313660665642376e-04,2.261256786320992695e+00,1.530054776788660753e+00,1.243842496576445855e+00,-1.202839239533078919e+00,2.019662757907300377e-01,-2.525602858919175353e-01,5.275968514545348320e-02,4.802541938811265787e+00,2.254407619023592435e+00,3.871708588555498043e+00,1.566118105436215302e+01,7.921424729355648342e-01,-5.393584278056142711e-01,-1.853011945218675738e+00
2.701691254882295293e-02,3.019021878205501255e-04,-7.847959747724089219e-01,1.663478606835820336e-04,-2.356162423591215305e+00,2.701773805395957438e-05,1.570965446339298133e+00,7.850070319767067373e-01,3.287211284667202610e-02,2.222459322460132794e-02,1.810179856765341613e-02,-1.761553317648584249e-02,2.939762228881647420e-03,-3.730580432271334013e-03,7.661219566957502142e-04,2.337718803376003240e+00,1.581954958945849032e+00,1.285720822368425331e+00,-1.242334813576602137e+00,2.087614503367866137e-01,-2.605642381540487773e-01,5.455141775111055358e-02,4.964755915828693134e+00,2.435703724870682763e+00,4.025497670864287336e+00,1.551383714563283966e+01,7.790142920358533729e-01,-6.133867700242384702e-01,-1.915578357348444616e+00
2.801753893952009869e-02,3.359778804417738480e-04,-7.847729356910414511e-01,1.851115987660423192e-04,-2.356180678634344883e+00,3.006497842899809219e-05,1.570961581656385109e+00,7.850078261852976302e-01,3.524923506068106116e-02,2.383329655768417349e-02,1.940909791432956708e-02,-1.887820337876619861e-02,3.152024936649118307e-03,-3.995261179569318567e-03,8.215968315856434032e-04,2.413423431091804794e+00,1.633354257788911079e+00,1.327169663414764278e+00,-1.281343757371170122e+00,2.154865517411547193e-01,-2.684454562544701384e-01,5.632602812897381100e-02,5.125350003439463897e+00,2.614962059662309102e+00,4.177749187824346677e+00,1.536814777594586978e+01,7.659934466117894747e-01,-6.865897889733847403e-01,-1.977516960676122260e+00
2.901816533021724445e-02,3.724699579266217610e-04,-7.847482612502089117e-01,2.052041339592872214e-04,-2.356200216586505469e+00,3.332796956885201160e-05,1.570957448201812712e+00,7.850086767890783745e-01,3.770173133306515406e-02,2.549318140309471750e-02,2.075765773009669024e-02,-2.017966414720293034e-02,3.370981988430781558e-03,-4.267766851522304151e-03,8.788388829417670672e-04,2.488372928529699823e+00,1.684254150728544674e+00,1.368190319129462873e+00,-1.319867642069718627e+00,2.221417924778454900e-01,-2.762043607781377585e-01,5.808356656458741468e-02,5.284329251063987876e+00,2.792184153072938546e+00,4.328469251265366857e+00,1.522410861438932983e+01,7.530777952904532668e-01,-7.589702515469403110e-01,-2.038829550578401761e+00
3.001879172091439368e-02,4.114534638857664348e-04,-7.847219004861084590e-01,2.266665384334610534e-04,-2.356221076019990868e+00,3.681337507215945562e-05,1.570953038206918118e+00,7.850095855477943196e-01,4.022884719077800958e-02,2.720374878127439222e-02,2.214705021152581568e-02,-2.151943090493207630e-02,3.596563586102438821e-03,-4.547975268361655922e-03,9.378310532866871016e-04,2.562569554750991685e+00,1.734656115175446711e+00,1.408784088926521738e+00,-1.357908038825184072e+00,2.287273850208701165e-01,-2.838413723100078889e-01,5.982408334349558626e-02,5.441698713686061062e+00,2.967371503085614037e+00,4.477664018595985063e+00,1.508171533272966514e+01,7.402651689976955662e-01,-8.305309228735735516e-01,-2.099517921233335471e+00
3.101941811161153945e-02,4.530026881151848249e-04,-7.846938029334902254e-01,2.495394569378280806e-04,-2.356243295022999007e+00,4.052778880208354707e-05,1.570948344025083765e+00,7.850105542041474482e-01,4.282983042124966638e-02,2.896450119100074660e-02,2.357684885541589878e-02,-2.289702064722672417e-02,3.828700144146993372e-03,-4.835764671167139435e-03,9.985563354600116015e-04,2.636015568816982402e+00,1.784561628540314304e+00,1.448952272219940829e+00,-1.395466518790501986e+00,2.352435418442397064e-01,-2.913569114350365585e-01,6.154762875124246413e-02,5.597463451773624143e+00,3.140525579307114512e+00,4.625339690449545849e+00,1.494096360467307072e+01,7.275533729277749995e-01,-9.012745663709166299e-01,-2.159583865693847748e+00
3.202004450230868521e-02,4.971911688580516906e-04,-7.846639186241769481e-01,2.738631081018151549e-04,-2.356266911201209791e+00,4.447773509905274958e-05,1.570943358131317691e+00,7.850115844838475576e-01,4.550393107238652479e-02,3.077494260938747755e-02,2.504662845879384106e-02,-2.431195194149709388e-02,4.067322289654454887e-03,-5.131013721866932789e-03,1.060997772618391729e-03,2.708713229788975330e+00,1.833972168233843902e+00,1.488696168423720989e+00,-1.432544653118608569e+00,2.416904754219655338e-01,-2.987513987381799629e-01,6.325425307337224912e-02,5.751628531200927874e+00,3.311647826231251202e+00,4.771502508359406924e+00,1.480184910513456309e+01,7.149401884782811134e-01,-9.712039437998870595e-01,-2.219029175956409361e+00
3.302067089300583097e-02,5.440916950666314401e-04,-7.846321980855859302e-01,2.996772857360543215e-04,-2.356291961679352731e+00,4.866966899350117133e-05,1.570938073121830314e+00,7.850126780956614425e-01,4.825040145257135371e-02,3.263457849188440563e-02,2.655596511891450059e-02,-2.576374492729047519e-02,4.312360862321932067e-03,-5.433601503237619687e-03,1.125138458235521279e-03,2.780664796728273824e+00,1.882889211666733065e+00,1.528017076951861730e+00,-1.469144012962439350e+00,2.480683982280586786e-01,-3.060252548043942977e-01,6.494400659542912124e-02,5.904199023172150618e+00,3.480739666450960890e+00,4.916158752463728021e+00,1.466436750951475254e+01,7.024233751507149570e-01,-1.040321815319138921e+00,-2.277855643024962351e+00
3.402129728370297673e-02,5.937763086641695970e-04,-7.845985923392488903e-01,3.270213601334245315e-04,-2.356318483102785244e+00,5.310997641860873669e-05,1.570932481713615436e+00,7.850138367314646315e-01,5.106849613066326288e-02,3.454291577227750626e-02,2.810443623326064691e-02,-2.725192131629125200e-02,4.563746914453638281e-03,-5.743407518904187700e-03,1.190961536102135921e-03,2.851872528696179909e+00,1.931314236249679128e+00,1.566916297218363896e+00,-1.505266169474930971e+00,2.543775227365304148e-01,-3.131789002186356474e-01,6.661693960295726746e-02,6.055180004146406780e+00,3.647802503819240538e+00,5.059314739239547443e+00,1.452851449298450781e+01,6.900006724169125416e-01,-1.108630939539610338e+00,-2.336065056970198395e+00
3.502192367440012249e-02,6.463163068067865431e-04,-7.845630528993329245e-01,3.559342793700944656e-04,-2.356346511639061170e+00,5.780497442304154755e-05,1.570926576744028136e+00,7.850150620662907919e-01,5.395747193599777225e-02,3.649946286268885426e-02,2.969162049954302343e-02,-2.877600439232091620e-02,4.821411710960891994e-03,-6.060311693340036075e-03,1.258450200326015041e-03,2.922338684753996940e+00,1.979248719393378542e+00,1.605395128637228330e+00,-1.540912693809018741e+00,2.606180614213917668e-01,-3.202127555658602076e-01,6.827310238150086086e-02,6.204576555764110601e+00,3.812837726559374474e+00,5.200976819266025508e+00,1.439428572977724841e+01,6.776698015517157447e-01,-1.176134073579168327e+00,-2.393659206984255938e+00
3.602255006509726826e-02,7.017822441453687140e-04,-7.845255317711613552e-01,3.864545706065653039e-04,-2.356376082979507292e+00,6.276091138369217694e-05,1.570920351170362661e+00,7.850163557583822449e-01,5.691658795838667323e-02,3.850372965357669319e-02,3.131709791570029544e-02,-3.033551901133803297e-02,5.085286729362111131e-03,-6.384194371866965326e-03,1.327587695331979359e-03,2.992065523963027829e+00,2.026694138508528642e+00,1.643454870622454544e+00,-1.576085157117638857e+00,2.667902267566540919e-01,-3.271272414310240073e-01,6.991254521660408838e-02,6.352393764774668661e+00,3.975846710324629552e+00,5.341151375016752745e+00,1.426167689248928561e+01,6.654284674320897208e-01,-1.242833973117337232e+00,-2.450639881430959566e+00
3.702317645579441402e-02,7.602439350874615285e-04,-7.844859814497345818e-01,4.186203413887121401e-04,-2.356407232340796298e+00,6.798396721841984739e-05,1.570913798069433653e+00,7.850177194492407029e-01,5.994510554811820213e-02,4.055522751373537294e-02,3.298044977989907089e-02,-3.192999160143825815e-02,5.355303659782818283e-03,-6.714936320655185906e-03,1.398357315861893310e-03,3.061055305384575487e+00,2.073651971005826766e+00,1.681096822588043382e+00,-1.610785130553727296e+00,2.728942312163283868e-01,-3.339227783990834086e-01,7.153531839381113699e-02,6.498636722965446033e+00,4.136830821207958309e+00,5.479844818680981611e+00,1.413068365138785865e+01,6.532743603030426449e-01,-1.308733392450066368e+00,-2.507008867891676207e+00
3.802380284649156672e-02,8.217704560591615600e-04,-7.844443549182504860e-01,4.524692809488277271e-04,-2.356439994466516197e+00,7.348025359879088714e-05,1.570906910637152487e+00,7.850191547636768963e-01,6.304228831595691529e-02,4.265346929029539130e-02,3.468125869053391430e-02,-3.355895016285435906e-02,5.631394404955638970e-03,-7.052418726723316475e-03,1.470742406974663314e-03,3.129310288079943270e+00,2.120123694295970029e+00,1.718322283947994800e+00,-1.645014185270220253e+00,2.789302872744259809e-01,-3.405997870549944406e-01,7.314147219866617977e-02,6.643310527091920825e+00,4.295791418701709219e+00,5.617063590013693819e+00,1.400130167372728174e+01,6.412051575106361145e-01,-1.373835084544536844e+00,-2.562767953206916527e+00
3.902442923718871248e-02,8.864301477670079484e-04,-7.844006056466252819e-01,4.880386615066629693e-04,-2.356474403628749492e+00,7.925581416281870530e-05,1.570899682188108271e+00,7.850206633098618658e-01,6.620740213314367517e-02,4.479796930872335936e-02,3.641910854622729121e-02,-3.522192426795615894e-02,5.913491080220299907e-03,-7.396523197938373491e-03,1.544726364046237555e-03,3.196832731110432757e+00,2.166110785789654880e+00,1.755132554116309640e+00,-1.678773892420053260e+00,2.848986074049579820e-01,-3.471586879837132433e-01,7.473105691671338979e-02,6.786420278809088380e+00,4.452729858607838764e+00,5.752814154214447306e+00,1.387352662307304563e+01,6.292185252023534403e-01,-1.438141801094000360e+00,-2.617918923513782303e+00
4.002505562788585824e-02,9.542906174598760885e-04,-7.843546875900143656e-01,5.253653395704713193e-04,-2.356510493629640379e+00,8.531662472770439032e-05,1.570892106155145296e+00,7.850222466793765896e-01,6.943971513139579610e-02,4.698824337282205693e-02,3.819358454582964801e-02,-3.691844506125060293e-02,6.201526013523633342e-03,-7.747131763015793759e-03,1.620292632769608585e-03,3.263624893537347749e+00,2.211614722897578655e+00,1.791528932506987637e+00,-1.712065823156162736e+00,2.907994040819353865e-01,-3.535999017701959568e-01,7.630412283349696789e-02,6.927971084603911756e+00,4.607647495898903323e+00,5.887102999834846528e+00,1.374735415863394117e+01,6.173121199951896454e-01,-1.501656292572578488e+00,-2.672463564279352166e+00
4.102568201858300401e-02,1.025418741190869260e-03,-7.843065551873328323e-01,5.644857572380499204e-04,-2.356548297802971259e+00,9.166859350257689518e-05,1.570884176088942930e+00,7.850239064472621653e-01,7.273849770290688466e-02,4.922380876473035627e-02,4.000427318841936336e-02,-3.864804525938172336e-02,6.495431745419571849e-03,-8.104126871519406680e-03,1.697424709154810290e-03,3.329689034421990712e+00,2.256636983030439136e+00,1.827512718534029412e+00,-1.744891548631484213e+00,2.966328897793696351e-01,-3.599238489993987211e-01,7.786072023456107327e-02,7.067968055728899301e+00,4.760545687530030712e+00,6.019936636714656508e+00,1.362277993460234349e+01,6.054835906116834421e-01,-1.564381308290062833e+00,-2.726403660330165124e+00
4.202630840928014977e-02,1.099880666079211013e-03,-7.842561633597772142e-01,6.054359434977823768e-04,-2.356587849015734371e+00,9.831756130123312767e-05,1.570875885657593729e+00,7.850256441720711020e-01,7.610302250034692295e-02,5.150418424492331226e-02,4.185076227330274123e-02,-4.041025915113063971e-02,6.795141029069150934e-03,-8.467391393861460266e-03,1.776106139528919837e-03,3.395027412825665003e+00,2.301179043598931440e+00,1.863085211611436032e+00,-1.777252639998953887e+00,3.023992769712717243e-01,-3.661309502562776763e-01,7.940089940544990676e-02,7.206416308136656568e+00,4.911425795202243094e+00,6.151321593946432742e+00,1.349979959950272068e+01,5.937305794842735462e-01,-1.626319596446640148e+00,-2.779740995877876486e+00
4.302693479997729553e-02,1.177741812572137342e-03,-7.842034675093439988e-01,6.482515155296814146e-04,-2.356629179669706975e+00,1.052693017548785286e-04,1.570867228646183111e+00,7.850274613959170589e-01,7.953256443686228250e-02,5.382889005221206530e-02,4.373264090001406645e-02,-4.220462259741556560e-02,7.100586830240515103e-03,-8.836808621302602931e-03,1.856320520536055511e-03,3.459642287809673533e+00,2.345242382013755122e+00,1.898247711153206341e+00,-1.809150668411507068e+00,3.080987781316529284e-01,-3.722216261257891845e-01,8.092471063170764145e-02,7.343320962415363695e+00,5.060289188077391032e+00,6.281264417868594130e+00,1.337840879554829421e+01,5.820507243282164733e-01,-1.687473904187565932e+00,-2.832477354541213632e+00
4.402756119067444129e-02,1.259066876706789505e-03,-7.841484235173530326e-01,6.929676800064306754e-04,-2.356672321703022988e+00,1.125295215248671215e-04,1.570858198956367024e+00,7.850293596445246935e-01,8.302640068607565482e-02,5.619744790374391064e-02,4.564949946831550059e-02,-4.403067303129179488e-02,7.411702327308902251e-03,-9.212262265951889559e-03,1.938051499137380396e-03,3.523535918435318326e+00,2.388828475685605746e+00,1.933001516573341627e+00,-1.840587205022080619e+00,3.137316057345243547e-01,-3.781962971928890527e-01,8.243220419887847816e-02,7.478687143725206710e+00,5.207137245444911855e+00,6.409771670086998441e+00,1.325860315800612454e+01,5.704416596834280817e-01,-1.747846977657705470e+00,-2.884614519364401275e+00
4.502818758137158706e-02,1.343919832372104895e-03,-7.840909877429660391e-01,7.396192343944274321e-04,-2.356717306591745054e+00,1.201038605154418739e-04,1.570848790605952283e+00,7.850313404272811768e-01,8.658381068208605147e-02,5.860938099500224985e-02,4.760092967819720688e-02,-4.588794945795172942e-02,7.728420911256661009e-03,-9.593636460766781504e-03,2.021282772611098909e-03,3.586710563763903181e+00,2.431938802025180646e+00,1.967347927285842513e+00,-1.871563820983610071e+00,3.192979722538972220e-01,-3.840553840425336984e-01,8.392343039250656223e-02,7.612519981735546004e+00,5.351971359340931045e+00,6.536849925524840899e+00,1.314037831457051730e+01,5.589010184255116531e-01,-1.807441562055978057e+00,-2.936154272832112166e+00
4.602881397206873282e-02,1.432363933570710837e-03,-7.840311170217088010e-01,7.882405682548249788e-04,-2.356764165351438400e+00,1.279978920864749772e-04,1.570838997728474018e+00,7.850334052372854865e-01,9.020407611946897053e-02,6.106421399980670184e-02,4.958652452987727388e-02,-4.777599245472485129e-02,8.050676185673238602e-03,-9.980815759553153532e-03,2.105998088552457018e-03,3.649168482856731455e+00,2.474574838443176716e+00,2.001288242704708509e+00,-1.902082087449031400e+00,3.247980901637826379e-01,-3.897993072596792064e-01,8.539843949813610835e-02,7.744824610562875300e+00,5.494792937119622245e+00,6.662505770500953162e+00,1.302372988474490434e+01,5.474264332462973615e-01,-1.866260401689626702e+00,-2.987098396881128881e+00
4.702944036276587858e-02,1.524461716680816864e-03,-7.839687686639913444e-01,8.388656645445751294e-04,-2.356812928538746021e+00,1.362171232662080594e-04,1.570828814572776677e+00,7.850355555513994776e-01,9.388648095327614684e-02,6.356147307031291549e-02,5.160587832380170159e-02,-4.969434417107773672e-02,8.378401966755186919e-03,-1.037368513696527821e-02,2.192181244873745490e-03,3.710911934775104282e+00,2.516738062350292182e+00,2.034823762243940237e+00,-1.932143575571280802e+00,3.302321719381918763e-01,-3.954284874292816609e-01,8.685728180131126186e-02,7.875606168709449406e+00,5.635603403977411219e+00,6.786745800836383680e+00,1.290865347923233308e+01,5.360155381041813438e-01,-1.924306240028327286e+00,-3.037448672908805491e+00
4.803006675346302434e-02,1.620275002718106353e-03,-7.839039004536286770e-01,8.915281009174703909e-04,-2.356863626252959865e+00,1.447669949639926272e-04,1.570818235502589477e+00,7.850377928302978425e-01,9.763031139903569078e-02,6.610068583701274314e-02,5.365858666064446392e-02,-5.164254832861405603e-02,8.711532283306157309e-03,-1.077212998850583456e-02,2.279816089804296859e-03,3.771943178580325462e+00,2.558429951157222604e+00,2.067955785317538542e+00,-1.961749856503293810e+00,3.356004300511359340e-01,-4.009433451362972023e-01,8.830000758757625134e-02,8.004869799002516828e+00,5.774404205430134773e+00,6.909576619989314494e+00,1.279514469933441667e+01,5.246659696446039911e-01,-1.981581819758087670e+00,-3.087206881778502332e+00
4.903069314416017704e-02,1.719864899597629013e-03,-7.838364706463613052e-01,9.462610510251868957e-04,-2.356916288137592463e+00,1.536528821830302383e-04,1.570807254996109625e+00,7.850401185185185149e-01,1.014348559327521437e-01,6.868138140873412956e-02,5.574424644130747397e-02,-5.362015022107458062e-02,9.050001376736914460e-03,-1.117603613052592197e-02,2.368886521890485423e-03,3.832264473333699240e+00,2.599651982274665762e+00,2.100685611339503822e+00,-1.990902501398006619e+00,3.409030769766261959e-01,-4.063443009656819704e-01,8.972666714247522213e-02,8.132620648534079066e+00,5.911196809743592517e+00,7.031004837218238990e+00,1.268319913635911966e+01,5.133753685909496767e-01,-2.038089882834904554e+00,-3.136374803822081336e+00
5.003131953485732281e-02,1.823291804395691653e-03,-7.837664379683765281e-01,1.003097285818324840e-03,-2.356970943381954342e+00,1.628800942331126451e-04,1.570795867645577548e+00,7.850425340445131850e-01,1.052994052909063394e-01,7.130309037264115357e-02,5.786245586692056325e-02,-5.562669671433714824e-02,9.393743701065309509e-03,-1.158528980022503069e-02,2.459376489995728984e-03,3.891878078096525861e+00,2.640405633113318995e+00,2.133014539723835146e+00,-2.019603081408355205e+00,3.461403251886737142e-01,-4.116317755023923830e-01,9.113731075155237504e-02,8.258863868601114433e+00,6.045982710317531428e+00,7.151037065773403256e+00,1.257281237103719818e+01,5.021413811061562482e-01,-2.093833170538177413e+00,-3.184954218839624929e+00
5.103194592555446857e-02,1.930615405611753928e-03,-7.836937616148290653e-01,1.062069174847454561e-03,-2.357027620722722983e+00,1.724538749433622651e-04,1.570784068156857005e+00,7.850450408206971487e-01,1.092232524704554453e-01,7.396534479423406971e-02,6.001281443884153022e-02,-5.766173624641670464e-02,9.742693922916309535e-03,-1.199977765565105915e-02,2.551269993300486674e-03,3.950786251930110016e+00,2.680692381083878306e+00,2.164943869884533800e+00,-2.047853167687275544e+00,3.513123871612896520e-01,-4.168061893313841360e-01,9.253198870035186929e-02,8.383604614646170461e+00,6.178763428023588133e+00,7.269679921116507515e+00,1.246397997294752891e+01,4.909616601253999346e-01,-2.148814423523830452e+00,-3.232946906096521467e+00
5.203257231625161433e-02,2.041894685430318667e-03,-7.836184012483612404e-01,1.123208687564155456e-03,-2.357086348445518897e+00,1.823794028749724607e-04,1.570771851349014980e+00,7.850476402435008216e-01,1.132056927288330322e-01,7.666767821734923882e-02,6.219492295865609172e-02,-5.972481882746528969e-02,1.009678692152198021e-02,-1.241938677570032269e-02,2.644551081302261124e-03,4.008991253895753282e+00,2.720513703597041921e+00,2.196474901235600186e+00,-2.075654331387703166e+00,3.564194753684851724e-01,-4.218679630376137579e-01,9.391075127441790571e-02,8.506848046198259183e+00,6.309540513497114311e+00,7.386940019168650728e+00,1.235669749995138211e+01,4.798338666600860392e-01,-2.203036381877121475e+00,-3.280354644318018931e+00
5.303319870694876009e-02,2.157187921982823067e-03,-7.835403169976240534e-01,1.186547394622059241e-03,-2.357147154386474597e+00,1.926617915339476838e-04,1.570759212153899798e+00,7.850503336934181453e-01,1.172460235839490744e-01,7.940962566415912804e-02,6.440838352817790380e-02,-6.181549603977202351e-02,1.045595778872149273e-02,-1.284400466011753617e-02,2.739203853815598468e-03,4.066495343054761236e+00,2.759871078063505845e+00,2.227608933191034701e+00,-2.103008143662574270e+00,3.614618022842715495e-01,-4.268175172060372224e-01,9.527364875929467125e-02,8.628599326814008208e+00,6.438315549383819558e+00,7.502823974586546818e+00,1.225096049763553907e+01,4.687556710735275023e-01,-2.256501785165093921e+00,-3.327179211681414728e+00
5.403382509764590585e-02,2.276552691609533361e-03,-7.834594694557984740e-01,1.252116469177893968e-03,-2.357210065933814214e+00,2.033060895838438911e-04,1.570746145615718792e+00,7.850531225350593223e-01,1.213435448141898104e-01,8.219072363517238022e-02,6.665279954944859642e-02,-6.393332103776311337e-02,1.082014182896111516e-02,-1.327351922949581917e-02,2.835212460972085305e-03,4.123300778468434125e+00,2.798765981893968302e+00,2.258347265164837747e+00,-2.129916175664825495e+00,3.664395803826598352e-01,-4.316552724216106696e-01,9.662073144052632512e-02,8.748863624018888174e+00,6.565090152540490109e+00,7.617338399066903243e+00,1.214676449876472475e+01,4.577247543285425935e-01,-2.309213372488687188e+00,-3.373422385806006396e+00
5.503445148834305162e-02,2.400045871121434492e-03,-7.833758196791151818e-01,1.319946688192525112e-03,-2.357275110029420251e+00,2.143172810585086891e-04,1.570732646890619533e+00,7.850560081171991111e-01,1.254975584584178683e-01,8.501051010923377227e-02,6.892777572473773873e-02,-6.607784854800188845e-02,1.118927455929422284e-02,-1.370781882527670296e-02,2.932561103220353033e-03,4.179409819198074416e+00,2.837199892499125298e+00,2.288691196571008835e+00,-2.156379998547392152e+00,3.713530221376612483e-01,-4.363816492692902949e-01,9.795204960365706814e-02,8.867646109248561004e+00,6.689865976191142316e+00,7.730489899679150234e+00,1.204410502274296491e+01,4.467388092073475980e-01,-2.361173882534412627e+00,-3.419085943740945321e+00
5.603507787904019738e-02,2.527723640062125212e-03,-7.832893291853758599e-01,1.390068433731996662e-03,-2.357342313170411430e+00,2.257002855748217762e-04,1.570718711246267052e+00,7.850589917728283407e-01,1.297073688159722515e-01,8.786852454352414576e-02,7.123291805654277664e-02,-6.824863486918873734e-02,1.156329170938129314e-02,-1.414679220975012530e-02,3.031234031326073518e-03,4.234824724304987242e+00,2.875174287289674613e+00,2.318642026823548807e+00,-2.182401183463209549e+00,3.762023400232870074e-01,-4.409970683340322384e-01,9.926765353423107341e-02,8.984951957790183741e+00,6.812644712038057548e+00,7.842285077226322620e+00,1.194297757508426727e+01,4.357955415039885816e-01,-2.412386053625642734e+00,-3.464171661951120473e+00
5.703570426973734314e-02,2.659641482969708412e-03,-7.831999599524740452e-01,1.462511694268576979e-03,-2.357411701410712102e+00,2.374599585454349791e-04,1.570704334061423291e+00,7.850620748192037590e-01,1.339722824466683671e-01,9.076430787356060126e-02,7.356783384758917854e-02,-7.044523787216117050e-02,1.194212922148991073e-02,-1.459032856605442866e-02,3.131215546371962991e-03,4.289547752850475071e+00,2.912690643676313584e+00,2.348201055336458509e+00,-2.207981301565214771e+00,3.809877465135482200e-01,-4.455019502007926402e-01,1.005675935177925417e-01,9.100786348723636010e+00,6.933428092328434822e+00,7.952730524634277209e+00,1.184337764689264816e+01,4.248926711896701125e-01,-2.462852623773398530e+00,-3.508681316301235142e+00
5.803633066043448890e-02,2.795854191638684049e-03,-7.831076744169153114e-01,1.537306065981796852e-03,-2.357483300362628320e+00,2.496010913915127499e-04,1.570689510825525881e+00,7.850652585578985487e-01,1.382916081707978861e-01,9.369740251319624846e-02,7.593213170083032426e-02,-7.266721699989375782e-02,1.232572325049475365e-02,-1.503831749817636024e-02,3.232489999757779016e-03,4.343581163895838593e+00,2.949750439069738217e+00,2.377369581523737452e+00,-2.233121924006343129e+00,3.857094540824560491e-01,-4.498967154545277514e-01,1.018519198398855768e-01,9.215154464862481021e+00,7.052217891876686906e+00,8.061832825369060984e+00,1.174530071435141387e+01,4.140279335512262460e-01,-2.512576330726685736e+00,-3.552616682038168161e+00
5.903695705113164161e-02,2.936415867381842511e-03,-7.830124354723390079e-01,1.614480754059496653e-03,-2.357557135198419029e+00,2.621284117554725812e-04,1.570674237138266927e+00,7.850685442748527310e-01,1.426646570691288973e-01,9.666735235462044218e-02,7.832542151944753284e-02,-7.491413326749819801e-02,1.271401016387761589e-02,-1.549064903095108241e-02,3.335041793200324393e-03,4.396927216502382940e+00,2.986355150880647180e+00,2.406148904799386479e+00,-2.257824621939531262e+00,3.903676752040217135e-01,-4.541817846801936009e-01,1.031206827860544767e-01,9.328061492694805779e+00,7.169015930042771600e+00,8.169598551882682358e+00,1.164874223822205757e+01,4.031990803031052506e-01,-2.561559912022310925e+00,-3.595979533771829217e+00
6.003758344182878737e-02,3.081379923292151476e-03,-7.829142064680376656e-01,1.694064573998863964e-03,-2.357633230651869471e+00,2.750465837137245273e-04,1.570658508709172452e+00,7.850719332404235695e-01,1.470907424829057675e-01,9.967370276835850473e-02,8.074731450685002088e-02,-7.718554926222320756e-02,1.310692654172737441e-02,-1.594721361006214838e-02,3.438855378733438051e-03,4.449588169731412357e+00,3.022506256519735590e+00,2.434540324577405546e+00,-2.282090966517714481e+00,3.949626223522563206e-01,-4.583575784627463290e-01,1.043739326418433588e-01,9.439512622323563917e+00,7.283824072666821081e+00,8.276034264087035908e+00,1.155369766335254944e+01,3.924038806730968387e-01,-2.609806105034137680e+00,-3.638771645454560666e+00
6.103820983252593313e-02,3.230799086504658382e-03,-7.828129512074788465e-01,1.776085952907479650e-03,-2.357711611019865927e+00,2.883602079894126771e-04,1.570642321357180293e+00,7.850754267094354200e-01,1.515691800138493361e-01,1.027160006032720729e-01,8.319742316667501358e-02,-7.948102914345468728e-02,1.350440917674003427e-02,-1.640790210204152999e-02,3.543915258708008921e-03,4.501566282644224870e+00,3.058205233397702116e+00,2.462545140271795496e+00,-2.305922528893828538e+00,3.994945080011710337e-01,-4.624245173871421866e-01,1.056117196927963964e-01,9.549513047406570365e+00,7.396644233960234516e+00,8.381146507856174210e+00,1.146016241819536141e+01,3.816401224621599475e-01,-2.657317647021783191e+00,-3.680994790359285229e+00
6.203883622322307889e-02,3.384725400458373813e-03,-7.827086339468255494e-01,1.860572930804358293e-03,-2.357792300163966903e+00,3.020738221651542957e-04,1.570625671010219992e+00,7.850790259212309108e-01,1.560992875241567490e-01,1.057937941865588344e-01,8.567536130278766149e-02,-8.180013864271556967e-02,1.390639507421867656e-02,-1.687260579426960380e-02,3.650205985791965535e-03,4.552863814302127388e+00,3.093453558925243208e+00,2.490164651296556730e+00,-2.329320880220810519e+00,4.039635446247771267e-01,-4.663830220383372027e-01,1.068340942244578040e-01,9.658067965095961327e+00,7.507478378353651394e+00,8.484941813556865498e+00,1.136813191433507164e+01,3.709056130786204664e-01,-2.704097275178733550e+00,-3.722650741056520385e+00
6.303946261392022465e-02,3.543210227158167039e-03,-7.826012193934565042e-01,1.947553161920991677e-03,-2.357875321511976097e+00,3.161919008957807817e-04,1.570608553704791133e+00,7.850827320997203485e-01,1.606803851365014302e-01,1.089066333237525691e-01,8.818074401928099881e-02,-8.414244506366590215e-02,1.431282145207351392e-02,-1.734121639497515632e-02,3.757712162970275587e-03,4.603483023766421489e+00,3.128252710513055757e+00,2.517400157065688759e+00,-2.352287591651594845e+00,4.083699446970858737e-01,-4.702335130012876840e-01,1.080411065223717410e-01,9.765182575977069845e+00,7.616328522301978765e+00,8.587426694607451338e+00,1.127760154602578169e+01,3.601981805470534370e-01,-2.750147726679798676e+00,-3.763741269390373123e+00
6.404008900461737042e-02,3.706304249436657636e-03,-7.824906727044875776e-01,2.037053916002389865e-03,-2.357960698059518467e+00,3.307188561210778663e-04,1.570590965585542342e+00,7.850865464534331206e-01,1.653117952340333596e-01,1.120540692987233300e-01,9.071318772047612389e-02,-8.650751728210284708e-02,1.472362574082184024e-02,-1.781362603323537186e-02,3.866418443544956778e-03,4.653426170098409642e+00,3.162604165571836656e+00,2.544252956993192427e+00,-2.374824234339119045e+00,4.127139206921081049e-01,-4.739764108609495485e-01,1.092328068720823941e-01,9.870862084006587267e+00,7.723196736046764599e+00,8.688607646065003465e+00,1.118856668973838353e+01,3.495156744921229519e-01,-2.795471738727925093e+00,-3.804268146453679389e+00
6.504071539531451618e-02,3.874057473216110589e-03,-7.823769594852919562e-01,2.129102079608125551e-03,-2.358048452371609649e+00,3.456590372785255951e-04,1.570572902904850299e+00,7.850904701755669901e-01,1.699928424603786570e-01,1.152356548736771236e-01,9.327231011092193547e-02,-8.889492574596057073e-02,1.513874558358805494e-02,-1.828972725897584639e-02,3.976309531135061200e-03,4.702695512359396091e+00,3.196509401512283688e+00,2.570724350493068577e+00,-2.396932379436317540e+00,4.169956850838552054e-01,-4.776121362022792138e-01,1.104092455591339228e-01,9.975111696450008836e+00,7.828085145336116213e+00,8.788491143240820591e+00,1.110102270371767297e+01,3.388559670977113747e-01,-2.840072048600330135e+00,-3.844233142562392125e+00
6.604134178601166194e-02,4.046519229770323585e-03,-7.822600457880214408e-01,2.223724157413373842e-03,-2.358138606584232022e+00,3.610167315160387976e-04,1.570554362022398065e+00,7.850945044440392762e-01,1.747228537196399978e-01,1.184509442891562014e-01,9.585773019539536866e-02,-9.130424247531043758e-02,1.555811883610367513e-02,-1.876941304297058757e-02,4.087370179676691820e-03,4.751293309610682414e+00,3.229969895745092856e+00,2.596815636979316722e+00,-2.418613598096127415e+00,4.212154503463382826e-01,-4.811411096102326534e-01,1.115704728690705555e-01,1.007793662381817690e+01,7.930995933102634510e+00,8.887083640344219049e+00,1.101496492754946566e+01,3.282169540416004505e-01,-2.883951393693924281e+00,-3.883638027229364464e+00
6.704196817670880770e-02,4.223738177986524275e-03,-7.821398981101266301e-01,2.320946273509956817e-03,-2.358231182405904125e+00,3.767961639047075033e-04,1.570535339404754760e+00,7.850986504215365924e-01,1.795011581763961694e-01,1.216994932640389354e-01,9.846906827890124225e-02,-9.373504106236081601e-02,1.598168356670730261e-02,-1.925257677684199392e-02,4.199585193422986432e-03,4.799221820913572856e+00,3.262987125680962386e+00,2.622528115865937703e+00,-2.439869461471483092e+00,4.253734289535687219e-01,-4.845637516697660629e-01,1.127165390874364514e-01,1.017934207980300165e+01,8.031931341099378230e+00,8.984391569154727364e+00,1.093038868173775313e+01,3.175965554060260487e-01,-2.927112511569974984e+00,-3.922484569137687949e+00
6.804259456740595347e-02,4.405762306627258006e-03,-7.820164833928781034e-01,2.420794172707385269e-03,-2.358326201119258059e+00,3.930014976515369229e-04,1.570515831624954117e+00,7.851029092555655842e-01,1.843270872557025986e-01,1.249808589955398591e-01,1.011059459666723698e-01,-9.618689667145724487e-02,1.640937805634465341e-02,-1.973911227306089644e-02,4.312939426944130232e-03,4.846483305329368108e+00,3.295562568730589170e+00,2.647863086566931923e+00,-2.460701540715322544e+00,4.294698333795573530e-01,-4.878804829658355824e-01,1.138474944997757837e-01,1.027933328121206635e+01,8.130893671494355601e+00,9.080421337722526687e+00,1.084728926729196630e+01,3.069927165643444589e-01,-2.969558139998036417e+00,-3.960774536113637279e+00
6.904322095810309923e-02,4.592638936592285080e-03,-7.818897690198866046e-01,2.523293221833900878e-03,-2.358423683582611563e+00,4.096368343121879730e-04,1.570495835362073489e+00,7.851072820785031103e-01,1.891999746430908791e-01,1.282946001592095153e-01,1.037679861641695039e-01,-9.865938603908228077e-02,1.684114079856854213e-02,-2.022891376494650659e-02,4.427417785127350618e-03,4.893080021919373301e+00,3.327697702304669658e+00,2.672821848496298891e+00,-2.481111406980581524e+00,4.335048760983154503e-01,-4.910917240833972963e-01,1.149633893916326977e-01,1.037791544790223597e+01,8.227885288423490096e+00,9.175179329097279179e+00,1.076566196532446540e+01,2.964034090441759473e-01,-3.011291016999043446e+00,-3.998509695099432548e+00
7.004384734880024499e-02,4.784414723180467621e-03,-7.817597228156245581e-01,2.628468411037518382e-03,-2.358523650231537871e+00,4.267062140037172573e-04,1.570475347400812405e+00,7.851117700076467587e-01,1.941191562845689944e-01,1.316402769089347335e-01,1.064548130770812395e-01,-1.011520874738556369e-01,1.727691049953888544e-02,-2.072187590666646137e-02,4.543005223176913715e-03,4.939014229744890017e+00,3.359394003813901186e+00,2.697405701068040340e+00,-2.501100631420194009e+00,4.374787695838543433e-01,-4.941978956074074558e-01,1.160642740485514635e-01,1.047509380271208279e+01,8.322908619502973337e+00,9.268671900085339033e+00,1.068550203665807352e+01,2.858266313672699344e-01,-3.052313880887633779e+00,-4.035691812125898892e+00
7.104447373949739075e-02,4.981135658351666835e-03,-7.816263130439462525e-01,2.736344355087069052e-03,-2.358626121080443561e+00,4.442136156173179706e-04,1.570454364631071353e+00,7.851163741452649170e-01,1.990839703866213450e-01,1.350174508769383941e-01,1.091660522113242771e-01,-1.036645808565340859e-01,1.771662607802270556e-02,-2.121789377323678866e-02,4.659686746614133922e-03,4.984288187867221609e+00,3.390652950668981092e+00,2.721615943696155338e+00,-2.520670785187097529e+00,4.413917263101851951e-01,-4.971994181228222009e-01,1.171501987560762126e-01,1.057087357139306150e+01,8.415966157300292849e+00,9.360905380035186241e+00,1.060680472144419184e+01,2.752604098663614662e-01,-3.092629470313583262e+00,-4.072322652285143896e+00
7.204510013019453651e-02,5.182847072988632474e-03,-7.814895084066085795e-01,2.846945294673242869e-03,-2.358731115724137073e+00,4.621629570310595010e-04,1.570432884047531452e+00,7.851210955786472878e-01,2.040937574162085821e-01,1.384256851737794836e-01,1.119013303730430620e-01,-1.061964476400114737e-01,1.816022666539412675e-02,-2.171686286052192799e-02,4.777447411277364366e-03,5.028904155347671434e+00,3.421476020280605823e+00,2.745453875794644727e+00,-2.539823439434227836e+00,4.452439587513189467e-01,-5.000967122145977273e-01,1.182212137997511320e-01,1.066525998253942831e+01,8.507060460765243803e+00,9.451886069651354916e+00,1.052956523879102413e+01,2.647027994793517136e-01,-3.132240524302384532e+00,-4.108403979703424191e+00
7.304572652089168228e-02,5.389593639158896630e-03,-7.813492780417919947e-01,2.960295097709627656e-03,-2.358838653339406566e+00,4.805580953226276826e-04,1.570410902749233006e+00,7.851259353801555152e-01,2.091478601007679128e-01,1.418645443883532475e-01,1.146602756686101870e-01,-1.087472708493187334e-01,1.860765160563438228e-02,-2.221867908523473753e-02,4.896272323322002108e-03,5.072864391247541072e+00,3.451864690059473606e+00,2.768920796777509352e+00,-2.558560165314521129e+00,4.490356793812669278e-01,-5.028901984676900083e-01,1.192773694651203670e-01,1.075825826751674263e+01,8.596194156620452276e+00,9.541620239836547057e+00,1.045377878640235991e+01,2.541518845210367639e-01,-3.171149782294931718e+00,-4.143937557514243863e+00
7.404635291158882804e-02,5.601419372376661467e-03,-7.812055915226211456e-01,3.076417260633756891e-03,-2.358948752686587991e+00,4.994028269820657536e-04,1.570388417939153625e+00,7.851308946072727002e-01,2.142456234282127114e-01,1.453335945878908853e-01,1.174425175046260456e-01,-1.113166350816239963e-01,1.905884045533179361e-02,-2.272323878493647670e-02,5.016146639220485544e-03,5.116171154628133877e+00,3.481820437416280445e+00,2.792018006058748725e+00,-2.576882533980912715e+00,4.527671006740402460e-01,-5.055802974670553507e-01,1.203187160377281878e-01,1.084987366038889434e+01,8.683369940712028168e+00,9.630114130562153818e+00,1.037944054022675644e+01,2.436057794327471937e-01,-3.209359984186271664e+00,-4.178925147831871634e+00
7.504697930228598768e-02,5.818367633864706019e-03,-7.810584188556857210e-01,3.195334909708151018e-03,-2.359061432111143386e+00,5.187008881245145546e-04,1.570365426923787888e+00,7.851359743026548044e-01,2.193863946469327419e-01,1.488324033179599104e-01,1.202476865879190115e-01,-1.139041265062323560e-01,1.951373298368180159e-02,-2.323043871803679924e-02,5.137055565762297868e-03,5.158826704550754094e+00,3.511344739761724121e+00,2.814746803052363688e+00,-2.594792116586339681e+00,4.564384351036503418e-01,-5.081674297976499499e-01,1.213453038031186981e-01,1.094011139784370457e+01,8.768590579320468592e+00,9.717373949767084795e+00,1.030654565411729884e+01,2.330626295100658441e-01,-3.246873870363427450e+00,-4.213368511725373189e+00
7.604760569298313344e-02,6.040481132816247038e-03,-7.809077304795608576e-01,3.317070802321351371e-03,-2.359176709545230732e+00,5.384559547029511015e-04,1.570341927112726799e+00,7.851411754941801657e-01,2.245695232657942408e-01,1.523605396024638459e-01,1.230754149255453983e-01,-1.165093328645859933e-01,1.997226917248693182e-02,-2.374017606379377754e-02,5.258984360053961006e-03,5.200833300076702415e+00,3.540439074506500639e+00,2.837108487172353755e+00,-2.612290484283736003e+00,4.600498951441079343e-01,-5.106520160444297796e-01,1.223571830468361127e-01,1.102897671911683908e+01,8.851858910432298444e+00,9.803405872284844946e+00,1.023508925950191362e+01,2.225206116090164832e-01,-3.283694181742208507e+00,-4.247269409193243916e+00
7.704823208368027920e-02,6.267801928656872683e-03,-7.807534972633285442e-01,3.441647328288975800e-03,-2.359294602509275585e+00,5.586716427209316568e-04,1.570317916018234783e+00,7.851464991950003469e-01,2.297943610541395842e-01,1.559175739436423347e-01,1.259253358247894583e-01,-1.191318434702643148e-01,2.043438921615682580e-02,-2.425234842231387827e-02,5.381918329519045155e-03,5.242193200267283082e+00,3.569104919061307779e+00,2.859104357832720655e+00,-2.629379208226038767e+00,4.636016932694245196e-01,-5.130344767923510352e-01,1.233544040544245768e-01,1.111647486591412992e+01,8.933177844972394865e+00,9.888216038798953278e+00,1.016506646506428346e+01,2.119779348309343003e-01,-3.319823659803070370e+00,-4.280629599138801922e+00
7.804885847437742497e-02,6.500371433306405961e-03,-7.805956905050974726e-01,3.569086511154754334e-03,-2.359415128113549365e+00,5.793515084453300856e-04,1.570293391254830695e+00,7.851519464035902063e-01,2.350602620417877042e-01,1.595030783220713066e-01,1.287970838931634110e-01,-1.217712492089836757e-01,2.090003352170823406e-02,-2.476685381455199370e-02,5.505842831898156639e-03,5.282908664183799452e+00,3.597343750836843324e+00,2.880735714447463902e+00,-2.646059859566184613e+00,4.670940419536111499e-01,-5.153152326263699123e-01,1.243370171114283190e-01,1.120261108233214919e+01,9.012550367997604894e+00,9.971810554826566531e+00,1.009647235643546104e+01,2.014328411862472690e-01,-3.355265046625934389e+00,-4.313450839346407939e+00
7.904948486507457073e-02,6.738230413440802861e-03,-7.804342819305245538e-01,3.699410009491568320e-03,-2.359538303059737441e+00,6.004990486190787046e-04,1.570268350538865487e+00,7.851575181037984130e-01,2.403665825190338390e-01,1.631166261966626174e-01,1.316902950384073456e-01,-1.244271425385975738e-01,2.136914270876498836e-02,-2.528359068231141038e-02,5.630743275248950921e-03,5.322981950887553104e+00,3.625157047243803277e+00,2.902003856430584339e+00,-2.662334009457108408e+00,4.705271536706790436e-01,-5.174947041314426066e-01,1.253050725033914847e-01,1.128739061477703132e+01,9.089979539851666956e+00,1.005419548973038602e+01,1.002930199589621907e+01,1.908836062375749432e-01,-3.390021084923965589e+00,-4.345734886458657797e+00
8.005011125577171649e-02,6.981418992754053095e-03,-7.802692436913352125e-01,3.832639118202499102e-03,-2.359664143642516088e+00,6.221177006739083727e-04,1.570242791688101214e+00,7.851632152648977403e-01,2.457126810366496161e-01,1.667577925046644649e-01,1.346046064684894017e-01,-1.270991174890967190e-01,2.184165760955805377e-02,-2.580245788824383005e-02,5.756605117946121328e-03,5.362415319439848282e+00,3.652546285692884531e+00,2.922910083196081032e+00,-2.678203229051747236e+00,4.739012408946391974e-01,-5.195733118925250915e-01,1.262586205158582886e-01,1.137081871188143367e+01,9.165468497281848315e+00,1.013537687575870727e+01,9.963550422090118985e+00,1.803285397222644804e-01,-3.424094518076282512e+00,-4.377483495954607839e+00
8.105073764646886225e-02,7.229976654220057405e-03,-7.801005483638439042e-01,3.968794769821868025e-03,-2.359792665751121898e+00,6.442108429430890145e-04,1.570216712621290256e+00,7.851690388416353583e-01,2.510979184058829139e-01,1.704261536616610007e-01,1.375396566916055885e-01,-1.297867696626086587e-01,2.231751926892546617e-02,-2.632335471584933487e-02,5.883413868681405118e-03,5.401211028901986566e+00,3.679512943594784868e+00,2.943455694157955271e+00,-2.693669089503035963e+00,4.772165160995030520e-01,-5.215514764945736736e-01,1.271977114343728621e-01,1.145290062441963741e+01,9.239020454517659076e+00,1.021536070711374222e+01,9.899212649747452630e+00,1.697659861547248239e-01,-3.457488090159588356e+00,-4.408698422129196715e+00
8.205136403716600801e-02,7.483942242354539587e-03,-7.799281689474761858e-01,4.107897535816276875e-03,-2.359923884870929189e+00,6.667817948741698196e-04,1.570190111357753882e+00,7.851749897742830164e-01,2.565216576984580277e-01,1.741212875615726352e-01,1.404950855161798962e-01,-1.324896962333982631e-01,2.279666894431238086e-02,-2.684618086947646379e-02,6.011155086463582618e-03,5.439371338335269535e+00,3.706058498360200737e+00,2.963641988730207455e+00,-2.708733161963910785e+00,4.804731917592817148e-01,-5.234296185225444376e-01,1.281223955444794615e-01,1.153364160522059123e+01,9.310638704311593017e+00,1.029415293904791717e+01,9.836283669419893627e+00,1.591943254087747617e-01,-3.490204545978703443e+00,-4.439381418073889307e+00
8.305199042786315378e-02,7.743353965476919461e-03,-7.797520788632871236e-01,4.249967627885651786e-03,-2.360057816085017635e+00,6.898338172417192238e-04,1.570162986016961026e+00,7.851810689886881134e-01,2.619832642465756423e-01,1.778427735766558160e-01,1.434705340508641014e-01,-1.352074959478673788e-01,2.327904810577105174e-02,-2.737083647432210845e-02,6.139814380618474621e-03,5.476898506801005873e+00,3.732184427399830362e+00,2.983470266326837983e+00,-2.723397017587307456e+00,4.836714803479862379e-01,-5.252081585613936898e-01,1.290327231317222323e-01,1.161304690907918769e+01,9.380326618942588013e+00,1.037175948698850902e+01,9.774758447226133740e+00,1.486119732803118376e-01,-3.522246631095946601e+00,-4.469534235658731980e+00
8.405261681856029954e-02,8.008249397972216216e-03,-7.795722519524848071e-01,4.395024899264288881e-03,-2.360194474075751891e+00,7.133701123600656507e-04,1.570135334818108186e+00,7.851872773963229912e-01,2.674821056429129151e-01,1.815901925575032494e-01,1.464656447045382115e-01,-1.379397691245549396e-01,2.376459843596085211e-02,-2.789722207643160340e-02,6.269377410788950188e-03,5.513794793360490942e+00,3.757892208124369748e+00,3.002941826361847255e+00,-2.737662227526162617e+00,4.868115943396277845e-01,-5.268875171960772930e-01,1.299287444816453196e-01,1.169112179266515916e+01,9.448087651182161650e+00,1.044818622569003708e+01,9.714631924608484681e+00,1.380173820304856358e-01,-3.553617091859384569e+00,-4.499158625515784493e+00
8.505324320925744530e-02,8.278665482552939603e-03,-7.793886624749483127e-01,4.543088846021892113e-03,-2.360333873126349236e+00,7.373938242960378182e-04,1.570107156079696864e+00,7.851936158943361166e-01,2.730175517406229213e-01,1.853631268330435955e-01,1.494800611863099649e-01,-1.406861176541370773e-01,2.425326183014823306e-02,-2.842523864269866710e-02,6.399829886934911907e-03,5.550062457075032540e+00,3.783183317944516677e+00,3.022057968249235227e+00,-2.751530362933411578e+00,4.898937462082176841e-01,-5.284681150115517756e-01,1.308105098797929244e-01,1.176787151443018331e+01,9.513925335223675006e+00,1.052343898841495395e+01,9.655899018100198461e+00,1.274090409097182741e-01,-3.584318675429924550e+00,-4.528256337024190614e+00
8.605386959995459106e-02,8.554638532520980262e-03,-7.792012851077505520e-01,4.694178608364611531e-03,-2.360476027122454745e+00,7.619080390817041786e-04,1.570078448219113687e+00,7.852000853656022628e-01,2.785889746533356526e-01,1.891611602105418566e-01,1.525134285055150529e-01,-1.434461449994268445e-01,2.474498039620675813e-02,-2.895478756086544703e-02,6.531157569333315843e-03,5.585703757005932246e+00,3.808059234270967153e+00,3.040819991403001410e+00,-2.765002994961990090e+00,4.929181484277670444e-01,-5.299503725927728892e-01,1.316780696117092475e-01,1.184330133451265787e+01,9.577843287574944853e+00,1.059752356614205127e+01,9.598554619103991215e+00,1.167854766627667296e-01,-3.614354129807182847e+00,-4.556829118296814585e+00
8.705449599065173683e-02,8.836204234029502655e-03,-7.790100949436783440e-01,4.848312971936101501e-03,-2.360620949553715597e+00,7.869157849271145267e-04,1.570049209752207631e+00,7.852066866787723587e-01,2.841957487551570738e-01,1.929838779755989886e-01,1.555653929717171202e-01,-1.462194561953745475e-01,2.523969645461709987e-02,-2.948577063952247460e-02,6.663346268578147248e-03,5.620720952214491639e+00,3.832521434514419401e+00,3.059229195237147980e+00,-2.778081694764835685e+00,4.958850134722869174e-01,-5.313347105246970514e-01,1.325314739629384897e-01,1.191741651464032081e+01,9.639845207914486735e+00,1.067044570680290150e+01,9.542593593681399256e+00,1.061452540150857882e-01,-3.643726203854200207e+00,-4.584878716168628188e+00
8.805512238134888259e-02,9.123397648344832786e-03,-7.788150674897525994e-01,5.005510369118545966e-03,-2.360768653515352700e+00,8.124200324330386807e-04,1.570019439292871910e+00,7.852134206883244483e-01,2.898372506806696225e-01,1.968308668921521509e-01,1.586356021947078754e-01,-1.490056578490674966e-01,2.573735253846702251e-02,-3.001809010810871370e-02,6.796381845580450054e-03,5.655116301762016739e+00,3.856571396085569869e+00,3.077286879165674449e+00,-2.790768033494882783e+00,4.987945538157886327e-01,-5.326215493922801247e-01,1.333707732190248241e-01,1.199022231803072991e+01,9.699934879911655372e+00,1.074221111454608568e+01,9.488010782353242689e+00,9.548697614076295803e-02,-3.672437647320899501e+00,-4.612406876186905258e+00
8.905574877204602835e-02,9.416253214108360678e-03,-7.786161786657497252e-01,5.165788880333708859e-03,-2.360919151709734098e+00,8.384236948037085239e-04,1.569989135552619208e+00,7.852202882346139834e-01,2.955128593249321534e-01,2.007017152024746509e-01,1.617237050845067303e-01,-1.518043581397301445e-01,2.623789139345140964e-02,-3.055164861691150174e-02,6.930250211568294780e-03,5.688892064709807350e+00,3.880210596395115896e+00,3.094994342602580772e+00,-2.803063582305067580e+00,5.016469819322831869e-01,-5.338113097804786378e-01,1.341960176655123682e-01,1.206172400928936739e+01,9.758116172010939948e+00,1.081282544902916420e+01,9.434800999911090003e+00,8.480928511225227506e-02,-3.700491210866309721e+00,-4.639415342603306236e+00
9.005637516274317411e-02,9.714804749598427228e-03,-7.784134048027219199e-01,5.329166235343974108e-03,-2.361072456447947943e+00,8.649296280595566858e-04,1.569958297340163567e+00,7.852272901439234509e-01,3.012219558434797717e-01,2.045960126271759161e-01,1.648293518513613276e-01,-1.546151668187238926e-01,2.674125597787222960e-02,-3.108634923706660863e-02,7.064937328086808022e-03,5.722050500119167715e+00,3.903440512853754374e+00,3.112352884961868682e+00,-2.814969912348326275e+00,5.044425102957821316e-01,-5.349044122742483420e-01,1.350072575879453507e-01,1.213192685430552409e+01,9.814393038180929452e+00,1.088229432473839076e+01,9.382959035239750278e+00,7.411086233215491426e-02,-3.727889646079549202e+00,-4.665905858367921155e+00
9.105700155344031987e-02,1.001908545499221107e-02,-7.782067226415185779e-01,5.495659814553394314e-03,-2.361228579651375892e+00,8.919406312499577162e-04,1.569926923560996945e+00,7.852344272285136650e-01,3.069639236523241110e-01,2.085133503652016329e-01,1.679521940057470408e-01,-1.574376952095474791e-01,2.724738946263857362e-02,-3.162209546055820553e-02,7.200429206998147300e-03,5.754593867051402079e+00,3.926262622872182639e+00,3.129363805657536357e+00,-2.826488594777595065e+00,5.071813513802961859e-01,-5.359012774585458772e-01,1.358045432718679446e-01,1.220083612014583530e+01,9.868769518627743764e+00,1.095062331033598113e+01,9.332479651150913824e+00,6.339042894728819100e-02,-3.754635705499523191e+00,-4.691880165125356328e+00
9.205762794413746564e-02,1.032912791462763102e-02,-7.779961093313062515e-01,5.665286650308723818e-03,-2.361387532853266968e+00,9.194594466659688266e-04,1.569895013216970669e+00,7.852417002866739493e-01,3.127381484279529444e-01,2.124533210938333028e-01,1.710918843583672244e-01,-1.602715562078365630e-01,2.775623523126661413e-02,-3.215879120021887527e-02,7.336711910481524476e-03,5.786524424567811131e+00,3.948678403861097141e+00,3.146028404103585530e+00,-2.837621200745809258e+00,5.098637176598366239e-01,-5.368023259183269946e-01,1.365879250028243785e-01,1.226845707494546645e+01,9.921249740473768952e+00,1.101781792803496529e+01,9.283357584227719173e+00,5.264674624525089719e-02,-3.780732142633348669e+00,-4.717340003212950883e+00
9.305825433483461140e-02,1.064496409926522780e-02,-7.777815424280898338e-01,5.838063428200463909e-03,-2.361549327200308301e+00,9.474887600530683537e-04,1.569862565405871324e+00,7.852491101027715414e-01,3.185440181073305732e-01,2.164155189686887970e-01,1.742480770201532136e-01,-1.631163642813639181e-01,2.826773687987963260e-02,-3.269634078972958463e-02,7.473771551033183205e-03,5.817844431729698229e+00,3.970689333231195661e+00,3.162347979714016155e+00,-2.848369301405905496e+00,5.124898216084147196e-01,-5.376079782385478900e-01,1.373574530663587423e-01,1.233479498779694339e+01,9.971837918401590173e+00,1.108388365300146994e+01,9.235587544680635474e+00,4.187861603380937936e-02,-3.806181711973468662e+00,-4.742287111661153354e+00
9.405888072553175716e-02,1.096662536835006814e-02,-7.775629998932331866e-01,6.014006488363912370e-03,-2.361713973454202975e+00,9.760312008238980182e-04,1.569829579321001756e+00,7.852566574473033301e-01,3.243809228878976048e-01,2.203995396237222182e-01,1.774204274022642969e-01,-1.659717354700394054e-01,2.878183821720802990e-02,-3.323464898361973285e-02,7.611594291466414544e-03,5.848556147598365840e+00,3.992296888393174203e+00,3.178323831902828633e+00,-2.858734467910819088e+00,5.150598757000418582e-01,-5.383186550041649809e-01,1.381131777480152922e-01,1.239985512863652595e+01,1.002053835526345260e+01,1.114882591278435342e+01,9.189164216214237513e+00,3.108488100318285152e-02,-3.830987169013464033e+00,-4.766723228196177331e+00
9.505950711622890292e-02,1.129414247227363000e-02,-7.773404600919796570e-01,6.193131826780194811e-03,-2.361881481993234555e+00,1.005089342271002365e-03,1.569796054250760298e+00,7.852643430769450372e-01,3.302482552275707861e-01,2.244049801712234837e-01,1.806085922160875490e-01,-1.688372873859099454e-01,2.929848326458928121e-02,-3.377362095726709618e-02,7.750166344911551750e-03,5.878661831235118207e+00,4.013502546757731437e+00,3.193957260084023364e+00,-2.868718271413486676e+00,5.175740924087287587e-01,-5.389347768001340189e-01,1.388551493333382014e-01,1.246364276812825445e+01,1.006735544265694671e+01,1.121265008677210417e+01,9.144082255905164658e+00,2.026442507166303919e-02,-3.855151270262514807e+00,-4.790650089244952170e+00
9.606013350692604869e-02,1.162754555463569109e-02,-7.771139017919735936e-01,6.375455096577315947e-03,-2.362051862813852487e+00,1.034665701779568419e-03,1.569761989578217332e+00,7.852721677346026219e-01,3.361454098447437810e-01,2.284314392018189366e-01,1.838122294732382755e-01,-1.717126392131597956e-01,2.981761625596800885e-02,-3.431316230689789720e-02,7.889473974815975482e-03,5.908163741701256022e+00,4.034307785735563812e+00,3.209249563671602079e+00,-2.878322283066843124e+00,5.200326842084868062e-01,-5.394567642114114214e-01,1.395834181078716429e-01,1.252616317754550401e+01,1.011229366146637432e+01,1.127536150567688544e+01,9.100336294091230016e+00,9.416173714531073102e-03,-3.878676773258569632e+00,-4.814069429942460232e+00
9.706075989762320833e-02,1.196686415450623313e-02,-7.768833041617798640e-01,6.560991609331198737e-03,-2.362225125532233516e+00,1.064762741040168161e-03,1.569727384780696289e+00,7.852801321494612408e-01,3.420717837182861154e-01,2.324785167844709566e-01,1.870309984855595409e-01,-1.745974117081099675e-01,3.033918163789588521e-02,-3.485317904958677021e-02,8.029503494944101663e-03,5.937064138058086193e+00,4.054714082737367775e+00,3.224202042079562069e+00,-2.887548074023825517e+00,5.224358635733272749e-01,-5.398850378229532732e-01,1.402980343571597899e-01,1.258742162865011238e+01,1.015535758237105490e+01,1.133696545104564635e+01,9.057920934271521674e+00,-1.460905723196903594e-03,-3.901566436580109265e+00,-4.836982984141493525e+00
9.806138628832035409e-02,1.231212720868731479e-02,-7.766486467694055928e-01,6.749756336366720920e-03,-2.362401279385859976e+00,1.095382866261494174e-03,1.569692239429351543e+00,7.852882370370370957e-01,3.480267760875436767e-01,2.365458144664779050e-01,1.902645598651221681e-01,-1.774912271992186430e-01,3.086312406953170898e-02,-3.539357762325666401e-02,8.170241269377390148e-03,5.965365279366907636e+00,4.074722915173841109e+00,3.238815994721905955e+00,-2.896397215437369166e+00,5.247838429772612168e-01,-5.402200182197155476e-01,1.409990483667467875e-01,1.264742339356909540e+01,1.019655186632013866e+01,1.139746715479819272e+01,9.016830753017696765e+00,-1.236780373025092583e-02,-3.923823019856583549e+00,-4.859392484424940761e+00
9.906201267901749985e-02,1.266336305397498981e-02,-7.764099095808206785e-01,6.941763910058769763e-03,-2.362580333235096308e+00,1.126528428383106236e-03,1.569656553188748749e+00,7.852964830992268386e-01,3.540097884523389360e-01,2.406329352734745963e-01,1.935125755242253776e-01,-1.803937095870812579e-01,3.138938842264139828e-02,-3.593426488667905011e-02,8.311673712514344725e-03,5.993069424689024594e+00,4.094335760455679818e+00,3.253092721012633248e+00,-2.904871278460410711e+00,5.270768348942996839e-01,-5.404621259866548844e-01,1.416865104221768923e-01,1.270617374466884186e+01,1.023588126497443795e+01,1.145687179879199746e+01,8.977060299896310269e+00,-2.330546834846458637e-02,-3.945449283777486382e+00,-4.881299662120545335e+00
1.000626390697146456e-01,1.302059942942117125e-02,-7.761670729584781991e-01,7.137028625133269924e-03,-2.362762295564754478e+00,1.158201723288166535e-03,1.569620325816440509e+00,7.853048710243584196e-01,3.600202245729706707e-01,2.447394837094315767e-01,1.967747086753958985e-01,-1.833044843444302796e-01,3.191791978159794901e-02,-3.647514811947374924e-02,8.453787289070513120e-03,6.020178833085739534e+00,4.113554095993582571e+00,3.267033520365744348e+00,-2.912971834245885017e+00,5.293150517984540615e-01,-5.406117817087271460e-01,1.423604708089942217e-01,1.276367795442692987e+01,1.027335062111577280e+01,1.151518451441380186e+01,8.938604097402269133e+00,-3.427480490773271438e-02,-3.966447990100010035e+00,-4.902706247318327826e+00
1.010632654604117914e-01,1.338386347859555139e-02,-7.759201176598353733e-01,7.335564439968246010e-03,-2.362947174485673152e+00,1.190404992016182682e-03,1.569583557162549159e+00,7.853134014872408253e-01,3.660574904702139643e-01,2.488650657566559288e-01,2.000506238313886631e-01,-1.862231785161351239e-01,3.244866344338147301e-02,-3.701613502210897300e-02,8.596568514078481785e-03,6.046695763618356700e+00,4.132379399198244485e+00,3.280639692195239654e+00,-2.920700453946729169e+00,5.314987061637356236e-01,-5.406694059708880840e-01,1.430209798127430321e-01,1.281994129530144555e+01,1.030896486902371478e+01,1.157241038219774509e+01,8.901456640903308681e+00,-4.527667577654603814e-02,-3.986821901655340561e+00,-4.923613968890588666e+00
1.020638918511089371e-01,1.375318175184748158e-02,-7.756690248358744100e-01,7.537384977894842630e-03,-2.363134977736288889e+00,1.223140420975746831e-03,1.569546247169343101e+00,7.853220751492149265e-01,3.721209944253202617e-01,2.530092888757906056e-01,2.033399868051863901e-01,-1.891494207192024879e-01,3.298156491757917724e-02,-3.755713371590140015e-02,8.740003952887886313e-03,6.072622475348177673e+00,4.150813147480364229e+00,3.293912535915119566e+00,-2.928058708715878034e+00,5.336280104641550892e-01,-5.406354193580945600e-01,1.436680877189673855e-01,1.287496903959787353e+01,1.034272903482042594e+01,1.162855443146990808e+01,8.865612398595565935e+00,-5.631190012771392084e-02,-4.006573782353562763e+00,-4.944024554514617087e+00
1.030645182418060829e-01,1.412858020856784871e-02,-7.754137760296231363e-01,7.742503528498377412e-03,-2.363325712684208657e+00,1.256410142157275006e-03,1.569508395870816031e+00,7.853308926582038829e-01,3.782101469800171478e-01,2.571717620058147080e-01,2.066424647099997791e-01,-1.920828411427759341e-01,3.351656992638538113e-02,-3.809805274301605177e-02,8.884080221165394087e-03,6.097961227336506695e+00,4.168856818250639584e+00,3.306853350939385816e+00,-2.935048169706269139e+00,5.357031771737240655e-01,-5.405102424553022145e-01,1.443018448132115938e-01,1.292876645933354496e+01,1.037464823678356041e+01,1.168362164001920256e+01,8.831065811470145022e+00,-6.738125371915015815e-02,-4.025706397187128083e+00,-4.963939730698108121e+00
1.040651446325032287e-01,1.451008421945099679e-02,-7.751543531746754034e-01,7.950933048919386209e-03,-2.363519386327782357e+00,1.290216233345750987e-03,1.569470003392266833e+00,7.853398546487633247e-01,3.843243609365093461e-01,2.613520955640437071e-01,2.099577259592677603e-01,-1.950230715481365007e-01,3.405362440460150963e-02,-3.863880106646639528e-02,9.028783984894730302e-03,6.122714278644643571e+00,4.186511888919764779e+00,3.319463436682036139e+00,-2.941670408070836462e+00,5.377244187664533825e-01,-5.402942958474673540e-01,1.449223013810197469e-01,1.298133882609964473e+01,1.040472768562768380e+01,1.173761693379437610e+01,8.797811293290754620e+00,-7.848546868950978528e-02,-4.044222512232933830e+00,-4.983361222807323188e+00
1.050657710232003744e-01,1.489771856875659120e-02,-7.748907385937126024e-01,8.162686165154659640e-03,-2.363716005297679779e+00,1.324560718333461524e-03,1.569431069949877910e+00,7.853489617421313129e-01,3.904630513574768869e-01,2.655499014461288332e-01,2.132854402666565785e-01,-1.979697452687018133e-01,3.459267449963607244e-02,-3.917928807011428205e-02,9.174101960376650211e-03,6.146883888333895207e+00,4.203779836898439370e+00,3.331744092557072268e+00,-2.947926994962517533e+00,5.396919477163546475e-01,-5.399880001195461743e-01,1.455295077079360733e-01,1.303269141092089178e+01,1.043297268475458495e+01,1.179054518662704254e+01,8.765843230582305523e+00,-8.962523336850047873e-02,-4.062124894652997753e+00,-5.002290755098073305e+00
1.060663974138975202e-01,1.529150745657154205e-02,-7.746229149970237371e-01,8.377775173358290028e-03,-2.363915575858458684e+00,1.359445567132741084e-03,1.569391595850293308e+00,7.853582145462794095e-01,3.966256355660770505e-01,2.697647930260578253e-01,2.166252786460610980e-01,-2.009224972100270568e-01,3.513366657150469169e-02,-3.971942355867000979e-02,9.320020914228956468e-03,6.170472315465563184e+00,4.220662139597359364e+00,3.343696617978494157e+00,-2.953819501534247216e+00,5.416059764974385793e-01,-5.395917758564947597e-01,1.461235140795047183e-01,1.308282948411267910e+01,1.045938863047244993e+01,1.184241121998053003e+01,8.735155982630448790e+00,-1.008011921015981027e-01,-4.079416312693668445e+00,-5.020730050749461881e+00
1.070670238045946659e-01,1.569147450107186495e-02,-7.743508654810262737e-01,8.596212041142707941e-03,-2.364118103910141322e+00,1.394872696188709888e-03,1.569351581490198821e+00,7.853676136559624155e-01,4.028115331459427573e-01,2.739963851561542096e-01,2.199769134116035807e-01,-2.038809638498041421e-01,3.567654719283010201e-02,-4.025911775769221157e-02,9.466527663386488725e-03,6.193481819100948194e+00,4.237160274427221651e+00,3.355322312360302206e+00,-2.959349498938961709e+00,5.434667175837165631e-01,-5.391060436432691949e-01,1.467043707812699105e-01,1.313175831513601288e+01,1.048398101218458578e+01,1.189321980272447021e+01,8.705743881492127301e+00,-1.120139450890468291e-01,-4.096099535683455528e+00,-5.038680831900537171e+00
1.080676501952918117e-01,1.609764274078459220e-02,-7.740745735267873240e-01,8.818008408879732599e-03,-2.364323594989786059e+00,1.430843968592014322e-03,1.569311027355900556e+00,7.853771596527695520e-01,4.090201659411837332e-01,2.782442941670779657e-01,2.233400181776345472e-01,-2.068447832378623452e-01,3.622126314884212273e-02,-4.079828131358800153e-02,9.613609075101139240e-03,6.215914658301356255e+00,4.253275718798724903e+00,3.366622475116498592e+00,-2.964518558329597653e+00,5.452743834491997621e-01,-5.385312240648260085e-01,1.472721280987758230e-01,1.317948317245000212e+01,1.050675541254766188e+01,1.194297565093485680e+01,8.677601232016986188e+00,-1.232640482389237846e-01,-4.112177334029407660e+00,-5.056144819689773584e+00
1.090682765859889575e-01,1.651003463684966657e-02,-7.737940229985433849e-01,9.043175591001607547e-03,-2.364532054273061235e+00,1.467361194291567569e-03,1.569269934022903490e+00,7.853868531051734214e-01,4.152509580563859548e-01,2.825081378678250266e-01,2.267142678587324711e-01,-2.098135949961678348e-01,3.676776143737769953e-02,-4.133682529361284302e-02,9.761252066941839001e-03,6.237773092128087171e+00,4.269009950122562458e+00,3.377598405661080605e+00,-2.969328250859090801e+00,5.470291865678995613e-01,-5.378677377061207299e-01,1.478268363175666011e-01,1.322600932336205659e+01,1.052771750760000558e+01,1.199168342771948481e+01,8.650722311879636806e+00,-1.345520130340623899e-01,-4.127652479212036596e+00,-5.073123734297436904e+00
1.100689029766861032e-01,1.692867207528181428e-02,-7.735091981422224094e-01,9.271724577302046730e-03,-2.364743486575817677e+00,1.504426130307290029e-03,1.569228302155489807e+00,7.853966945685816325e-01,4.215033358566116495e-01,2.867875355457273900e-01,2.300993386697035292e-01,-2.127870403188240334e-01,3.731598926888085588e-02,-4.187466118587065272e-02,9.909443606794554257e-03,6.259059379642445187e+00,4.284364445809435651e+00,3.388251403408049978e+00,-2.973780147680376018e+00,5.487313394138266798e-01,-5.371160051521099987e-01,1.483685457231864180e-01,1.327134203387585032e+01,1.054687306686006210e+01,1.203934774306855005e+01,8.625101371622816870e+00,-1.458783064126799589e-01,-4.142527743778861016e+00,-5.089619294990900045e+00
1.110695293673832490e-01,1.735357636923246308e-02,-7.732200835839636577e-01,9.503666034237270160e-03,-2.364957896355663003e+00,1.542040480942849295e-03,1.569186132506299014e+00,7.854066845853868717e-01,4.277767279673996281e-01,2.910821079664533961e-01,2.334949081255819903e-01,-2.157647619720713117e-01,3.786589406640272076e-02,-4.241170089931373122e-02,1.005817071286230213e-02,6.279775779905735433e+00,4.299340683270039598e+00,3.398582767771407109e+00,-2.977875819946391278e+00,5.503810544609923916e-01,-5.362764469877500106e-01,1.488973066011795854e-01,1.331548656853698986e+01,1.056422795339540244e+01,1.208597315373026326e+01,8.600732634711306446e+00,-1.572433506625195987e-01,-4.156805901336459996e+00,-5.105633220172845377e+00
1.120701557580803948e-01,1.778476826125161003e-02,-7.729266643286384353e-01,9.739010306227060404e-03,-2.365175287713531915e+00,1.580205897998400574e-03,1.569143425915906720e+00,7.854168236850166407e-01,4.340705652747648413e-01,2.953914773740073385e-01,2.369006550416301038e-01,-2.187464042942872389e-01,3.841742346560156340e-02,-4.294785676374277689e-02,1.020742045366514021e-02,6.299924551979256826e+00,4.313940139915072081e+00,3.408593798165152844e+00,-2.981616838810070558e+00,5.519785441834083040e-01,-5.353494837979964061e-01,1.494131692370900821e-01,1.335844819027651553e+01,1.057978812386259726e+01,1.213156416311126584e+01,8.577610297596628186e+00,-1.686475233282690445e-01,-4.170489726541102726e+00,-5.121167227432417590e+00
1.130707821487775405e-01,1.822226792554973787e-02,-7.726289257583711656e-01,9.977767416955791308e-03,-2.365395664395263609e+00,1.618923980983326448e-03,1.569100183312402530e+00,7.854271123839843272e-01,4.403842809251988233e-01,2.997152674907297421e-01,2.403162595333380447e-01,-2.217316131959863601e-01,3.897052531474270304e-02,-4.348304152980690673e-02,1.035717994804017175e-02,6.319507954924314497e+00,4.328164293155229991e+00,3.418285794003286249e+00,-2.985004775424350498e+00,5.535240210550850248e-01,-5.343355361678058246e-01,1.499161839164621923e-01,1.340023216025221053e+01,1.059355962851813437e+01,1.217612522120161067e+01,8.555728529792432369e+00,-1.800911571322140192e-01,-4.183581995087968686e+00,-5.136223033599320864e+00
1.140714085394746863e-01,1.866609497025968623e-02,-7.723268536310600174e-01,1.021994707067347581e-02,-2.365619029793171180e+00,1.658196277328978811e-03,1.569056405710969715e+00,7.854375511859391645e-01,4.467173103256691369e-01,3.040531035172971963e-01,2.437414030164237744e-01,-2.247200361598205576e-01,3.952514767469860607e-02,-4.401716836900364249e-02,1.050743636514153354e-02,6.338528247802212690e+00,4.342014620401209335e+00,3.427660054699809500e+00,-2.988041200942167741e+00,5.550176975500340504e-01,-5.332350246821341289e-01,1.504064009248401723e-01,1.344084373768784246e+01,1.060554861120088788e+01,1.221966072452425323e+01,8.535081473960584475e+00,-1.915745399077707356e-01,-4.196085483698889895e+00,-5.150802354800879890e+00
1.150720349301718320e-01,1.911626843969856104e-02,-7.720204340788976438e-01,1.046555865349680509e-02,-2.365845386947616369e+00,1.698024282601415594e-03,1.569012094213463548e+00,7.854481405817167472e-01,4.530690911436202062e-01,3.084046121327226331e-01,2.471757682068335127e-01,-2.277113222405784676e-01,4.008123881894880974e-02,-4.455015087367893839e-02,1.065817692444041495e-02,6.356987689674250319e+00,4.355492599063707893e+00,3.436717879668720776e+00,-2.990727686516457151e+00,5.564597861422665437e-01,-5.320483699259376253e-01,1.508838705477680564e-01,1.348028817971025184e+01,1.061576130928611938e+01,1.226217501610864424e+01,8.515663246007806109e+00,-2.030979145458934321e-01,-4.208002970108685403e+00,-5.164906906522022112e+00
1.160726613208689778e-01,1.957280681662960584e-02,-7.717096536068918100e-01,1.071461123471020328e-02,-2.366074738548582079e+00,1.738409440714147039e-03,1.568967250007990755e+00,7.854588810493888795e-01,4.594390633069718732e-01,3.127694214943546602e-01,2.506190391207409607e-01,-2.307051220651859802e-01,4.063874723357994989e-02,-4.508190305702707706e-02,1.080938889572504065e-02,6.374888539601734294e+00,4.368599706553423445e+00,3.445460568324021811e+00,-2.993065803300155370e+00,5.578504993057937789e-01,-5.307759924841723986e-01,1.513486430707901009e-01,1.351857074118456126e+01,1.062420405361167575e+01,1.230367238548847375e+01,8.497467935192966948e+00,-2.146614789540685075e-01,-4.219337233050046265e+00,-5.178538403668271783e+00
1.170732877115661236e-01,2.003572802452411802e-02,-7.713944990913863542e-01,1.096711356806684586e-02,-2.366307086937246673e+00,1.779353144140868306e-03,1.568921874368488734e+00,7.854697730543153122e-01,4.658266690041215630e-01,3.171471612378786165e-01,2.540709010745482166e-01,-2.337010878327061836e-01,4.119762161728581645e-02,-4.561233935309083609e-02,1.096105959910068095e-02,6.392233056645967082e+00,4.381337420281051998e+00,3.453889420079712558e+00,-2.995057122446198150e+00,5.591900495146263639e-01,-5.294183129417946443e-01,1.518007687794505345e-01,1.355569667454731864e+01,1.063088326837633169e+01,1.234415706872304597e+01,8.480489604244793256e+00,-2.262653860278065476e-01,-4.230091052236998550e+00,-5.191698560631649251e+00
1.180739141022632832e-01,2.050504942982334100e-02,-7.710749577785814823e-01,1.122307409308973686e-02,-2.366542434107556048e+00,1.820856734128207914e-03,1.568875968654302566e+00,7.854808170491921482e-01,4.722313526839424513e-01,3.215374624773155721e-01,2.575310406848851374e-01,-2.366988733143391699e-01,4.175781088136725633e-02,-4.614137461676137697e-02,1.111317640498965705e-02,6.409023499868246709e+00,4.393707217657290443e+00,3.462005734349793418e+00,-2.996703215107521689e+00,5.604786492427761280e-01,-5.279757518837601138e-01,1.522402979592934746e-01,1.359167122963775221e+01,1.063580547101089380e+01,1.238363324844234548e+01,8.464722289490124396e+00,-2.379097436344290717e-01,-4.240267208346937267e+00,-5.204389091359527875e+00
1.190745404929604290e-01,2.098078784420029722e-02,-7.707510172830553952e-01,1.148250093637270125e-02,-2.366780781707796599e+00,1.862921500908459481e-03,1.568829534309766460e+00,7.854920134741036897e-01,4.786525610557836874e-01,3.259399578050227175e-01,2.609991458686094501e-01,-2.396981338534219519e-01,4.231926414973222195e-02,-4.666892412377821042e-02,1.126572673413130804e-02,6.425262128329882749e+00,4.405710576092837449e+00,3.469810810548264790e+00,-2.998005652437061741e+00,5.617165109642537901e-01,-5.264487298950258909e-01,1.526672808958630667e-01,1.362649965352723136e+01,1.063897727202204635e+01,1.242210505391541098e+01,8.450160000992433140e+00,-2.495946146089752515e-01,-4.249868483001231212e+00,-5.216611709426466348e+00
1.200751668836575747e-01,2.146295952682179126e-02,-7.704226655862838058e-01,1.174540191288148822e-02,-2.367022131042168631e+00,1.905548683912329944e-03,1.568782572863780977e+00,7.855033627565720655e-01,4.850897430894713369e-01,3.303542812916934190e-01,2.644749058428066957e-01,-2.426985263654289071e-01,4.288193075889577821e-02,-4.719490357072934211e-02,1.141869805758204300e-02,6.440951201092174117e+00,4.417348972998388135e+00,3.477305948089126630e+00,-2.998966005587753614e+00,5.629038471530709575e-01,-5.248376675605470609e-01,1.530817678747036226e-01,1.366018719034695117e+01,1.064040537480949666e+01,1.245957656114184608e+01,8.436796722700842466e+00,-2.613200167621244630e-01,-4.258897658744412063e+00,-5.228368128108916935e+00
1.210757932743547205e-01,2.195158018661020130e-02,-7.700898910351616777e-01,1.201178452725476173e-02,-2.367266483072359762e+00,1.948739471981674994e-03,1.568735085929392037e+00,7.855148653116079682e-01,4.915423500153077718e-01,3.347800684863574405e-01,2.679580111247908958e-01,-2.456997093379713060e-01,4.344576025798008168e-02,-4.771922907505110611e-02,1.157207789671530276e-02,6.456092977216423279e+00,4.428623885784641168e+00,3.484492446386380671e+00,-2.999585845712534393e+00,5.640408702832382382e-01,-5.231429854652805966e-01,1.534838091813591765e-01,1.369273908111389915e+01,1.064009657545664744e+01,1.249605179296622914e+01,8.424626412609216075e+00,-2.730859228999350519e-01,-4.267357519021954815e+00,-5.239660060462902891e+00
1.220764196650518663e-01,2.244666498450541628e-02,-7.697526823405236307e-01,1.228165597510517439e-02,-2.367513838419118777e+00,1.992495003582239917e-03,1.568687075203370807e+00,7.855265215417607250e-01,4.980098353240715037e-01,3.392169564163803885e-01,2.714481535321034422e-01,-2.487013428307977558e-01,4.401070240871444300e-02,-4.824181717502830369e-02,1.172585382322156346e-02,6.470689715763934480e+00,4.439536791862293441e+00,3.491371604854024646e+00,-2.999866743964339388e+00,5.651277928287673502e-01,-5.213651041941821385e-01,1.538734551013739571e-01,1.372416056355512559e+01,1.063805776249494528e+01,1.253153471921510942e+01,8.413643002925605074e+00,-2.848922608552703073e-01,-4.275250848156649575e+00,-5.250489219404543384e+00
1.230770460557490120e-01,2.294822853572672794e-02,-7.694110285756643464e-01,1.255502314432039267e-02,-2.367764197363826373e+00,2.036816367016402399e-03,1.568638542465791152e+00,7.855383318371684798e-01,5.044916547670175166e-01,3.436645835874641564e-01,2.749450261825139297e-01,-2.517030884757935905e-01,4.457670718543518817e-02,-4.876258482979410613e-02,1.188001345910835900e-02,6.484743675796011075e+00,4.450089168642039184e+00,3.497944722906061177e+00,-2.999810271496104797e+00,5.661648272636692347e-01,-5.195044443322081040e-01,1.542507559202922762e-01,1.375445687193061239e+01,1.063429591664245066e+01,1.256602925685655947e+01,8.403840400251720411e+00,-2.967389135307157977e-01,-4.282580431323552261e+00,-5.260857317793517396e+00
1.240776724464461578e-01,2.345628491203471250e-02,-7.690649191748600844e-01,1.283189261636414821e-02,-2.368017559850071230e+00,2.081704600635909692e-03,1.568589489579609308e+00,7.855502965756095968e-01,5.109872663558771011e-01,3.481225899836465909e-01,2.784483234940198781e-01,-2.547046094769815361e-01,4.514372477508580422e-02,-4.928144941933009643e-02,1.203454447670025337e-02,6.498257116373955533e+00,4.460282493534579729e+00,3.504213099956489330e+00,-2.999417999460765927e+00,5.671521860619549438e-01,-5.175614264643143558e-01,1.546157619236581127e-01,1.378363323685446140e+01,1.062881811051670233e+01,1.259953927018169750e+01,8.395212485772498567e+00,-3.086257189529235667e-01,-4.289349054523595051e+00,-5.270766068519321834e+00
1.250782988371433035e-01,2.397084764399313311e-02,-7.687143439318884219e-01,1.311227066757727870e-02,-2.368273925485218978e+00,2.127160693054620105e-03,1.568539918490243545e+00,7.855624161225511770e-01,5.174961303628581311e-01,3.525906170673019924e-01,2.819577411848466775e-01,-2.577055706105213506e-01,4.571170557721691841e-02,-4.979832874446628310e-02,1.218943459863885970e-02,6.511232296559070321e+00,4.470118243950609305e+00,3.510178035419310394e+00,-2.998691499011259864e+00,5.680900816976358625e-01,-5.155364711754575335e-01,1.549685233970157228e-01,1.381169488511487842e+01,1.062163150832239644e+01,1.263206857100833780e+01,8.387753115455657493e+00,-3.205524703381456009e-01,-4.295559504555745534e+00,-5.280217184590421553e+00
1.260789252278404493e-01,2.449192972323081807e-02,-7.683592929985498809e-01,1.339616327047876351e-02,-2.368533293541992268e+00,2.173185583361244948e-03,1.568489831225151176e+00,7.855746908312014609e-01,5.240177093206443981e-01,3.570683077791401150e-01,2.854729762734475873e-01,-2.607056382247096571e-01,4.628060020398613167e-02,-5.031314102688104473e-02,1.234467159788281941e-02,6.523671475412659682e+00,4.479597897300828357e+00,3.515840828708524768e+00,-2.997632341300522363e+00,5.689787266447231540e-01,-5.134299990505933886e-01,1.553090906259093906e-01,1.383864703949264907e+01,1.061274336551390896e+01,1.266362091890606223e+01,8.381456120261091769e+00,-3.325189161689258155e-01,-4.301214568987848708e+00,-5.289212379226153615e+00
1.270795516185375951e-01,2.501954360470354938e-02,-7.679997568831882226e-01,1.368357609506677848e-02,-2.368795662960035298e+00,2.219780161332084167e-03,1.568439229893409337e+00,7.855871210425581230e-01,5.305514680223966106e-01,3.615553065382079989e-01,2.889937270785042922e-01,-2.637044802399806098e-01,4.685035948015828233e-02,-5.082580490910122706e-02,1.250024329770784565e-02,6.535576911996022531e+00,4.488722930995928451e+00,3.521202779238132408e+00,-2.996242097481487399e+00,5.698183333772276482e-01,-5.112424306746781166e-01,1.556375138958831228e-01,1.386449491857848493e+01,1.060216102843327413e+01,1.269420002144287629e+01,8.376315306360135438e+00,-3.445247602816281507e-01,-4.306317036126053210e+00,-5.297753365951459514e+00
1.280801780092347408e-01,2.555370120895600686e-02,-7.676357264492111865e-01,1.397451451011973329e-02,-2.369061032347493878e+00,2.266945267643774575e-03,1.568388116685292655e+00,7.855997070854604525e-01,5.370968735217510615e-01,3.660512592418876943e-01,2.925196932189256804e-01,-2.667017661489050617e-01,4.742093444310525180e-02,-5.133623945450199039e-02,1.265613757170666945e-02,6.546950865370467554e+00,4.497494822446611806e+00,3.526265186422132825e+00,-2.994522338707094722e+00,5.706091143691609524e-01,-5.089741866326676911e-01,1.559538434924812589e-01,1.388924373658923628e+01,1.058989193392369010e+01,1.272380953445292207e+01,8.372324455364559270e+00,-3.565696619649142418e-01,-4.310869694982946143e+00,-5.305841858694319235e+00
1.290808043999318866e-01,2.609441392438358043e-02,-7.672671929136112290e-01,1.426898358449730543e-02,-2.369329399982585294e+00,2.314681694086020286e-03,1.568336493871852699e+00,7.856124492766387579e-01,5.436533951328214043e-01,3.705558132658979820e-01,2.960505756138491207e-01,-2.696971670161911194e-01,4.799227634280602006e-02,-5.184436414730702464e-02,1.281234234378907447e-02,6.557795594597292776e+00,4.505915049063569988e+00,3.531029349674527307e+00,-2.992474636130276089e+00,5.713512820945338966e-01,-5.066256875095189738e-01,1.562581297012478887e-01,1.391289870318295030e+01,1.057594360891882346e+01,1.275245306232499587e+01,8.369477324565250953e+00,-3.686532360688061782e-01,-4.314875335244253485e+00,-5.313479571885914687e+00
1.300814307906290324e-01,2.664169260949433501e-02,-7.668941478454865956e-01,1.456698808844148971e-02,-2.369600763815171707e+00,2.362990183774340940e-03,1.568284363804496095e+00,7.856253479207647716e-01,5.502205044301966552e-01,3.750686174642934856e-01,2.995860764826396849e-01,-2.726903554786838102e-01,4.856433664184665877e-02,-5.235009889258829263e-02,1.296884558818187441e-02,6.568113358737805996e+00,4.513985088257507883e+00,3.535496568409316254e+00,-2.990100560903970361e+00,5.720450490273580879e-01,-5.041973538901874941e-01,1.565504228077272131e-01,1.393546502327302328e+01,1.056032367000860184e+01,1.278013415831173027e+01,8.367767647180320623e+00,-3.807750531243236924e-01,-4.318336747234305051e+00,-5.320668220563447903e+00
1.310820571813261781e-01,2.719554759517082976e-02,-7.665165831645617267e-01,1.486853249487763914e-02,-2.369875121468333568e+00,2.411871431362807780e-03,1.568231728914564860e+00,7.856384033105018316e-01,5.567976752489429693e-01,3.795893221694652264e-01,3.031258993448905925e-01,-2.756810057453656926e-01,4.913706701542042837e-02,-5.285336401626627295e-02,1.312563532942895121e-02,6.577906416853306126e+00,4.521706417439115278e+00,3.539668142040499177e+00,-2.987401684181112405e+00,5.726906276416442454e-01,-5.016896063596293365e-01,1.568307730974634606e-01,1.395694789684146286e+01,1.054303982298115194e+01,1.280685632485902836e+01,8.367189132612875113e+00,-3.929346394735451220e-01,-4.321256721880089913e+00,-5.327409520475627325e+00
1.320826835720233239e-01,2.775598868693208640e-02,-7.661344911397077739e-01,1.517362098071552146e-02,-2.370152470239943909e+00,2.461326083256786673e-03,1.568178591712914294e+00,7.856516157265560629e-01,5.633843836846025299e-01,3.841175791921402349e-01,3.066697490204227106e-01,-2.786687935973559127e-01,4.971041935132757689e-02,-5.335408026510980034e-02,1.328269964239120471e-02,6.587177028005095636e+00,4.529080514019093506e+00,3.543545369982076920e+00,-2.984379577114638415e+00,5.732882304114035321e-01,-4.991028655028010297e-01,1.570992308560006934e-01,1.397735251875138829e+01,1.052409986234186157e+01,1.283262301395554239e+01,8.367735466718054127e+00,-4.051314774099599170e-01,-4.323638050674087907e+00,-5.333705188190681845e+00
1.330833099627204696e-01,2.832302516719543278e-02,-7.657478643874640056e-01,1.548225742815033043e-02,-2.370432807104238648e+00,2.511354737825675053e-03,1.568124954789491543e+00,7.856649854377255604e-01,5.699801080931936603e-01,3.886530418213816618e-01,3.102173316292849981e-01,-2.816533963879109259e-01,5.028434574997550643e-02,-5.385216880673608653e-02,1.344002665224658215e-02,6.595927451254479656e+00,4.536108855408137686e+00,3.547129551648051660e+00,-2.981035810857484147e+00,5.738380698106476663e-01,-4.964375519046584917e-01,1.573558463688831954e-01,1.399668407855878982e+01,1.050351167080934367e+01,1.285743762750185226e+01,8.369400312079354975e+00,-4.173650053289512663e-01,-4.325483525635715587e+00,-5.339556941206983431e+00
1.340839363534176154e-01,2.889666579753841225e-02,-7.653566958705581014e-01,1.579444542596375803e-02,-2.370716128713392656e+00,2.561957945615644505e-03,1.568070820812915267e+00,7.856785127009517922e-01,5.765843290912114893e-01,3.931953648245887778e-01,3.137683545917545058e-01,-2.846344930424244413e-01,5.085879852437874549e-02,-5.434755122961084511e-02,1.359760453449008685e-02,6.604159945662758879e+00,4.542792919016945596e+00,3.550421986452419798e+00,-2.977371956562585353e+00,5.743403583133873669e-01,-4.936940861501580291e-01,1.576006699216551676e-01,1.401494776032378731e+01,1.048128321878896685e+01,1.288130351769912529e+01,8.372177308294187270e+00,-4.296346178883633238e-01,-4.326795939271580238e+00,-5.344966498066114902e+00
1.350845627441147612e-01,2.947691882096066876e-02,-7.649609788964266688e-01,1.611018827082502311e-02,-2.371002431399091392e+00,2.613136209562381181e-03,1.568016192530053532e+00,7.856921977613692265e-01,5.831965295556272855e-01,3.977442044474971961e-01,3.173225266283359880e-01,-2.876117640584269775e-01,5.143373020015889335e-02,-5.484014954304809730e-02,1.375542151493375220e-02,6.611876770291238437e+00,4.549134182256213244e+00,3.553423973809184400e+00,-2.973389585382878675e+00,5.747953083936336860e-01,-4.908728888242555599e-01,1.578337517998606720e-01,1.403214874242133448e+01,1.045742256382392021e+01,1.290422398745687893e+01,8.376060072268565193e+00,-4.419396661789600778e-01,-4.327578084534398073e+00,-5.349935578468408615e+00
