sakibchowdhury131/FrankaEmikaControl_lowerLevel/trajectory_with_tau.csv
t,q0,q1,q2,q3,q4,q5,q6,dq0,dq1,dq2,dq3,dq4,dq5,dq6,ddq0,ddq1,ddq2,ddq3,ddq4,ddq5,ddq6,tau0,tau1,tau2,tau3,tau4,tau5,tau6
0.000000000000000000e+00,0.000000000000000000e+00,-7.850000000000000311e-01,0.000000000000000000e+00,-2.855999999999999872e+00,0.000000000000000000e+00,2.799999999999999822e+00,7.850000000000000311e-01,0.000000000000000000e+00,0.000000000000000000e+00,0.000000000000000000e+00,0.000000000000000000e+00,0.000000000000000000e+00,0.000000000000000000e+00,0.000000000000000000e+00,0.000000000000000000e+00,0.000000000000000000e+00,0.000000000000000000e+00,0.000000000000000000e+00,0.000000000000000000e+00,0.000000000000000000e+00,0.000000000000000000e+00,0.000000000000000000e+00,-3.704849974808570590e+00,-6.850747565529947680e-01,2.036846073043129124e+01,1.032975221404809352e+00,2.284495256808520391e+00,0.000000000000000000e+00
1.000000000000000021e-03,0.000000000000000000e+00,-7.850000132708472300e-01,0.000000000000000000e+00,-2.855999989459155675e+00,0.000000000000000000e+00,2.799999999999999822e+00,7.850000000000000311e-01,0.000000000000000000e+00,-3.978786792289274577e-05,0.000000000000000000e+00,3.160293509304052924e-05,0.000000000000000000e+00,0.000000000000000000e+00,0.000000000000000000e+00,0.000000000000000000e+00,-7.947706517574487650e-02,0.000000000000000000e+00,6.312749748244879389e-02,0.000000000000000000e+00,0.000000000000000000e+00,0.000000000000000000e+00,1.442387706903636158e-03,-3.941073453484441380e+00,-6.864908568297021230e-01,2.057919994311764711e+01,1.034822918438640604e+00,2.398912834221045731e+00,8.853135238795495354e-13
2.000000000000000042e-03,0.000000000000000000e+00,-7.850001059694854399e-01,0.000000000000000000e+00,-2.855999915829951608e+00,0.000000000000000000e+00,2.799999999999999822e+00,7.850000000000000311e-01,0.000000000000000000e+00,-1.587570337066292962e-04,0.000000000000000000e+00,1.260984439155512615e-04,0.000000000000000000e+00,0.000000000000000000e+00,0.000000000000000000e+00,0.000000000000000000e+00,-1.583628404169084014e-01,0.000000000000000000e+00,1.257853418168586590e-01,0.000000000000000000e+00,0.000000000000000000e+00,0.000000000000000000e+00,2.874047269453727793e-03,-4.175538106730411592e+00,-6.878964744934897846e-01,2.078837191989778788e+01,1.036656948709025139e+00,2.512479205381630276e+00,1.764602353127031620e-12
3.000000000000000062e-03,0.000000000000000000e+00,-7.850003569818123639e-01,0.000000000000000000e+00,-2.855999716454445725e+00,0.000000000000000000e+00,2.799999999999999822e+00,7.850000000000000311e-01,0.000000000000000000e+00,-3.563169415022907028e-04,0.000000000000000000e+00,2.830174563932481087e-04,0.000000000000000000e+00,0.000000000000000000e+00,0.000000000000000000e+00,0.000000000000000000e+00,-2.366587938948153114e-01,0.000000000000000000e+00,1.879746991507390552e-01,0.000000000000000000e+00,0.000000000000000000e+00,0.000000000000000000e+00,4.295012624827121428e-03,-4.408246993687662929e+00,-6.892916854701935936e-01,2.099598115282961430e+01,1.038477423939841104e+00,2.625196517123851603e+00,2.639327992270956713e-12
4.000000000000000083e-03,0.000000000000000000e+00,-7.850008446039037358e-01,0.000000000000000000e+00,-2.855999329143184884e+00,0.000000000000000000e+00,2.799999999999999822e+00,7.850000000000000311e-01,0.000000000000000000e+00,-6.318785036322826848e-04,0.000000000000000000e+00,5.018920685993558898e-04,0.000000000000000000e+00,0.000000000000000000e+00,0.000000000000000000e+00,0.000000000000000000e+00,-3.143663937807903430e-01,0.000000000000000000e+00,2.496967356315992481e-01,0.000000000000000000e+00,0.000000000000000000e+00,0.000000000000000000e+00,5.705322423291692147e-03,-4.639203252693114621e+00,-6.906765624874890985e-01,2.120203212056408404e+01,1.040284453752299054e+00,2.737066917016885093e+00,3.511871349282102983e-12
5.000000000000000104e-03,0.000000000000000000e+00,-7.850016465434815904e-01,0.000000000000000000e+00,-2.855998692174034126e+00,0.000000000000000000e+00,2.799999999999999822e+00,7.850000000000000311e-01,0.000000000000000000e+00,-9.848541005903358250e-04,0.000000000000000000e+00,7.822555427546096316e-04,0.000000000000000000e+00,0.000000000000000000e+00,0.000000000000000000e+00,0.000000000000000000e+00,-3.914871082461583995e-01,0.000000000000000000e+00,3.109526174069486837e-01,0.000000000000000000e+00,0.000000000000000000e+00,0.000000000000000000e+00,7.105019902664100329e-03,-4.868410099417078030e+00,-6.920511751484051954e-01,2.140652928853726777e+01,1.042078145702732828e+00,2.848092553336385002e+00,4.385526664041350386e-12
6.000000000000000125e-03,0.000000000000000000e+00,-7.850028399213829777e-01,0.000000000000000000e+00,-2.855997744291015827e+00,0.000000000000000000e+00,2.799999999999999822e+00,7.850000000000000311e-01,0.000000000000000000e+00,-1.414657581041505428e-03,0.000000000000000000e+00,1.123642307227252970e-03,0.000000000000000000e+00,0.000000000000000000e+00,0.000000000000000000e+00,0.000000000000000000e+00,-4.680224054622439955e-01,0.000000000000000000e+00,3.717435106242967247e-01,0.000000000000000000e+00,0.000000000000000000e+00,0.000000000000000000e+00,8.494152764199736083e-03,-5.095870825019399142e+00,-6.934155900039778997e-01,2.160947710915669973e+01,1.043858605319796018e+00,2.958275575035284710e+00,5.264472885402327051e-12
7.000000000000000146e-03,0.000000000000000000e+00,-7.850045012730274552e-01,0.000000000000000000e+00,-2.855996424703138192e+00,0.000000000000000000e+00,2.799999999999999822e+00,7.850000000000000311e-01,0.000000000000000000e+00,-1.920704261822171440e-03,0.000000000000000000e+00,1.525587956533039314e-03,0.000000000000000000e+00,0.000000000000000000e+00,0.000000000000000000e+00,0.000000000000000000e+00,-5.439737536003721452e-01,0.000000000000000000e+00,4.320705814311527337e-01,0.000000000000000000e+00,0.000000000000000000e+00,0.000000000000000000e+00,9.872773049933059042e-03,-5.321588794324180860e+00,-6.947698706249880729e-01,2.181088002198165299e+01,1.045625936141041379e+00,3.067618131714485052e+00,6.153745915615793649e-12
8.000000000000000167e-03,0.000000000000000000e+00,-7.850067065498854690e-01,0.000000000000000000e+00,-2.855994673083233515e+00,0.000000000000000000e+00,2.799999999999999822e+00,7.850000000000000311e-01,0.000000000000000000e+00,-2.502410927940038662e-03,0.000000000000000000e+00,1.987629251335230711e-03,0.000000000000000000e+00,0.000000000000000000e+00,0.000000000000000000e+00,0.000000000000000000e+00,-6.193426208318673076e-01,0.000000000000000000e+00,4.919349959750261569e-01,0.000000000000000000e+00,0.000000000000000000e+00,0.000000000000000000e+00,1.124093702144768336e-02,-5.545567444013112635e+00,-6.961140776728241830e-01,2.201074245389791884e+01,1.047380239748912478e+00,3.176122373593478265e+00,7.059222130456621613e-12
9.000000000000001055e-03,0.000000000000000000e+00,-7.850095311209465132e-01,0.000000000000000000e+00,-2.855992429566790669e+00,0.000000000000000000e+00,2.799999999999999822e+00,7.850000000000000311e-01,0.000000000000000000e+00,-3.159195832574137296e-03,0.000000000000000000e+00,2.509304118444600877e-03,0.000000000000000000e+00,0.000000000000000000e+00,0.000000000000000000e+00,0.000000000000000000e+00,-6.941304753280546080e-01,0.000000000000000000e+00,5.513379204034263292e-01,0.000000000000000000e+00,0.000000000000000000e+00,0.000000000000000000e+00,1.259870504008309133e-02,-5.767810280837426085e+00,-6.974482689694407878e-01,2.220906881928673471e+01,1.049121615806137831e+00,3.283790451480886219e+00,7.987594960456867454e-12
1.000000000000000021e-02,0.000000000000000000e+00,-7.850130497741876212e-01,0.000000000000000000e+00,-2.855989634750787598e+00,0.000000000000000000e+00,2.799999999999999822e+00,7.850000000000000311e-01,0.000000000000000000e+00,-3.890478697074819907e-03,0.000000000000000000e+00,3.090151650819428480e-03,0.000000000000000000e+00,0.000000000000000000e+00,0.000000000000000000e+00,0.000000000000000000e+00,-7.683387852602584500e-01,0.000000000000000000e+00,6.102805208638624190e-01,0.000000000000000000e+00,0.000000000000000000e+00,0.000000000000000000e+00,1.394614144855976789e-02,-5.988320879848547662e+00,-6.987724995664204020e-01,2.240586352018831562e+01,1.050850162090541717e+00,3.390624516744930705e+00,8.946351472138847072e-12
1.099999999999999936e-02,0.000000000000000000e+00,-7.850173367180408590e-01,0.000000000000000000e+00,-2.855986229692527356e+00,0.000000000000000000e+00,2.799999999999999822e+00,7.850000000000000311e-01,0.000000000000000000e+00,-4.695680710963766845e-03,0.000000000000000000e+00,3.729712107565506460e-03,0.000000000000000000e+00,0.000000000000000000e+00,0.000000000000000000e+00,0.000000000000000000e+00,-8.419690187998036812e-01,0.000000000000000000e+00,6.687639635038441499e-01,0.000000000000000000e+00,0.000000000000000000e+00,0.000000000000000000e+00,1.528331445400299415e-02,-6.207102882647498987e+00,-7.000868218131628407e-01,2.260113094645990728e+01,1.052565974529277470e+00,3.496626721283850880e+00,9.943747214524734090e-12
1.200000000000000025e-02,0.000000000000000000e+00,-7.850224655828622611e-01,0.000000000000000000e+00,-2.855982155908469267e+00,0.000000000000000000e+00,2.799999999999999822e+00,7.850000000000000311e-01,0.000000000000000000e+00,-5.574224531933982991e-03,0.000000000000000000e+00,4.427526913936135310e-03,0.000000000000000000e+00,0.000000000000000000e+00,0.000000000000000000e+00,0.000000000000000000e+00,-9.150226441180153714e-01,0.000000000000000000e+00,7.267894144708808568e-01,0.000000000000000000e+00,0.000000000000000000e+00,0.000000000000000000e+00,1.661029601240304743e-02,-6.424159995652921396e+00,-7.013912854241577399e-01,2.279487547592838226e+01,1.054269147232483439e+00,3.601799217496254535e+00,1.098878973926353808e-11
1.300000000000000114e-02,0.000000000000000000e+00,-7.850285094223994342e-01,0.000000000000000000e+00,-2.855977355373065407e+00,0.000000000000000000e+00,2.799999999999999822e+00,7.850000000000000311e-01,0.000000000000000000e+00,-6.525534285849796459e-03,0.000000000000000000e+00,5.183138661332124808e-03,0.000000000000000000e+00,0.000000000000000000e+00,0.000000000000000000e+00,0.000000000000000000e+00,-9.875011293862179240e-01,0.000000000000000000e+00,7.843580399124817637e-01,0.000000000000000000e+00,0.000000000000000000e+00,0.000000000000000000e+00,1.792716171443742290e-02,-6.639495988387917436e+00,-7.026859375453865519e-01,2.298710147453763142e+01,1.055959772526373408e+00,3.706144158251431175e+00,1.209121344714070290e-11
1.400000000000000029e-02,0.000000000000000000e+00,-7.850355407152599385e-01,0.000000000000000000e+00,-2.855971770517593544e+00,0.000000000000000000e+00,2.799999999999999822e+00,7.850000000000000311e-01,0.000000000000000000e+00,-7.549035566746857724e-03,0.000000000000000000e+00,5.996091107301790117e-03,0.000000000000000000e+00,0.000000000000000000e+00,0.000000000000000000e+00,0.000000000000000000e+00,-1.059405942775735854e+00,0.000000000000000000e+00,8.414710059761562055e-01,0.000000000000000000e+00,0.000000000000000000e+00,0.000000000000000000e+00,1.923399067271058804e-02,-6.853114691785572532e+00,-7.039708228198249262e-01,2.317781329649079325e+01,1.057637940985766134e+00,3.809663696859624693e+00,1.326146137348160892e-11
1.499999999999999944e-02,0.000000000000000000e+00,-7.850436313663796684e-01,0.000000000000000000e+00,-2.855965344228989622e+00,0.000000000000000000e+00,2.799999999999999822e+00,7.850000000000000311e-01,0.000000000000000000e+00,-8.644155436832145697e-03,0.000000000000000000e+00,6.865929175540962624e-03,0.000000000000000000e+00,0.000000000000000000e+00,0.000000000000000000e+00,0.000000000000000000e+00,-1.130738552457894786e+00,0.000000000000000000e+00,8.981294788094136283e-01,0.000000000000000000e+00,0.000000000000000000e+00,0.000000000000000000e+00,2.053086541036286405e-02,-7.065019996513299816e+00,-7.052459834520656834e-01,2.336701528438737085e+01,1.059303741466059989e+00,3.912359987042275389e+00,1.451066176938464736e-11
1.600000000000000033e-02,0.000000000000000000e+00,-7.850528527084904562e-01,0.000000000000000000e+00,-2.855958019848684248e+00,0.000000000000000000e+00,2.799999999999999822e+00,7.850000000000000311e-01,0.000000000000000000e+00,-9.810322426483967725e-03,0.000000000000000000e+00,7.792198955892981269e-03,0.000000000000000000e+00,0.000000000000000000e+00,0.000000000000000000e+00,0.000000000000000000e+00,-1.201500426604018790e+00,0.000000000000000000e+00,9.543346245597635891e-01,0.000000000000000000e+00,0.000000000000000000e+00,0.000000000000000000e+00,2.181787175105398546e-02,-7.275215851315831372e+00,-7.065114592720540543e-01,2.355471176935530764e+01,1.060957261134657381e+00,4.014235182902232246e+00,1.585061335657167447e-11
1.700000000000000122e-02,0.000000000000000000e+00,-7.850632755035890087e-01,0.000000000000000000e+00,-2.855949741171434741e+00,0.000000000000000000e+00,2.799999999999999822e+00,7.850000000000000311e-01,0.000000000000000000e+00,-1.104696653425194831e-02,0.000000000000000000e+00,8.774447704348691673e-03,0.000000000000000000e+00,0.000000000000000000e+00,0.000000000000000000e+00,0.000000000000000000e+00,-1.271693033385432603e+00,0.000000000000000000e+00,1.010087609374715090e+00,0.000000000000000000e+00,0.000000000000000000e+00,0.000000000000000000e+00,2.309509871032511263e-02,-7.483706261376970481e+00,-7.077672877979352961e-01,2.374090707117818155e+01,1.062598585501844273e+00,4.115291438893952325e+00,1.729374542874806409e-11
1.800000000000000211e-02,0.000000000000000000e+00,-7.850749699444042884e-01,0.000000000000000000e+00,-2.855940452444158950e+00,0.000000000000000000e+00,2.799999999999999822e+00,7.850000000000000311e-01,0.000000000000000000e+00,-1.235351922685704040e-02,0.000000000000000000e+00,9.812223843046450483e-03,0.000000000000000000e+00,0.000000000000000000e+00,0.000000000000000000e+00,0.000000000000000000e+00,-1.341317840973461406e+00,0.000000000000000000e+00,1.065389599401778131e+00,0.000000000000000000e+00,0.000000000000000000e+00,0.000000000000000000e+00,2.436263838830021733e-02,-7.690495286700174127e+00,-7.090135042980401092e-01,2.392560549841768847e+01,1.064227798451141460e+00,4.215530909793693937e+00,1.885312825994356345e-11
1.899999999999999953e-02,0.000000000000000000e+00,-7.850880056558663389e-01,0.000000000000000000e+00,-2.855930098364768632e+00,0.000000000000000000e+00,2.799999999999999822e+00,7.850000000000000311e-01,0.000000000000000000e+00,-1.372941343919151583e-02,0.000000000000000000e+00,1.090507696027212016e-02,0.000000000000000000e+00,0.000000000000000000e+00,0.000000000000000000e+00,0.000000000000000000e+00,-1.410376317539429492e+00,0.000000000000000000e+00,1.120241760788460939e+00,0.000000000000000000e+00,0.000000000000000000e+00,0.000000000000000000e+00,2.562058586375903779e-02,-7.895587040507631826e+00,-7.102501418519724385e-01,2.410881134853119789e+01,1.065844982269112284e+00,4.314955750669697387e+00,2.054242453225496590e-11
2.000000000000000042e-02,0.000000000000000000e+00,-7.851024516965739997e-01,0.000000000000000000e+00,-2.855918624081006829e+00,0.000000000000000000e+00,2.799999999999999822e+00,7.850000000000000311e-01,0.000000000000000000e+00,-1.517408357431898787e-02,0.000000000000000000e+00,1.205255781045908026e-02,0.000000000000000000e+00,0.000000000000000000e+00,0.000000000000000000e+00,0.000000000000000000e+00,-1.478869931254662040e+00,0.000000000000000000e+00,1.174645259682274512e+00,0.000000000000000000e+00,0.000000000000000000e+00,0.000000000000000000e+00,2.686903908953852671e-02,-8.098985687658169397e+00,-7.114772314108447349e-01,2.429052890798486075e+01,1.067450217674656754e+00,4.413568116852376377e+00,2.237588846848437285e-11
2.100000000000000130e-02,0.000000000000000000e+00,-7.851183765602633979e-01,0.000000000000000000e+00,-2.855905975189276802e+00,0.000000000000000000e+00,2.799999999999999822e+00,7.850000000000000311e-01,0.000000000000000000e+00,-1.668696550347437135e-02,0.000000000000000000e+00,1.325421831418821528e-02,0.000000000000000000e+00,0.000000000000000000e+00,0.000000000000000000e+00,0.000000000000000000e+00,-1.546800150290483566e+00,0.000000000000000000e+00,1.228601262230726965e+00,0.000000000000000000e+00,0.000000000000000000e+00,0.000000000000000000e+00,2.810809878927833516e-02,-8.300695443083808911e+00,-7.126948018566293674e-01,2.447076245236208081e+01,1.069043583847782308e+00,4.511370163904523167e+00,2.436833894392531619e-11
2.199999999999999872e-02,0.000000000000000000e+00,-7.851358481772757747e-01,0.000000000000000000e+00,-2.855892097733477630e+00,0.000000000000000000e+00,2.799999999999999822e+00,7.850000000000000311e-01,0.000000000000000000e+00,-1.826749656606392255e-02,0.000000000000000000e+00,1.450961155818791641e-02,0.000000000000000000e+00,0.000000000000000000e+00,0.000000000000000000e+00,0.000000000000000000e+00,-1.614168442818218585e+00,0.000000000000000000e+00,1.282110934581328188e+00,0.000000000000000000e+00,0.000000000000000000e+00,0.000000000000000000e+00,2.933786835548390926e-02,-8.500720570244837404e+00,-7.139028800606561642e-01,2.464951624646754880e+01,1.070625158457864323e+00,4.608364047591527957e+00,2.653514127176626047e-11
2.299999999999999961e-02,0.000000000000000000e+00,-7.851549339160261987e-01,0.000000000000000000e+00,-2.855876938203842030e+00,0.000000000000000000e+00,2.799999999999999822e+00,7.850000000000000311e-01,0.000000000000000000e+00,-1.991511556966521837e-02,0.000000000000000000e+00,1.581829179533408847e-02,0.000000000000000000e+00,0.000000000000000000e+00,0.000000000000000000e+00,0.000000000000000000e+00,-1.680976277009192499e+00,0.000000000000000000e+00,1.335175442881587182e+00,0.000000000000000000e+00,0.000000000000000000e+00,0.000000000000000000e+00,3.055845374892030009e-02,-8.699065379603544201e+00,-7.151014909412410914e-01,2.482679454442693512e+01,1.072195017691396579e+00,4.704551923851620465e+00,2.889218465168541528e-11
2.400000000000000050e-02,0.000000000000000000e+00,-7.851757005844709481e-01,0.000000000000000000e+00,-2.855860443535763071e+00,0.000000000000000000e+00,2.799999999999999822e+00,7.850000000000000311e-01,0.000000000000000000e+00,-2.162926279002716501e-02,0.000000000000000000e+00,1.717981444465014815e-02,0.000000000000000000e+00,0.000000000000000000e+00,0.000000000000000000e+00,0.000000000000000000e+00,-1.747225121034729600e+00,0.000000000000000000e+00,1.387795953279013839e+00,0.000000000000000000e+00,0.000000000000000000e+00,0.000000000000000000e+00,3.176996339930981961e-02,-8.895734227116522064e+00,-7.162906575204618376e-01,2.500260158978231217e+01,1.073753236279248569e+00,4.799935948766163030e+00,3.145586222053076142e-11
2.500000000000000139e-02,0.000000000000000000e+00,-7.851982144315767798e-01,0.000000000000000000e+00,-2.855842561108633326e+00,0.000000000000000000e+00,2.799999999999999822e+00,7.850000000000000311e-01,0.000000000000000000e+00,-2.340937997106997889e-02,0.000000000000000000e+00,1.859373609130701363e-02,0.000000000000000000e+00,0.000000000000000000e+00,0.000000000000000000e+00,0.000000000000000000e+00,-1.812916443066154626e+00,0.000000000000000000e+00,1.439973631921117381e+00,0.000000000000000000e+00,0.000000000000000000e+00,0.000000000000000000e+00,3.297250810733509674e-02,-9.090731512745376719e+00,-7.174704009800826343e-01,2.517694161558336319e+01,1.075299887523423426e+00,4.894518278529955246e+00,3.424306845023483703e-11
2.600000000000000228e-02,0.000000000000000000e+00,-7.852225411487877560e-01,0.000000000000000000e+00,-2.855823238744677361e+00,0.000000000000000000e+00,2.799999999999999822e+00,7.850000000000000311e-01,0.000000000000000000e+00,-2.525491032488521789e-02,0.000000000000000000e+00,2.005961448662311672e-02,0.000000000000000000e+00,0.000000000000000000e+00,0.000000000000000000e+00,0.000000000000000000e+00,-1.878051711274792535e+00,0.000000000000000000e+00,1.491709644955406810e+00,0.000000000000000000e+00,0.000000000000000000e+00,0.000000000000000000e+00,3.416620094792777174e-02,-9.284061678985937149e+00,-7.186407407166336414e-01,2.534981884447454803e+01,1.076835043323330909e+00,4.988301069421608780e+00,3.727116618806869397e-11
2.699999999999999969e-02,0.000000000000000000e+00,-7.852487458714946245e-01,0.000000000000000000e+00,-2.855802424707784226e+00,0.000000000000000000e+00,2.799999999999999822e+00,7.850000000000000311e-01,0.000000000000000000e+00,-2.716529853173573622e-02,0.000000000000000000e+00,2.157700854806438723e-02,0.000000000000000000e+00,0.000000000000000000e+00,0.000000000000000000e+00,0.000000000000000000e+00,-1.942632393831967841e+00,0.000000000000000000e+00,1.543005158529391796e+00,0.000000000000000000e+00,0.000000000000000000e+00,0.000000000000000000e+00,3.535115717486569942e-02,-9.475729209415902687e+00,-7.198016943956360159e-01,2.552123748877821185e+01,1.078358774201576775e+00,5.081286477773968357e+00,4.055796150315149617e-11
2.800000000000000058e-02,0.000000000000000000e+00,-7.852768931805020891e-01,0.000000000000000000e+00,-2.855780067702343938e+00,0.000000000000000000e+00,2.799999999999999822e+00,7.850000000000000311e-01,0.000000000000000000e+00,-2.913999074005576770e-02,0.000000000000000000e+00,2.314547835924430155e-02,0.000000000000000000e+00,0.000000000000000000e+00,0.000000000000000000e+00,0.000000000000000000e+00,-2.006659958909005503e+00,0.000000000000000000e+00,1.593861338790582005e+00,0.000000000000000000e+00,0.000000000000000000e+00,0.000000000000000000e+00,3.652749412662026351e-02,-9.665738627260722637e+00,-7.209532780050110778e-01,2.569120175057382482e+01,1.079871149329279634e+00,5.173476659944588718e+00,4.412170542117399563e-11
2.900000000000000147e-02,0.000000000000000000e+00,-7.853070471034977462e-01,0.000000000000000000e+00,-2.855756116872078643e+00,0.000000000000000000e+00,2.799999999999999822e+00,7.850000000000000311e-01,0.000000000000000000e+00,-3.117843456645081474e-02,0.000000000000000000e+00,2.476458516992379247e-02,0.000000000000000000e+00,0.000000000000000000e+00,0.000000000000000000e+00,0.000000000000000000e+00,-2.070135874677230259e+00,0.000000000000000000e+00,1.644279351886485996e+00,0.000000000000000000e+00,0.000000000000000000e+00,0.000000000000000000e+00,3.769533113349488040e-02,-9.854094493977910929e+00,-7.220955059076397120e-01,2.585971582177341332e+01,1.081372236550917298e+00,5.264873772286288833e+00,4.798106963826986870e-11
2.999999999999999889e-02,0.000000000000000000e+00,-7.853392711165196882e-01,0.000000000000000000e+00,-2.855730521798878208e+00,0.000000000000000000e+00,2.799999999999999822e+00,7.850000000000000311e-01,0.000000000000000000e+00,-3.328007909569773159e-02,0.000000000000000000e+00,2.643389139601133933e-02,0.000000000000000000e+00,0.000000000000000000e+00,0.000000000000000000e+00,0.000000000000000000e+00,-2.133061609307967288e+00,0.000000000000000000e+00,1.694260363964614102e+00,0.000000000000000000e+00,0.000000000000000000e+00,0.000000000000000000e+00,3.885478942601494623e-02,-1.004080140785943520e+01,-7.232283908931069760e-01,2.602678388419317912e+01,1.082862102408708838e+00,5.355479971117771854e+00,5.215511009182272062e-11
3.099999999999999978e-02,0.000000000000000000e+00,-7.853736281454247736e-01,0.000000000000000000e+00,-2.855703232501633604e+00,0.000000000000000000e+00,2.799999999999999822e+00,7.850000000000000311e-01,0.000000000000000000e+00,-3.544437488074469317e-02,0.000000000000000000e+00,2.815296061956292992e-02,0.000000000000000000e+00,0.000000000000000000e+00,0.000000000000000000e+00,0.000000000000000000e+00,-2.195438630972540661e+00,0.000000000000000000e+00,1.743805541172474882e+00,0.000000000000000000e+00,0.000000000000000000e+00,0.000000000000000000e+00,4.000599204457877534e-02,-1.022586400265230466e+01,-7.243519442286158183e-01,2.619241010962152671e+01,1.084340812166541212e+00,5.445297412694334760e+00,5.666328690978605920e-11
3.200000000000000067e-02,0.000000000000000000e+00,-7.854101805673571191e-01,0.000000000000000000e+00,-2.855674199435070726e+00,0.000000000000000000e+00,2.799999999999999822e+00,7.850000000000000311e-01,0.000000000000000000e+00,-3.767077394271119845e-02,0.000000000000000000e+00,2.992135758878203614e-02,0.000000000000000000e+00,0.000000000000000000e+00,0.000000000000000000e+00,0.000000000000000000e+00,-2.257268407842275337e+00,0.000000000000000000e+00,1.792916049657578670e+00,0.000000000000000000e+00,0.000000000000000000e+00,0.000000000000000000e+00,4.114906375033711150e-02,-1.040928694619735140e+01,-7.254661757091040997e-01,2.635659865988354156e+01,1.085808429833442279e+00,5.534328253178653512e+00,6.152541150161727757e-11
3.300000000000000155e-02,0.000000000000000000e+00,-7.854489902122159251e-01,0.000000000000000000e+00,-2.855643373488582881e+00,0.000000000000000000e+00,2.799999999999999822e+00,7.850000000000000311e-01,0.000000000000000000e+00,-3.995872977088807398e-02,0.000000000000000000e+00,3.173864821801967301e-02,0.000000000000000000e+00,0.000000000000000000e+00,0.000000000000000000e+00,0.000000000000000000e+00,-2.318552408088495831e+00,0.000000000000000000e+00,1.841593055567434023e+00,0.000000000000000000e+00,0.000000000000000000e+00,0.000000000000000000e+00,4.228413093733007777e-02,-1.059107493908581432e+01,-7.265710937065367192e-01,2.651935368690196171e+01,1.087265018186615251e+00,5.622574648611680104e+00,6.676164655827765415e-11
3.400000000000000244e-02,0.000000000000000000e+00,-7.854901183641237461e-01,0.000000000000000000e+00,-2.855610705985067277e+00,0.000000000000000000e+00,2.799999999999999822e+00,7.850000000000000311e-01,0.000000000000000000e+00,-4.230769732273746003e-02,0.000000000000000000e+00,3.360439958777432928e-02,0.000000000000000000e+00,0.000000000000000000e+00,0.000000000000000000e+00,0.000000000000000000e+00,-2.379292099882527101e+00,0.000000000000000000e+00,1.889837725049550388e+00,0.000000000000000000e+00,0.000000000000000000e+00,0.000000000000000000e+00,4.341132154583893232e-02,-1.077123271333405796e+01,-7.276667052184023765e-01,2.668067933275476733e+01,1.088710638794024410e+00,5.710038754883626666e+00,7.239249998070018677e-11
3.500000000000000333e-02,0.000000000000000000e+00,-7.855336257628948715e-01,0.000000000000000000e+00,-2.855576148679757509e+00,0.000000000000000000e+00,2.799999999999999822e+00,7.850000000000000311e-01,0.000000000000000000e+00,-4.471713302389284522e-02,0.000000000000000000e+00,3.551817994469202988e-02,0.000000000000000000e+00,0.000000000000000000e+00,0.000000000000000000e+00,0.000000000000000000e+00,-2.439488951395694105e+00,0.000000000000000000e+00,1.937651224251437654e+00,0.000000000000000000e+00,0.000000000000000000e+00,0.000000000000000000e+00,4.453076497695773739e-02,-1.094976503107601751e+01,-7.287530159154197440e-01,2.684057972972946260e+01,1.090145352036557602e+00,5.796722727705062361e+00,7.843877804225574124e-11
3.600000000000000422e-02,0.000000000000000000e+00,-7.855795726055029293e-01,0.000000000000000000e+00,-2.855539653759057384e+00,0.000000000000000000e+00,2.799999999999999822e+00,7.850000000000000311e-01,0.000000000000000000e+00,-4.718649476815900412e-02,0.000000000000000000e+00,3.747955870156630814e-02,0.000000000000000000e+00,0.000000000000000000e+00,0.000000000000000000e+00,0.000000000000000000e+00,-2.499144430799321803e+00,0.000000000000000000e+00,1.985034719320604601e+00,0.000000000000000000e+00,0.000000000000000000e+00,0.000000000000000000e+00,4.564259200838116648e-02,-1.112667668327350867e+01,-7.298300301884472763e-01,2.699905900037416018e+01,1.091569217129752412e+00,5.882628722578129299e+00,8.492160447071128715e-11
3.699999999999999817e-02,0.000000000000000000e+00,-7.856280185475498223e-01,0.000000000000000000e+00,-2.855501173839374296e+00,0.000000000000000000e+00,2.799999999999999822e+00,7.850000000000000311e-01,0.000000000000000000e+00,-4.971524191751206662e-02,0.000000000000000000e+00,3.948810643733816073e-02,0.000000000000000000e+00,0.000000000000000000e+00,0.000000000000000000e+00,0.000000000000000000e+00,-2.558260006264734265e+00,0.000000000000000000e+00,2.031989376404561121e+00,0.000000000000000000e+00,0.000000000000000000e+00,0.000000000000000000e+00,4.674693471139002021e-02,-1.130197248844413593e+01,-7.308977511946159744e-01,2.715612125754552153e+01,1.092982292145113110e+00,5.967758894767870359e+00,9.186237187597257048e-11
3.799999999999999906e-02,0.000000000000000000e+00,-7.856790227047334429e-01,0.000000000000000000e+00,-2.855460661965954383e+00,0.000000000000000000e+00,2.799999999999999822e+00,7.850000000000000311e-01,0.000000000000000000e+00,-5.230283530209950404e-02,0.000000000000000000e+00,4.154339489709618638e-02,0.000000000000000000e+00,0.000000000000000000e+00,0.000000000000000000e+00,0.000000000000000000e+00,-2.616837145963256450e+00,0.000000000000000000e+00,2.078516361650815547e+00,0.000000000000000000e+00,0.000000000000000000e+00,0.000000000000000000e+00,4.784392636902912166e-02,-1.147565729140688084e+01,-7.319561809026886579e-01,2.731177060445366678e+01,1.094384634030999504e+00,6.052115399273693797e+00,9.928276083204234936e-11
3.899999999999999994e-02,0.000000000000000000e+00,-7.857326436543156101e-01,0.000000000000000000e+00,-2.855418071611715014e+00,0.000000000000000000e+00,2.799999999999999822e+00,7.850000000000000311e-01,0.000000000000000000e+00,-5.494873722024006674e-02,0.000000000000000000e+00,4.364499699207639860e-02,0.000000000000000000e+00,0.000000000000000000e+00,0.000000000000000000e+00,0.000000000000000000e+00,-2.674877318066213761e+00,0.000000000000000000e+00,2.124616841206878881e+00,0.000000000000000000e+00,0.000000000000000000e+00,0.000000000000000000e+00,4.893370139548025577e-02,-1.164773596204526385e+01,-7.330053201376441896e-01,2.746601113470406830e+01,1.095776298633117873e+00,6.135700390800960413e+00,1.072046930394865427e-10
4.000000000000000083e-02,0.000000000000000000e+00,-7.857889394365910052e-01,0.000000000000000000e+00,-2.855373356676079055e+00,0.000000000000000000e+00,2.799999999999999822e+00,7.850000000000000311e-01,0.000000000000000000e+00,-5.765241143842386728e-02,0.000000000000000000e+00,4.579248679966237828e-02,0.000000000000000000e+00,0.000000000000000000e+00,0.000000000000000000e+00,0.000000000000000000e+00,-2.732381990744930711e+00,0.000000000000000000e+00,2.170291981220259458e+00,0.000000000000000000e+00,0.000000000000000000e+00,0.000000000000000000e+00,5.001639525659462571e-02,-1.181821339408769767e+01,-7.340451686245093033e-01,2.761884693233665189e+01,1.097157340714601137e+00,6.218516023732728826e+00,1.156503278559872783e-10
4.100000000000000172e-02,0.000000000000000000e+00,-7.858479675563543321e-01,0.000000000000000000e+00,-2.855326471483810025e+00,0.000000000000000000e+00,2.799999999999999822e+00,7.850000000000000311e-01,0.000000000000000000e+00,-6.041332319131230422e-02,0.000000000000000000e+00,4.798543956338520433e-02,0.000000000000000000e+00,0.000000000000000000e+00,0.000000000000000000e+00,0.000000000000000000e+00,-2.789352632170731372e+00,0.000000000000000000e+00,2.215542947838467391e+00,0.000000000000000000e+00,0.000000000000000000e+00,0.000000000000000000e+00,5.109214439160925103e-02,-1.198709450390542663e+01,-7.350757250314288171e-01,2.777028207186200248e+01,1.098527813975695100e+00,6.300564452101626856e+00,1.246420536227255127e-10
4.200000000000000261e-02,0.000000000000000000e+00,-7.859097849843696970e-01,0.000000000000000000e+00,-2.855277370783843249e+00,0.000000000000000000e+00,2.799999999999999822e+00,7.850000000000000311e-01,0.000000000000000000e+00,-6.323093918173812444e-02,0.000000000000000000e+00,5.022343169292343285e-02,0.000000000000000000e+00,0.000000000000000000e+00,0.000000000000000000e+00,0.000000000000000000e+00,-2.845790710514941146e+00,0.000000000000000000e+00,2.260370907209010127e+00,0.000000000000000000e+00,0.000000000000000000e+00,0.000000000000000000e+00,5.216108613601400101e-02,-1.215438422932759543e+01,-7.360969870119955516e-01,2.792032061829494793e+01,1.099887771073054132e+00,6.381847829561881902e+00,1.342024685824227959e-10
4.300000000000000350e-02,0.000000000000000000e+00,-7.859744481588377685e-01,0.000000000000000000e+00,-2.855226009748123239e+00,0.000000000000000000e+00,2.799999999999999822e+00,7.850000000000000311e-01,0.000000000000000000e+00,-6.610472758070543020e-02,0.000000000000000000e+00,5.250604076410317345e-02,0.000000000000000000e+00,0.000000000000000000e+00,0.000000000000000000e+00,0.000000000000000000e+00,-2.901697693948884105e+00,0.000000000000000000e+00,2.304777025479399999e+00,0.000000000000000000e+00,0.000000000000000000e+00,0.000000000000000000e+00,5.322335864556615448e-02,-1.232008752847341704e+01,-7.371089512468398386e-01,2.806896662718541791e+01,1.101237263638648711e+00,6.462368309361521845e+00,1.443543600626595591e-10
4.399999999999999745e-02,0.000000000000000000e+00,-7.860420129868640471e-01,0.000000000000000000e+00,-2.855172343970433069e+00,0.000000000000000000e+00,2.799999999999999822e+00,7.850000000000000311e-01,0.000000000000000000e+00,-6.903415802738957496e-02,0.000000000000000000e+00,5.483284551889799907e-02,0.000000000000000000e+00,0.000000000000000000e+00,0.000000000000000000e+00,0.000000000000000000e+00,-2.957075050643885650e+00,0.000000000000000000e+00,2.348762468797143566e+00,0.000000000000000000e+00,0.000000000000000000e+00,0.000000000000000000e+00,5.427910082145293025e-02,-1.248420937860146473e+01,-7.381116134844830645e-01,2.821622414464684780e+01,1.102576342298293488e+00,6.542128044314728719e+00,1.551207010064281633e-10
4.499999999999999833e-02,0.000000000000000000e+00,-7.861125348459279127e-01,0.000000000000000000e+00,-2.855116329465234415e+00,0.000000000000000000e+00,2.799999999999999822e+00,7.850000000000000311e-01,0.000000000000000000e+00,-7.201870162913731610e-02,0.000000000000000000e+00,5.720342586542907781e-02,0.000000000000000000e+00,0.000000000000000000e+00,0.000000000000000000e+00,0.000000000000000000e+00,-3.011924248771270296e+00,0.000000000000000000e+00,2.392328403309752272e+00,0.000000000000000000e+00,0.000000000000000000e+00,0.000000000000000000e+00,5.532845223658400258e-02,-1.264675477497577383e+01,-7.391049685814743420e-01,2.836209720738201412e+01,1.103905056689803210e+00,6.621129186774357578e+00,1.665246326248981390e-10
4.599999999999999922e-02,0.000000000000000000e+00,-7.861860685853495623e-01,0.000000000000000000e+00,-2.855057922666493386e+00,0.000000000000000000e+00,2.799999999999999822e+00,7.850000000000000311e-01,0.000000000000000000e+00,-7.505783096146668998e-02,0.000000000000000000e+00,5.961736287796497169e-02,0.000000000000000000e+00,0.000000000000000000e+00,0.000000000000000000e+00,0.000000000000000000e+00,-3.066246756502363446e+00,0.000000000000000000e+00,2.435475995164734453e+00,0.000000000000000000e+00,0.000000000000000000e+00,0.000000000000000000e+00,5.637155306301089297e-02,-1.280772872974895193e+01,-7.400890105418025389e-01,2.850658984270654983e+01,1.105223455480779826e+00,6.699373888604649885e+00,1.785894366418405710e-10
4.700000000000000011e-02,0.000000000000000000e+00,-7.862626685277591676e-01,0.000000000000000000e+00,-2.854997080426522338e+00,0.000000000000000000e+00,2.799999999999999822e+00,7.850000000000000311e-01,0.000000000000000000e+00,-7.815102006806705359e-02,0.000000000000000000e+00,6.207423879692184482e-02,0.000000000000000000e+00,0.000000000000000000e+00,0.000000000000000000e+00,0.000000000000000000e+00,-3.120044042008488727e+00,0.000000000000000000e+00,2.478206410509599777e+00,0.000000000000000000e+00,0.000000000000000000e+00,0.000000000000000000e+00,5.740854400044326233e-02,-1.296713627086179876e+01,-7.410637325556151955e-01,2.864970606857010793e+01,1.106531586386035881e+00,6.776864301154114756e+00,1.913385509061393819e-10
4.800000000000000100e-02,0.000000000000000000e+00,-7.863423884705647016e-01,0.000000000000000000e+00,-2.854933760014808364e+00,0.000000000000000000e+00,2.799999999999999822e+00,7.850000000000000311e-01,0.000000000000000000e+00,-8.129774446079912620e-02,0.000000000000000000e+00,6.457363702886330381e-02,0.000000000000000000e+00,0.000000000000000000e+00,0.000000000000000000e+00,0.000000000000000000e+00,-3.173317573460971541e+00,0.000000000000000000e+00,2.520520815491857913e+00,0.000000000000000000e+00,0.000000000000000000e+00,0.000000000000000000e+00,5.843956620590740059e-02,-1.312498244095972666e+01,-7.420291270372104675e-01,2.879144989357532225e+01,1.107829496184658202e+00,6.853602575228600280e+00,2.047955121459166250e-10
4.900000000000000189e-02,0.000000000000000000e+00,-7.864252816874199858e-01,0.000000000000000000e+00,-2.854867919116849340e+00,0.000000000000000000e+00,2.799999999999999822e+00,7.850000000000000311e-01,0.000000000000000000e+00,-8.449748111969490605e-02,0.000000000000000000e+00,6.711514214650053656e-02,0.000000000000000000e+00,0.000000000000000000e+00,0.000000000000000000e+00,0.000000000000000000e+00,-3.226068819031136847e+00,0.000000000000000000e+00,2.562420376259017196e+00,0.000000000000000000e+00,0.000000000000000000e+00,0.000000000000000000e+00,5.946476122446120449e-02,-1.328127229632556272e+01,-7.429851856623667095e-01,2.893182531699457272e+01,1.109117230736729631e+00,6.929590861064572671e+00,2.189839958671724318e-10
5.000000000000000278e-02,0.000000000000000000e+00,-7.865114009296926278e-01,0.000000000000000000e+00,-2.854799515832986856e+00,0.000000000000000000e+00,2.799999999999999822e+00,7.850000000000000311e-01,0.000000000000000000e+00,-8.774970849295773978e-02,0.000000000000000000e+00,6.969833988869215957e-02,0.000000000000000000e+00,0.000000000000000000e+00,0.000000000000000000e+00,0.000000000000000000e+00,-3.278299246890308716e+00,0.000000000000000000e+00,2.603906258958588182e+00,0.000000000000000000e+00,0.000000000000000000e+00,0.000000000000000000e+00,6.048427092102715008e-02,-1.343601090582884794e+01,-7.439318994049624045e-01,2.907083632878469359e+01,1.110394834999692604e+00,7.004831308302571280e+00,2.339277643120807326e-10
5.100000000000000366e-02,0.000000000000000000e+00,-7.866007984279330678e-01,0.000000000000000000e+00,-2.854728508677241816e+00,0.000000000000000000e+00,2.799999999999999822e+00,7.850000000000000311e-01,0.000000000000000000e+00,-9.105390649696230854e-02,0.000000000000000000e+00,7.232281716044434983e-02,0.000000000000000000e+00,0.000000000000000000e+00,0.000000000000000000e+00,0.000000000000000000e+00,-3.330010325209812994e+00,0.000000000000000000e+00,2.644979629738080096e+00,0.000000000000000000e+00,0.000000000000000000e+00,0.000000000000000000e+00,6.149823741328885873e-02,-1.358920334989127277e+01,-7.448692585729372873e-01,2.920848690959968152e+01,1.111662353044383433e+00,7.079326065960893644e+00,2.496506612548188286e-10
5.200000000000000455e-02,0.000000000000000000e+00,-7.866935258933419606e-01,0.000000000000000000e+00,-2.854654856576145150e+00,0.000000000000000000e+00,2.799999999999999822e+00,7.850000000000000311e-01,0.000000000000000000e+00,-9.440955651625458633e-02,0.000000000000000000e+00,7.498816203291079618e-02,0.000000000000000000e+00,0.000000000000000000e+00,0.000000000000000000e+00,0.000000000000000000e+00,-3.381203522160973307e+00,0.000000000000000000e+00,2.685641654745001716e+00,0.000000000000000000e+00,0.000000000000000000e+00,0.000000000000000000e+00,6.250680300566369141e-02,-1.374085471946846759e+01,-7.457972528435716786e-01,2.934478103080148870e+01,1.112919828070726647e+00,7.153077282409467941e+00,2.661766120015673920e-10
5.299999999999999850e-02,0.000000000000000000e+00,-7.867896345192386676e-01,0.000000000000000000e+00,-2.854578518867576520e+00,0.000000000000000000e+00,2.799999999999999822e+00,7.850000000000000311e-01,0.000000000000000000e+00,-9.781614140355188169e-02,0.000000000000000000e+00,7.769396374339264388e-02,0.000000000000000000e+00,0.000000000000000000e+00,0.000000000000000000e+00,0.000000000000000000e+00,-3.431880305915114171e+00,0.000000000000000000e+00,2.725893500126862268e+00,0.000000000000000000e+00,0.000000000000000000e+00,0.000000000000000000e+00,6.351011012433516179e-02,-1.389097011504767565e+01,-7.467158712981126767e-01,2.947972265446890106e+01,1.114167302423096917e+00,7.226087105343960815e+00,2.835295956349348501e-10
5.399999999999999939e-02,0.000000000000000000e+00,-7.868891749825290827e-01,0.000000000000000000e+00,-2.854499455299591038e+00,0.000000000000000000e+00,2.799999999999999822e+00,7.850000000000000311e-01,0.000000000000000000e+00,-1.012731454797429070e-01,0.000000000000000000e+00,8.043981269533863332e-02,0.000000000000000000e+00,0.000000000000000000e+00,0.000000000000000000e+00,0.000000000000000000e+00,-3.482042144643561432e+00,0.000000000000000000e+00,2.765736332031171862e+00,0.000000000000000000e+00,0.000000000000000000e+00,0.000000000000000000e+00,6.450830125334383602e-02,-1.403955464566153211e+01,-7.476251024557424296e-01,2.961331573340478585e+01,1.115404817605368581e+00,7.298357681760105464e+00,3.017336415445104336e-10
5.500000000000000028e-02,0.000000000000000000e+00,-7.869921974451744573e-01,0.000000000000000000e+00,-2.854417626029261079e+00,0.000000000000000000e+00,2.799999999999999822e+00,7.850000000000000311e-01,0.000000000000000000e+00,-1.047800545338875566e-01,0.000000000000000000e+00,8.322530045834497514e-02,0.000000000000000000e+00,0.000000000000000000e+00,0.000000000000000000e+00,0.000000000000000000e+00,-3.531690506517639605e+00,0.000000000000000000e+00,2.805171316605440168e+00,0.000000000000000000e+00,0.000000000000000000e+00,0.000000000000000000e+00,6.550151887170740928e-02,-1.418661342791743429e+01,-7.485249343069086958e-01,2.974556421114139582e+01,1.116632414295630982e+00,7.369891157928235792e+00,3.208128138143528929e-10
5.600000000000000117e-02,0.000000000000000000e+00,-7.870987515556588932e-01,0.000000000000000000e+00,-2.854332991621505222e+00,0.000000000000000000e+00,2.799999999999999822e+00,7.850000000000000311e-01,0.000000000000000000e+00,-1.083363558232171703e-01,0.000000000000000000e+00,8.605001976815536413e-02,0.000000000000000000e+00,0.000000000000000000e+00,0.000000000000000000e+00,0.000000000000000000e+00,-3.580826859708673204e+00,0.000000000000000000e+00,2.844199619997175521e+00,0.000000000000000000e+00,0.000000000000000000e+00,0.000000000000000000e+00,6.648990539159016500e-02,-1.433215158504285824e+01,-7.494153543460168043e-01,2.987647202194432694e+01,1.117850132360608484e+00,7.440689679368079901e+00,3.407912060188200698e-10
5.700000000000000205e-02,0.000000000000000000e+00,-7.872088864504581673e-01,0.000000000000000000e+00,-2.854245513047921179e+00,0.000000000000000000e+00,2.799999999999999822e+00,7.850000000000000311e-01,0.000000000000000000e+00,-1.119415380731343390e-01,0.000000000000000000e+00,8.891356452666099308e-02,0.000000000000000000e+00,0.000000000000000000e+00,0.000000000000000000e+00,0.000000000000000000e+00,-3.629452672387987189e+00,0.000000000000000000e+00,2.882822408353887589e+00,0.000000000000000000e+00,0.000000000000000000e+00,0.000000000000000000e+00,6.747360309749206309e-02,-1.447617424594614732e+01,-7.502963496034876778e-01,3.000604309081468557e+01,1.119058010869759645e+00,7.510755390823775635e+00,3.616929134669932822e-10
5.800000000000000294e-02,0.000000000000000000e+00,-7.873226507555070031e-01,0.000000000000000000e+00,-2.854155151685626279e+00,0.000000000000000000e+00,2.799999999999999822e+00,7.850000000000000311e-01,0.000000000000000000e+00,-1.155950914772130023e-01,0.000000000000000000e+00,9.181552980190063606e-02,0.000000000000000000e+00,0.000000000000000000e+00,0.000000000000000000e+00,0.000000000000000000e+00,-3.677569412726906073e+00,0.000000000000000000e+00,2.921040847823086040e+00,0.000000000000000000e+00,0.000000000000000000e+00,0.000000000000000000e+00,6.845275408645279391e-02,-1.461868654429265746e+01,-7.511679066772080082e-01,3.013428133348989491e+01,1.120256088109079728e+00,7.580090436239130369e+00,3.835420470804651316e-10
5.900000000000000383e-02,0.000000000000000000e+00,-7.874400925876682278e-01,0.000000000000000000e+00,-2.854061869316080635e+00,0.000000000000000000e+00,2.799999999999999822e+00,7.850000000000000311e-01,0.000000000000000000e+00,-1.192965076971984756e-01,0.000000000000000000e+00,9.475551182806050965e-02,0.000000000000000000e+00,0.000000000000000000e+00,0.000000000000000000e+00,0.000000000000000000e+00,-3.725178548896754815e+00,0.000000000000000000e+00,2.958856104552280541e+00,0.000000000000000000e+00,0.000000000000000000e+00,0.000000000000000000e+00,6.942750020926347077e-02,-1.475969361759647391e+01,-7.520300117633534898e-01,3.026119065644310169e+01,1.121444401594605011e+00,7.648696958733133044e+00,4.063626934946995561e-10
5.999999999999999778e-02,0.000000000000000000e+00,-7.875612595562003770e-01,0.000000000000000000e+00,-2.853965628123932063e+00,0.000000000000000000e+00,2.799999999999999822e+00,7.850000000000000311e-01,0.000000000000000000e+00,-1.230452798630072703e-01,0.000000000000000000e+00,9.773310800547434229e-02,0.000000000000000000e+00,0.000000000000000000e+00,0.000000000000000000e+00,0.000000000000000000e+00,-3.772281549068858375e+00,0.000000000000000000e+00,2.996269344688979430e+00,0.000000000000000000e+00,0.000000000000000000e+00,0.000000000000000000e+00,7.039798301268174185e-02,-1.489920060632711163e+01,-7.528826506866278523e-01,3.038677495688108721e+01,1.122622988085627105e+00,7.716577100575712223e+00,4.301789272020961619e-10
6.099999999999999867e-02,0.000000000000000000e+00,-7.876861987642258534e-01,0.000000000000000000e+00,-2.853866390695843247e+00,0.000000000000000000e+00,2.799999999999999822e+00,7.850000000000000311e-01,0.000000000000000000e+00,-1.268409025727273431e-01,0.000000000000000000e+00,1.007479169006234576e-01,0.000000000000000000e+00,0.000000000000000000e+00,0.000000000000000000e+00,0.000000000000000000e+00,-3.818879881414540378e+00,0.000000000000000000e+00,3.033281734380692374e+00,0.000000000000000000e+00,0.000000000000000000e+00,0.000000000000000000e+00,7.136434368263677719e-02,-1.503721265303150645e+01,-7.537258089298883856e-01,3.051103812274110183e+01,1.123791883597619057e+00,7.783733003163757047e+00,4.550147845311380834e-10
6.199999999999999956e-02,0.000000000000000000e+00,-7.878149568101995293e-01,0.000000000000000000e+00,-2.853764120019326889e+00,0.000000000000000000e+00,2.799999999999999822e+00,7.850000000000000311e-01,0.000000000000000000e+00,-1.306828718926179578e-01,0.000000000000000000e+00,1.037995382461365801e-01,0.000000000000000000e+00,0.000000000000000000e+00,0.000000000000000000e+00,0.000000000000000000e+00,-3.864975014105127116e+00,0.000000000000000000e+00,3.069894439774930373e+00,0.000000000000000000e+00,0.000000000000000000e+00,0.000000000000000000e+00,7.232672298840148173e-02,-1.517373490147081405e+01,-7.545594716631999210e-01,3.063398403268640280e+01,1.124951123414881682e+00,7.850166806997401991e+00,4.808942532380511281e-10
6.300000000000000044e-02,0.000000000000000000e+00,-7.879475797893763511e-01,0.000000000000000000e+00,-2.853658779481580865e+00,0.000000000000000000e+00,2.799999999999999822e+00,7.850000000000000311e-01,0.000000000000000000e+00,-1.345706853571097261e-01,0.000000000000000000e+00,1.068875729407900155e-01,0.000000000000000000e+00,0.000000000000000000e+00,0.000000000000000000e+00,0.000000000000000000e+00,-3.910568415311942658e+00,0.000000000000000000e+00,3.106108627019200430e+00,0.000000000000000000e+00,0.000000000000000000e+00,0.000000000000000000e+00,7.328526122775524954e-02,-1.530877249577218890e+01,-7.553836237723028368e-01,3.075561655610058409e+01,1.126100742102911001e+00,7.915880651656564737e+00,5.078412742415272518e-10
6.400000000000000133e-02,0.000000000000000000e+00,-7.880841132952798311e-01,0.000000000000000000e+00,-2.853550332868320716e+00,0.000000000000000000e+00,2.799999999999999822e+00,7.850000000000000311e-01,0.000000000000000000e+00,-1.385038419688043865e-01,0.000000000000000000e+00,1.100116230495074843e-01,0.000000000000000000e+00,0.000000000000000000e+00,0.000000000000000000e+00,0.000000000000000000e+00,-3.955661553206311520e+00,0.000000000000000000e+00,3.141925462261013990e+00,0.000000000000000000e+00,0.000000000000000000e+00,0.000000000000000000e+00,7.424009817310017745e-02,-1.544233057959516664e+01,-7.561982498865101876e-01,3.087593955308096128e+01,1.127240773520497896e+00,7.980876675777775375e+00,5.358797329491071793e-10
6.500000000000000222e-02,0.000000000000000000e+00,-7.882246024211702062e-01,0.000000000000000000e+00,-2.853438744362613466e+00,0.000000000000000000e+00,2.799999999999999822e+00,7.850000000000000311e-01,0.000000000000000000e+00,-1.424818421984752614e-01,0.000000000000000000e+00,1.131712918033603854e-01,0.000000000000000000e+00,0.000000000000000000e+00,0.000000000000000000e+00,0.000000000000000000e+00,-4.000255895959558217e+00,0.000000000000000000e+00,3.177346111647878946e+00,0.000000000000000000e+00,0.000000000000000000e+00,0.000000000000000000e+00,7.519137301852829580e-02,-1.557441429531275645e+01,-7.570033344060502767e-01,3.099495687443089409e+01,1.128371250831560646e+00,8.045157017031266733e+00,5.650334262974343602e-10
6.600000000000000311e-02,0.000000000000000000e+00,-7.883690917615127081e-01,0.000000000000000000e+00,-2.853323978543712780e+00,0.000000000000000000e+00,2.799999999999999822e+00,7.850000000000000311e-01,0.000000000000000000e+00,-1.465041879850668971e-01,0.000000000000000000e+00,1.163661835995674493e-01,0.000000000000000000e+00,0.000000000000000000e+00,0.000000000000000000e+00,0.000000000000000000e+00,-4.044352911743009038e+00,0.000000000000000000e+00,3.212371741327305408e+00,0.000000000000000000e+00,0.000000000000000000e+00,0.000000000000000000e+00,7.613922432783759575e-02,-1.570502878320689533e+01,-7.577988615288530072e-01,3.111267236165118888e+01,1.129492206516715225e+00,8.108723812098357797e+00,5.953260610175314937e-10
6.700000000000000400e-02,0.000000000000000000e+00,-7.885176254134453888e-01,0.000000000000000000e+00,-2.853206000385891894e+00,0.000000000000000000e+00,2.799999999999999822e+00,7.850000000000000311e-01,0.000000000000000000e+00,-1.505703827356951741e-01,0.000000000000000000e+00,1.195959040014950431e-01,0.000000000000000000e+00,0.000000000000000000e+00,0.000000000000000000e+00,0.000000000000000000e+00,-4.087954068727987611e+00,0.000000000000000000e+00,3.247003517446801713e+00,0.000000000000000000e+00,0.000000000000000000e+00,0.000000000000000000e+00,7.708378998349352251e-02,-1.583417918067839736e+01,-7.585848152767806774e-01,3.122908984693055956e+01,1.130603672384589364e+00,8.171579196649098265e+00,6.267812727167587639e-10
6.800000000000000488e-02,0.000000000000000000e+00,-7.886702469782476133e-01,0.000000000000000000e+00,-2.853084775257277439e+00,0.000000000000000000e+00,2.799999999999999822e+00,7.850000000000000311e-01,0.000000000000000000e+00,-1.546799313256471964e-01,0.000000000000000000e+00,1.228600597386569071e-01,0.000000000000000000e+00,0.000000000000000000e+00,0.000000000000000000e+00,0.000000000000000000e+00,-4.131060835085818006e+00,0.000000000000000000e+00,3.281242606153878860e+00,0.000000000000000000e+00,0.000000000000000000e+00,0.000000000000000000e+00,7.802520713649152562e-02,-1.596187062147090607e+01,-7.593611795213459636e-01,3.134421315313540646e+01,1.131705679582888813e+00,8.233725305320241716e+00,6.594225582245982764e-10
6.900000000000000577e-02,0.000000000000000000e+00,-7.888269995628079956e-01,0.000000000000000000e+00,-2.852960268918683706e+00,0.000000000000000000e+00,2.799999999999999822e+00,7.850000000000000311e-01,0.000000000000000000e+00,-1.588323400983815137e-01,0.000000000000000000e+00,1.261582587067144878e-01,0.000000000000000000e+00,0.000000000000000000e+00,0.000000000000000000e+00,0.000000000000000000e+00,-4.173674678987825182e+00,0.000000000000000000e+00,3.315090173596045187e+00,0.000000000000000000e+00,0.000000000000000000e+00,0.000000000000000000e+00,7.896361215716973803e-02,-1.608810823490915354e+01,-7.601279380088749038e-01,3.145804609379872829e+01,1.132798258609210240e+00,8.295164271693465707e+00,6.932733328385287663e-10
7.000000000000000666e-02,0.000000000000000000e+00,-7.889879257810928914e-01,0.000000000000000000e+00,-2.852832447522446468e+00,0.000000000000000000e+00,2.799999999999999822e+00,7.850000000000000311e-01,0.000000000000000000e+00,-1.630271168655280101e-01,0.000000000000000000e+00,1.294901099674765355e-01,0.000000000000000000e+00,0.000000000000000000e+00,0.000000000000000000e+00,0.000000000000000000e+00,-4.215797068605335873e+00,0.000000000000000000e+00,3.348547385920810360e+00,0.000000000000000000e+00,0.000000000000000000e+00,0.000000000000000000e+00,7.989914058690827936e-02,-1.621289714515101110e+01,-7.608850743851693910e-01,3.157059247310844086e+01,1.133881439321622331e+00,8.355898228273936468e+00,7.283568765475978424e-10
7.100000000000000755e-02,0.000000000000000000e+00,-7.891530677556141127e-01,0.000000000000000000e+00,-2.852701277611255026e+00,0.000000000000000000e+00,2.799999999999999822e+00,7.850000000000000311e-01,0.000000000000000000e+00,-1.672637709068878209e-01,0.000000000000000000e+00,1.328552237488994925e-01,0.000000000000000000e+00,0.000000000000000000e+00,0.000000000000000000e+00,0.000000000000000000e+00,-4.257429472109673263e+00,0.000000000000000000e+00,3.381615409275684048e+00,0.000000000000000000e+00,0.000000000000000000e+00,0.000000000000000000e+00,8.083192709074005222e-02,-1.633624247045358757e+01,-7.616325722196466419e-01,3.168185608589503843e+01,1.134955250949001959e+00,8.415929306469138282e+00,7.646963236240811312e-10
7.200000000000000844e-02,0.000000000000000000e+00,-7.893224671188976416e-01,0.000000000000000000e+00,-2.852566726116989582e+00,0.000000000000000000e+00,2.799999999999999822e+00,7.850000000000000311e-01,0.000000000000000000e+00,-1.715418129704334160e-01,0.000000000000000000e+00,1.362532114450871190e-01,0.000000000000000000e+00,0.000000000000000000e+00,0.000000000000000000e+00,0.000000000000000000e+00,-4.298573357672160533e+00,0.000000000000000000e+00,3.414295409808175030e+00,0.000000000000000000e+00,0.000000000000000000e+00,0.000000000000000000e+00,8.176210541085016104e-02,-1.645814932245276196e+01,-7.623704150289795090e-01,3.179184071761864416e+01,1.136019722101140550e+00,8.475259636568019062e+00,8.023146973179517971e-10
7.299999999999999545e-02,0.000000000000000000e+00,-7.894961650149514565e-01,0.000000000000000000e+00,-2.852428760359552395e+00,0.000000000000000000e+00,2.799999999999999822e+00,7.850000000000000311e-01,0.000000000000000000e+00,-1.758607552723085998e-01,0.000000000000000000e+00,1.396836856162908258e-01,0.000000000000000000e+00,0.000000000000000000e+00,0.000000000000000000e+00,0.000000000000000000e+00,-4.339230193464125307e+00,0.000000000000000000e+00,3.446588553665792531e+00,0.000000000000000000e+00,0.000000000000000000e+00,0.000000000000000000e+00,8.268980832095373934e-02,-1.657862280545650790e+01,-7.630985863002424097e-01,3.190055014435568381e+01,1.137074880778624619e+00,8.533891347720460985e+00,8.412348369984945506e-10
7.399999999999999634e-02,0.000000000000000000e+00,-7.896742021007335799e-01,0.000000000000000000e+00,-2.852287348045702942e+00,0.000000000000000000e+00,2.799999999999999822e+00,7.850000000000000311e-01,0.000000000000000000e+00,-1.802201114968285389e-01,0.000000000000000000e+00,1.431462599889095633e-01,0.000000000000000000e+00,0.000000000000000000e+00,0.000000000000000000e+00,0.000000000000000000e+00,-4.379401447656891655e+00,0.000000000000000000e+00,3.478496006996046663e+00,0.000000000000000000e+00,0.000000000000000000e+00,0.000000000000000000e+00,8.361516758156328777e-02,-1.669766801575169168e+01,-7.638170695135639843e-01,3.200798813278503729e+01,1.138120754382494271e+00,8.591826567917049573e+00,8.814794380529455964e-10
7.499999999999999722e-02,0.000000000000000000e+00,-7.898566185476205703e-01,0.000000000000000000e+00,-2.852142457267889508e+00,0.000000000000000000e+00,2.799999999999999822e+00,7.850000000000000311e-01,0.000000000000000000e+00,-1.846193967964797622e-01,0.000000000000000000e+00,1.466405494554896272e-01,0.000000000000000000e+00,0.000000000000000000e+00,0.000000000000000000e+00,0.000000000000000000e+00,-4.419088588421783648e+00,0.000000000000000000e+00,3.510018935946445318e+00,0.000000000000000000e+00,0.000000000000000000e+00,0.000000000000000000e+00,8.453831389610377833e-02,-1.681529004092403312e+01,-7.645258481643050219e-01,3.211415844017379584e+01,1.139157369723679203e+00,8.649067423969158952e+00,9.230710414781517770e-10
7.599999999999999811e-02,0.000000000000000000e+00,-7.900434540428755703e-01,0.000000000000000000e+00,-2.851994056503087460e+00,0.000000000000000000e+00,2.799999999999999822e+00,7.850000000000000311e-01,0.000000000000000000e+00,-1.890581277919199388e-01,0.000000000000000000e+00,1.501661700747249917e-01,0.000000000000000000e+00,0.000000000000000000e+00,0.000000000000000000e+00,0.000000000000000000e+00,-4.458293083930126244e+00,0.000000000000000000e+00,3.541158506664500827e+00,0.000000000000000000e+00,0.000000000000000000e+00,0.000000000000000000e+00,8.545937686789817356e-02,-1.693149395919135358e+01,-7.652249057847627656e-01,3.221906481436274561e+01,1.140184753032225773e+00,8.705616041489371071e+00,9.660319835735897698e-10
7.699999999999999900e-02,0.000000000000000000e+00,-7.902347477911162432e-01,0.000000000000000000e+00,-2.851842114611627732e+00,0.000000000000000000e+00,2.799999999999999822e+00,7.850000000000000311e-01,0.000000000000000000e+00,-1.935358225719782665e-01,0.000000000000000000e+00,1.537227390714570596e-01,0.000000000000000000e+00,0.000000000000000000e+00,0.000000000000000000e+00,0.000000000000000000e+00,-4.497016402353243514e+00,0.000000000000000000e+00,3.571915885297719750e+00,0.000000000000000000e+00,0.000000000000000000e+00,0.000000000000000000e+00,8.637848495798916559e-02,-1.704628483875003297e+01,-7.659142259654161400e-01,3.232271099375158485e+01,1.141202929966313562e+00,8.761474544872196901e+00,1.010384434105282558e-09
7.799999999999999989e-02,0.000000000000000000e+00,-7.904305385157837094e-01,0.000000000000000000e+00,-2.851686600836034646e+00,0.000000000000000000e+00,2.799999999999999822e+00,7.850000000000000311e-01,0.000000000000000000e+00,-1.980520006936551114e-01,0.000000000000000000e+00,1.573098748366746624e-01,0.000000000000000000e+00,0.000000000000000000e+00,0.000000000000000000e+00,0.000000000000000000e+00,-4.535260011862462193e+00,0.000000000000000000e+00,3.602292237993613089e+00,0.000000000000000000e+00,0.000000000000000000e+00,0.000000000000000000e+00,8.729576544381623115e-02,-1.715966773713414639e+01,-7.665937923757044636e-01,3.242510070728388172e+01,1.142211925621064772e+00,8.816645057275160013e+00,1.056150372019670769e-09
7.900000000000000078e-02,0.000000000000000000e+00,-7.906308644606095948e-01,0.000000000000000000e+00,-2.851527484799858403e+00,0.000000000000000000e+00,2.799999999999999822e+00,7.850000000000000311e-01,0.000000000000000000e+00,-2.026061831821223680e-01,0.000000000000000000e+00,1.609271969275143377e-01,0.000000000000000000e+00,0.000000000000000000e+00,0.000000000000000000e+00,0.000000000000000000e+00,-4.573025380629105463e+00,0.000000000000000000e+00,3.632288730899690510e+00,0.000000000000000000e+00,0.000000000000000000e+00,0.000000000000000000e+00,8.821134437870958855e-02,-1.727164770058768895e+01,-7.672635887843761715e-01,3.252623767443193259e+01,1.143211764537159114e+00,8.871129700600178580e+00,1.103351573300548338e-09
8.000000000000000167e-02,0.000000000000000000e+00,-7.908357633910849671e-01,0.000000000000000000e+00,-2.851364736506509345e+00,0.000000000000000000e+00,2.799999999999999822e+00,7.850000000000000311e-01,0.000000000000000000e+00,-2.071978925307229602e-01,0.000000000000000000e+00,1.645743260672599406e-01,0.000000000000000000e+00,0.000000000000000000e+00,0.000000000000000000e+00,0.000000000000000000e+00,-4.610313976824498283e+00,0.000000000000000000e+00,3.661906530163459461e+00,0.000000000000000000e+00,0.000000000000000000e+00,0.000000000000000000e+00,8.912534655222215108e-02,-1.738222976344928483e+01,-7.679235990793737976e-01,3.262612560518151383e+01,1.144202470709247965e+00,8.924930595475293771e+00,1.152009602295445134e-09
8.100000000000000255e-02,0.000000000000000000e+00,-7.910452725959284948e-01,0.000000000000000000e+00,-2.851198326338090894e+00,0.000000000000000000e+00,2.799999999999999822e+00,7.850000000000000311e-01,0.000000000000000000e+00,-2.118266527009713407e-01,0.000000000000000000e+00,1.682508841453429771e-01,0.000000000000000000e+00,0.000000000000000000e+00,0.000000000000000000e+00,0.000000000000000000e+00,-4.647127268619964724e+00,0.000000000000000000e+00,3.691146801932430499e+00,0.000000000000000000e+00,0.000000000000000000e+00,0.000000000000000000e+00,9.003789545125551186e-02,-1.749141894754967907e+01,-7.685738072873126159e-01,3.272476820001651987e+01,1.145184067594176236e+00,8.978049861236742757e+00,1.202145815185073907e-09
8.200000000000000344e-02,0.000000000000000000e+00,-7.912594288885543836e-01,0.000000000000000000e+00,-2.851028225054233811e+00,0.000000000000000000e+00,2.799999999999999822e+00,7.850000000000000311e-01,0.000000000000000000e+00,-2.164919891225533521e-01,0.000000000000000000e+00,1.719564942173424094e-01,0.000000000000000000e+00,0.000000000000000000e+00,0.000000000000000000e+00,0.000000000000000000e+00,-4.683466724186831520e+00,0.000000000000000000e+00,3.720010712354112403e+00,0.000000000000000000e+00,0.000000000000000000e+00,0.000000000000000000e+00,9.094911322201237880e-02,-1.759922026162149322e+01,-7.692141975925160802e-01,3.282216914990379308e+01,1.146156578119025715e+00,9.030489615911379886e+00,1.253781330493031199e-09
8.300000000000000433e-02,0.000000000000000000e+00,-7.914782686085404251e-01,0.000000000000000000e+00,-2.850854403790930913e+00,0.000000000000000000e+00,2.799999999999999822e+00,7.850000000000000311e-01,0.000000000000000000e+00,-2.211934286933259219e-01,0.000000000000000000e+00,1.756907805049846560e-01,0.000000000000000000e+00,0.000000000000000000e+00,0.000000000000000000e+00,0.000000000000000000e+00,-4.719333811696421854e+00,0.000000000000000000e+00,3.748499427576014842e+00,0.000000000000000000e+00,0.000000000000000000e+00,0.000000000000000000e+00,9.185912063273771189e-02,-1.770563870072140844e+01,-7.698447543556407036e-01,3.291833213627774057e+01,1.147120024688962570e+00,9.082251976199410493e+00,1.306937056841372957e-09
8.400000000000000522e-02,0.000000000000000000e+00,-7.917018276230964879e-01,0.000000000000000000e+00,-2.850676834059369114e+00,0.000000000000000000e+00,2.799999999999999822e+00,7.850000000000000311e-01,0.000000000000000000e+00,-2.259304997793175340e-01,0.000000000000000000e+00,1.794533683961436754e-01,0.000000000000000000e+00,0.000000000000000000e+00,0.000000000000000000e+00,0.000000000000000000e+00,-4.754729999320060685e+00,0.000000000000000000e+00,3.776614113745647927e+00,0.000000000000000000e+00,0.000000000000000000e+00,0.000000000000000000e+00,9.276803703724634254e-02,-1.781067924566448468e+01,-7.704654621318955954e-01,3.301326083102532749e+01,1.148074429194918089e+00,9.133339057457504850e+00,1.361633646113080687e-09
8.500000000000000611e-02,0.000000000000000000e+00,-7.919301413285325664e-01,0.000000000000000000e+00,-2.850495487744765466e+00,0.000000000000000000e+00,2.799999999999999822e+00,7.850000000000000311e-01,0.000000000000000000e+00,-2.307027322147278681e-01,0.000000000000000000e+00,1.832438844448410487e-01,0.000000000000000000e+00,0.000000000000000000e+00,0.000000000000000000e+00,0.000000000000000000e+00,-4.789656755229072083e+00,0.000000000000000000e+00,3.804355937010520439e+00,0.000000000000000000e+00,0.000000000000000000e+00,0.000000000000000000e+00,9.367598033924173784e-02,-1.791434686247062302e+01,-7.710763056888522149e-01,3.310695889647105616e+01,1.149019813021086023e+00,9.183752973682249632e+00,1.417891533350701394e-09
8.600000000000000699e-02,0.000000000000000000e+00,-7.921632446517268278e-01,0.000000000000000000e+00,-2.850310337105199654e+00,0.000000000000000000e+00,2.799999999999999822e+00,7.850000000000000311e-01,0.000000000000000000e+00,-2.355096573019279382e-01,0.000000000000000000e+00,1.870619563712456468e-01,0.000000000000000000e+00,0.000000000000000000e+00,0.000000000000000000e+00,0.000000000000000000e+00,-4.824115547594782782e+00,0.000000000000000000e+00,3.831726063518142045e+00,0.000000000000000000e+00,0.000000000000000000e+00,0.000000000000000000e+00,9.458306695739726599e-02,-1.801664650182295802e+01,-7.716772700238692106e-01,3.319942998536225787e+01,1.149956197052256490e+00,9.233495837493952862e+00,1.475730869102132026e-09
8.700000000000000788e-02,0.000000000000000000e+00,-7.924011720515943269e-01,0.000000000000000000e+00,-2.850121354770447812e+00,0.000000000000000000e+00,2.799999999999999822e+00,7.850000000000000311e-01,0.000000000000000000e+00,-2.403508078114600655e-01,0.000000000000000000e+00,1.909072130616740470e-01,0.000000000000000000e+00,0.000000000000000000e+00,0.000000000000000000e+00,0.000000000000000000e+00,-4.858107844588515967e+00,0.000000000000000000e+00,3.858725659416021969e+00,0.000000000000000000e+00,0.000000000000000000e+00,0.000000000000000000e+00,9.548941179120951084e-02,-1.811758309853797044e+01,-7.722683403811239078e-01,3.329067774085461906e+01,1.150883601680977364e+00,9.282569760120804148e+00,1.535171571462323747e-09
8.799999999999999489e-02,0.000000000000000000e+00,-7.926439575205538324e-01,0.000000000000000000e+00,-2.849928513740817237e+00,0.000000000000000000e+00,2.799999999999999822e+00,7.850000000000000311e-01,0.000000000000000000e+00,-2.452257179820380162e-01,0.000000000000000000e+00,1.947792845685901997e-01,0.000000000000000000e+00,0.000000000000000000e+00,0.000000000000000000e+00,0.000000000000000000e+00,-4.891635114381596594e+00,0.000000000000000000e+00,3.885355890851668992e+00,0.000000000000000000e+00,0.000000000000000000e+00,0.000000000000000000e+00,9.639512818760920254e-02,-1.821716157104755140e+01,-7.728495022682640991e-01,3.338070579649796343e+01,1.151802046814557334e+00,9.330976851383400827e+00,1.596233305256600232e-09
8.899999999999999578e-02,0.000000000000000000e+00,-7.928916345859979842e-01,0.000000000000000000e+00,-2.849731787385978432e+00,0.000000000000000000e+00,2.799999999999999822e+00,7.850000000000000311e-01,0.000000000000000000e+00,-2.501339235205468081e-01,0.000000000000000000e+00,1.986778021106057612e-01,0.000000000000000000e+00,0.000000000000000000e+00,0.000000000000000000e+00,0.000000000000000000e+00,-4.924698825145349623e+00,0.000000000000000000e+00,3.911617923972593225e+00,0.000000000000000000e+00,0.000000000000000000e+00,0.000000000000000000e+00,9.730032790831866230e-02,-1.831538682089234271e+01,-7.734207414726920193e-01,3.346951777622251001e+01,1.152711551881908880e+00,9.378719219679620522e+00,1.658935416121165574e-09
8.999999999999999667e-02,0.000000000000000000e+00,-7.931442363117596761e-01,0.000000000000000000e+00,-2.849531149443802480e+00,0.000000000000000000e+00,2.799999999999999822e+00,7.850000000000000311e-01,0.000000000000000000e+00,-2.550749616020427379e-01,0.000000000000000000e+00,2.026023980724797058e-01,0.000000000000000000e+00,0.000000000000000000e+00,0.000000000000000000e+00,0.000000000000000000e+00,-4.957300445051100901e+00,0.000000000000000000e+00,3.937512924926303004e+00,0.000000000000000000e+00,0.000000000000000000e+00,0.000000000000000000e+00,9.820512109794865552e-02,-1.841226373222681190e+01,-7.739820440774833887e-01,3.355711729432542967e+01,1.153612135840238695e+00,9.425798971969879148e+00,1.723297029382342416e-09
9.099999999999999756e-02,0.000000000000000000e+00,-7.934017952995812140e-01,0.000000000000000000e+00,-2.849326574019189540e+00,0.000000000000000000e+00,2.799999999999999822e+00,7.850000000000000311e-01,0.000000000000000000e+00,-2.600483708697534646e-01,0.000000000000000000e+00,2.065527060051185193e-01,0.000000000000000000e+00,0.000000000000000000e+00,0.000000000000000000e+00,0.000000000000000000e+00,-4.989441442270173610e+00,0.000000000000000000e+00,3.963042059860309774e+00,0.000000000000000000e+00,0.000000000000000000e+00,0.000000000000000000e+00,9.910961625282710408e-02,-1.850779717133553604e+01,-7.745333964769445245e-01,3.364350795545789907e+01,1.154503817181582903e+00,9.472218213762737093e+00,1.789336954646780775e-09
9.199999999999999845e-02,0.000000000000000000e+00,-7.936643436905820304e-01,0.000000000000000000e+00,-2.849118035582908881e+00,0.000000000000000000e+00,2.799999999999999822e+00,7.850000000000000311e-01,0.000000000000000000e+00,-2.650536914350779538e-01,0.000000000000000000e+00,2.105283606255762274e-01,0.000000000000000000e+00,0.000000000000000000e+00,0.000000000000000000e+00,0.000000000000000000e+00,-5.021123284973892709e+00,0.000000000000000000e+00,3.988206494922121870e+00,0.000000000000000000e+00,0.000000000000000000e+00,0.000000000000000000e+00,1.000139201905756448e-01,-1.860199198616071570e+01,-7.750747853918157348e-01,3.372869335461261642e+01,1.155386613939200613e+00,9.517979049100873112e+00,1.857073710087586704e-09
9.299999999999999933e-02,0.000000000000000000e+00,-7.939319131667273988e-01,0.000000000000000000e+00,-2.848905508970427825e+00,0.000000000000000000e+00,2.799999999999999822e+00,7.850000000000000311e-01,0.000000000000000000e+00,-2.700904648775865891e-01,0.000000000000000000e+00,2.145289978170545064e-01,0.000000000000000000e+00,0.000000000000000000e+00,0.000000000000000000e+00,0.000000000000000000e+00,-5.052347441333583156e+00,0.000000000000000000e+00,4.013007396259247628e+00,0.000000000000000000e+00,0.000000000000000000e+00,0.000000000000000000e+00,1.009181380203658662e-01,-1.869485300584079823e+01,-7.756061978841448656e-01,3.381267707711197801e+01,1.156260543693822251e+00,9.563083580547461438e+00,1.926525558873515287e-09
9.400000000000000022e-02,0.000000000000000000e+00,-7.942045349522958153e-01,0.000000000000000000e+00,-2.848688969380747782e+00,0.000000000000000000e+00,2.799999999999999822e+00,7.850000000000000311e-01,0.000000000000000000e+00,-2.751582342450208940e-01,0.000000000000000000e+00,2.185542546289023780e-01,0.000000000000000000e+00,0.000000000000000000e+00,0.000000000000000000e+00,0.000000000000000000e+00,-5.083115379520570798e+00,0.000000000000000000e+00,4.037445930019197604e+00,0.000000000000000000e+00,0.000000000000000000e+00,0.000000000000000000e+00,1.018223731139200616e-01,-1.878638504026012512e+01,-7.761276213718077965e-01,3.389546269859661720e+01,1.157125623579758011e+00,9.607533909172861541e+00,1.997710410289732508e-09
9.500000000000000111e-02,0.000000000000000000e+00,-7.944822398153480458e-01,0.000000000000000000e+00,-2.848468392375237634e+00,0.000000000000000000e+00,2.799999999999999822e+00,7.850000000000000311e-01,0.000000000000000000e+00,-2.802565440532939767e-01,0.000000000000000000e+00,2.226037692766163201e-01,0.000000000000000000e+00,0.000000000000000000e+00,0.000000000000000000e+00,0.000000000000000000e+00,-5.113428567706178818e+00,0.000000000000000000e+00,4.061523262349480135e+00,0.000000000000000000e+00,0.000000000000000000e+00,0.000000000000000000e+00,1.027267270771934360e-01,-1.887659287960948262e+01,-7.766390436427104138e-01,3.397705378501481732e+01,1.157981870290873738e+00,9.651332134541748431e+00,2.070645934229564666e-09
9.600000000000000200e-02,0.000000000000000000e+00,-7.947650580691943967e-01,0.000000000000000000e+00,-2.848243753876468443e+00,0.000000000000000000e+00,2.799999999999999822e+00,7.850000000000000311e-01,0.000000000000000000e+00,-2.853849402864899742e-01,0.000000000000000000e+00,2.266771811418406279e-01,0.000000000000000000e+00,0.000000000000000000e+00,0.000000000000000000e+00,0.000000000000000000e+00,-5.143288474061733062e+00,0.000000000000000000e+00,4.085240559397606219e+00,0.000000000000000000e+00,0.000000000000000000e+00,0.000000000000000000e+00,1.036312997227701871e-01,-1.896548129395726079e+01,-7.771404528686538526e-01,3.405745389261238643e+01,1.158829300086426040e+00,9.694480354700587554e+00,2.145349396395768160e-09
9.700000000000000289e-02,0.000000000000000000e+00,-7.950530195738637618e-01,0.000000000000000000e+00,-2.848015030167045492e+00,0.000000000000000000e+00,2.799999999999999822e+00,7.850000000000000311e-01,0.000000000000000000e+00,-2.905429703968644972e-01,0.000000000000000000e+00,2.307741307723666646e-01,0.000000000000000000e+00,0.000000000000000000e+00,0.000000000000000000e+00,0.000000000000000000e+00,-5.172696566758557601e+00,0.000000000000000000e+00,4.108598987311084194e+00,0.000000000000000000e+00,0.000000000000000000e+00,0.000000000000000000e+00,1.045361890429306051e-01,-1.905305503283143764e+01,-7.776318376189043091e-01,3.413666656792341314e+01,1.159667928796787484e+00,9.736980666165477416e+00,2.221837887284028312e-09
9.800000000000000377e-02,0.000000000000000000e+00,-7.953461537375711154e-01,0.000000000000000000e+00,-2.847782197888443445e+00,0.000000000000000000e+00,2.799999999999999822e+00,7.850000000000000311e-01,0.000000000000000000e+00,-2.957301833048446293e-01,0.000000000000000000e+00,2.348942598821337768e-01,0.000000000000000000e+00,0.000000000000000000e+00,0.000000000000000000e+00,0.000000000000000000e+00,-5.201654313967976506e+00,0.000000000000000000e+00,4.131599712237422395e+00,0.000000000000000000e+00,0.000000000000000000e+00,0.000000000000000000e+00,1.054414911834085089e-01,-1.913931882481190883e+01,-7.781131868734257884e-01,3.421469534776159094e+01,1.160497771829021252e+00,9.778835163910395423e+00,2.300128016871627601e-09
9.900000000000000466e-02,0.000000000000000000e+00,-7.956444895181858934e-01,0.000000000000000000e+00,-2.847545234039841056e+00,0.000000000000000000e+00,2.799999999999999822e+00,7.850000000000000311e-01,0.000000000000000000e+00,-3.009461293990284281e-01,0.000000000000000000e+00,2.390372113512283514e-01,0.000000000000000000e+00,0.000000000000000000e+00,0.000000000000000000e+00,0.000000000000000000e+00,-5.230163183861317400e+00,0.000000000000000000e+00,4.154243900324132710e+00,0.000000000000000000e+00,0.000000000000000000e+00,0.000000000000000000e+00,1.063473004178234760e-01,-1.922427737713344698e+01,-7.785844900358331877e-01,3.429154375921254427e+01,1.161318844172359865e+00,9.820045941355836305e+00,2.380236197377372243e-09
1.000000000000000056e-01,0.000000000000000000e+00,-7.959480554247004847e-01,0.000000000000000000e+00,-2.847304115976951877e+00,0.000000000000000000e+00,2.799999999999999822e+00,7.850000000000000311e-01,0.000000000000000000e+00,-3.061903605361856462e-01,0.000000000000000000e+00,2.432026292258846756e-01,0.000000000000000000e+00,0.000000000000000000e+00,0.000000000000000000e+00,0.000000000000000000e+00,-5.258224644609900800e+00,0.000000000000000000e+00,4.176532717718722587e+00,0.000000000000000000e+00,0.000000000000000000e+00,0.000000000000000000e+00,1.072537091227774297e-01,-1.930793537529867621e+01,-7.790457369460310755e-01,3.436721531962678000e+01,1.162131160403549357e+00,9.860615090357786272e+00,2.462178443768392455e-09
1.010000000000000064e-01,0.000000000000000000e+00,-7.962568795186979465e-01,0.000000000000000000e+00,-2.847058821410862972e+00,0.000000000000000000e+00,2.799999999999999822e+00,7.850000000000000311e-01,0.000000000000000000e+00,-3.114624300412571212e-01,0.000000000000000000e+00,2.473901587184842987e-01,0.000000000000000000e+00,0.000000000000000000e+00,0.000000000000000000e+00,0.000000000000000000e+00,-5.285840164385056106e+00,0.000000000000000000e+00,4.198467330568702138e+00,0.000000000000000000e+00,0.000000000000000000e+00,0.000000000000000000e+00,1.081608077536040380e-01,-1.939029748270154840e+01,-7.794969178925708064e-01,3.444171353661361223e+01,1.162934734692083083e+00,9.900544701197151909e+00,2.545970477843551016e-09
1.020000000000000073e-01,0.000000000000000000e+00,-7.965709894158202742e-01,0.000000000000000000e+00,-2.846809328406862516e+00,0.000000000000000000e+00,2.799999999999999822e+00,7.850000000000000311e-01,0.000000000000000000e+00,-3.167618927073551083e-01,0.000000000000000000e+00,2.515994462075563098e-01,0.000000000000000000e+00,0.000000000000000000e+00,0.000000000000000000e+00,0.000000000000000000e+00,-5.313011211358104724e+00,0.000000000000000000e+00,4.220048905021581476e+00,0.000000000000000000e+00,0.000000000000000000e+00,0.000000000000000000e+00,1.090686848207909065e-01,-1.947136834026067831e+01,-7.799380236247168696e-01,3.451504190803606065e+01,1.163729580805333397e+00,9.939836862569517706e+00,2.631627615476417326e-09
1.030000000000000082e-01,0.000000000000000000e+00,-7.968904122872371154e-01,0.000000000000000000e+00,-2.846555615383280280e+00,0.000000000000000000e+00,2.799999999999999822e+00,7.850000000000000311e-01,0.000000000000000000e+00,-3.220883047957630585e-01,0.000000000000000000e+00,2.558301392377775874e-01,0.000000000000000000e+00,0.000000000000000000e+00,0.000000000000000000e+00,0.000000000000000000e+00,-5.339739253700371613e+00,0.000000000000000000e+00,4.241278607224867159e+00,0.000000000000000000e+00,0.000000000000000000e+00,0.000000000000000000e+00,1.099774268670239419e-01,-1.955115256606267948e+01,-7.803690453642386782e-01,3.458720392200643090e+01,1.164515712113558754e+00,9.978493661575319251e+00,2.719164927944550669e-09
1.040000000000000091e-01,0.000000000000000000e+00,-7.972151748611128186e-01,0.000000000000000000e+00,-2.846297661110316124e+00,0.000000000000000000e+00,2.799999999999999822e+00,7.850000000000000311e-01,0.000000000000000000e+00,-3.274412240359360071e-01,0.000000000000000000e+00,2.600818865199721053e-01,0.000000000000000000e+00,0.000000000000000000e+00,0.000000000000000000e+00,0.000000000000000000e+00,-5.366025759583182619e+00,0.000000000000000000e+00,4.262157603326072852e+00,0.000000000000000000e+00,0.000000000000000000e+00,0.000000000000000000e+00,1.108871184448869673e-01,-1.962965475501543722e+01,-7.807899748169272458e-01,3.465820305688319536e+01,1.165293141594824444e+00,1.001651718371041611e+01,2.808597033762683104e-09
1.049999999999999961e-01,0.000000000000000000e+00,-7.975453034240758132e-01,0.000000000000000000e+00,-2.846035444708876927e+00,0.000000000000000000e+00,2.799999999999999822e+00,7.850000000000000311e-01,0.000000000000000000e+00,-3.328202096254999076e-01,0.000000000000000000e+00,2.643543379311114605e-01,0.000000000000000000e+00,0.000000000000000000e+00,0.000000000000000000e+00,0.000000000000000000e+00,-5.391872197177862702e+00,0.000000000000000000e+00,4.282687059472703339e+00,0.000000000000000000e+00,0.000000000000000000e+00,0.000000000000000000e+00,1.117978420951870611e-01,-1.970687947851109811e+01,-7.812008041838447436e-01,3.472804278126863409e+01,1.166061881839806968e+00,1.005390951285703061e+01,2.899938291237025290e-09
1.059999999999999970e-01,0.000000000000000000e+00,-7.978808238226858807e-01,0.000000000000000000e+00,-2.845768945649409076e+00,0.000000000000000000e+00,2.799999999999999822e+00,7.850000000000000311e-01,0.000000000000000000e+00,-3.382248222302526863e-01,0.000000000000000000e+00,2.686471445143150394e-01,0.000000000000000000e+00,0.000000000000000000e+00,0.000000000000000000e+00,0.000000000000000000e+00,-5.417280034655735044e+00,0.000000000000000000e+00,4.302868141812270508e+00,0.000000000000000000e+00,0.000000000000000000e+00,0.000000000000000000e+00,1.127096783259147195e-01,-1.978283128409870173e+01,-7.816015261723099350e-01,3.479672655400766956e+01,1.166821945056512488e+00,1.009067273127510411e+01,2.993202664891558840e-09
1.069999999999999979e-01,0.000000000000000000e+00,-7.982217614649029791e-01,0.000000000000000000e+00,-2.845498143750734066e+00,0.000000000000000000e+00,2.799999999999999822e+00,7.850000000000000311e-01,0.000000000000000000e+00,-3.436546239841629657e-01,0.000000000000000000e+00,2.729599584788494626e-01,0.000000000000000000e+00,0.000000000000000000e+00,0.000000000000000000e+00,0.000000000000000000e+00,-5.442250740188126379e+00,0.000000000000000000e+00,4.322702016492284471e+00,0.000000000000000000e+00,0.000000000000000000e+00,0.000000000000000000e+00,1.136227055918122009e-01,-1.985751469516628731e+01,-7.819921340066399162e-01,3.486425782418766062e+01,1.167573343074894021e+00,1.012680891959404583e+01,3.088403739345824128e-09
1.079999999999999988e-01,0.000000000000000000e+00,-7.985681413215549584e-01,0.000000000000000000e+00,-2.845223019178879209e+00,0.000000000000000000e+00,2.799999999999999822e+00,7.850000000000000311e-01,0.000000000000000000e+00,-3.491091784893708971e-01,0.000000000000000000e+00,2.772924332001289183e-01,0.000000000000000000e+00,0.000000000000000000e+00,0.000000000000000000e+00,0.000000000000000000e+00,-5.466785781946360778e+00,0.000000000000000000e+00,4.342189849660253564e+00,0.000000000000000000e+00,0.000000000000000000e+00,0.000000000000000000e+00,1.145370002745556004e-01,-1.993093421063257864e+01,-7.823726214386235167e-01,3.493064003113940430e+01,1.168316087351374488e+00,1.016232015680483869e+01,3.185554771356624570e-09
1.089999999999999997e-01,0.000000000000000000e+00,-7.989199879278059413e-01,0.000000000000000000e+00,-2.844943552445914126e+00,0.000000000000000000e+00,2.799999999999999822e+00,7.850000000000000311e-01,0.000000000000000000e+00,-3.545880508161880496e-01,0.000000000000000000e+00,2.816442232197151618e-01,0.000000000000000000e+00,0.000000000000000000e+00,0.000000000000000000e+00,0.000000000000000000e+00,-5.490886628101762312e+00,0.000000000000000000e+00,4.361332807463686123e+00,0.000000000000000000e+00,0.000000000000000000e+00,0.000000000000000000e+00,1.154526366635668655e-01,-2.000309430464792726e+01,-7.827429827577657706e-01,3.499587660443924619e+01,1.169050188973292936e+00,1.019720852025260527e+01,3.284668634306875390e-09
1.100000000000000006e-01,0.000000000000000000e+00,-7.992773253846243708e-01,0.000000000000000000e+00,-2.844659724408783674e+00,0.000000000000000000e+00,2.799999999999999822e+00,7.850000000000000311e-01,0.000000000000000000e+00,-3.600908075030972988e-01,0.000000000000000000e+00,2.860149842453172941e-01,0.000000000000000000e+00,0.000000000000000000e+00,0.000000000000000000e+00,0.000000000000000000e+00,-5.514554746825655940e+00,0.000000000000000000e+00,4.380132056050094036e+00,0.000000000000000000e+00,0.000000000000000000e+00,0.000000000000000000e+00,1.163696869373924692e-01,-2.007399942630438971e+01,-7.831032128012888061e-01,3.505997096391229206e+01,1.169775658663252171e+00,1.023147608562952726e+01,3.385757818205603620e-09
1.110000000000000014e-01,0.000000000000000000e+00,-7.996401773602513918e-01,0.000000000000000000e+00,-2.844371516268143107e+00,0.000000000000000000e+00,2.799999999999999822e+00,7.850000000000000311e-01,0.000000000000000000e+00,-3.656170165567527164e-01,0.000000000000000000e+00,2.904043731507921500e-01,0.000000000000000000e+00,0.000000000000000000e+00,0.000000000000000000e+00,0.000000000000000000e+00,-5.537791606289366619e+00,0.000000000000000000e+00,4.398588761566984751e+00,0.000000000000000000e+00,0.000000000000000000e+00,0.000000000000000000e+00,1.172882211456984791e-01,-2.014365399935516265e+01,-7.834533069638944802e-01,3.512292651963696244e+01,1.170492506783386455e+00,1.026512492696816636e+01,3.488834499076887141e-09
1.120000000000000023e-01,0.000000000000000000e+00,-8.000085670916688985e-01,0.000000000000000000e+00,-2.844078909567188340e+00,0.000000000000000000e+00,2.799999999999999822e+00,7.850000000000000311e-01,0.000000000000000000e+00,-3.711662474519797361e-01,0.000000000000000000e+00,2.948120479761440205e-01,0.000000000000000000e+00,0.000000000000000000e+00,0.000000000000000000e+00,0.000000000000000000e+00,-5.560598674664219310e+00,0.000000000000000000e+00,4.416704090161867491e+00,0.000000000000000000e+00,0.000000000000000000e+00,0.000000000000000000e+00,1.182083071918580419e-01,-2.021206242194281089e+01,-7.837932612073071903e-01,3.518474667195062011e+01,1.171200743339561257e+00,1.029815711663519373e+01,3.593910379365294894e-09
1.130000000000000032e-01,0.000000000000000000e+00,-8.003825173860673603e-01,0.000000000000000000e+00,-2.843781886190494657e+00,0.000000000000000000e+00,2.799999999999999822e+00,7.850000000000000311e-01,0.000000000000000000e+00,-3.767380711317753206e-01,0.000000000000000000e+00,2.992376679275244311e-01,0.000000000000000000e+00,0.000000000000000000e+00,0.000000000000000000e+00,0.000000000000000000e+00,-5.582977420121538970e+00,0.000000000000000000e+00,4.434479207982254145e+00,0.000000000000000000e+00,0.000000000000000000e+00,0.000000000000000000e+00,1.191300108161050808e-01,-2.027922906633663658e+01,-7.841230720695840928e-01,3.524543481145658319e+01,1.171900377985476638e+00,1.033057472532553511e+01,3.700996899572150944e-09
1.140000000000000041e-01,0.000000000000000000e+00,-8.007620506223146473e-01,0.000000000000000000e+00,-2.843480428362846979e+00,0.000000000000000000e+00,2.799999999999999822e+00,7.850000000000000311e-01,0.000000000000000000e+00,-3.823320600073074615e-01,0.000000000000000000e+00,3.036808933772328079e-01,0.000000000000000000e+00,0.000000000000000000e+00,0.000000000000000000e+00,0.000000000000000000e+00,-5.604929310832649669e+00,0.000000000000000000e+00,4.451915281175649497e+00,0.000000000000000000e+00,0.000000000000000000e+00,0.000000000000000000e+00,1.200533955792832952e-01,-2.034515827867870996e+01,-7.844427366742164898e-01,3.530499431903233898e+01,1.172591420026716014e+00,1.036237982205686770e+01,3.810105000598418279e-09
1.150000000000000050e-01,0.000000000000000000e+00,-8.011471887524239666e-01,0.000000000000000000e+00,-2.843174518648074578e+00,0.000000000000000000e+00,2.799999999999999822e+00,7.850000000000000311e-01,0.000000000000000000e+00,-3.879477879579156796e-01,0.000000000000000000e+00,3.081413858637158665e-01,0.000000000000000000e+00,0.000000000000000000e+00,0.000000000000000000e+00,0.000000000000000000e+00,-5.626455814968878144e+00,0.000000000000000000e+00,4.469013475889567211e+00,0.000000000000000000e+00,0.000000000000000000e+00,0.000000000000000000e+00,1.209785228471529361e-01,-2.040985437873871788e+01,-7.847522527390131675e-01,3.536342856583913630e+01,1.173273878424712091e+00,1.039357447416457703e+01,3.921245311094834207e-09
1.160000000000000059e-01,0.000000000000000000e+00,-8.015379533030216885e-01,0.000000000000000000e+00,-2.842864139947885782e+00,0.000000000000000000e+00,2.799999999999999822e+00,7.850000000000000311e-01,0.000000000000000000e+00,-3.935848303311106355e-01,0.000000000000000000e+00,3.126188080915680012e-01,0.000000000000000000e+00,0.000000000000000000e+00,0.000000000000000000e+00,0.000000000000000000e+00,-5.647558400701544912e+00,0.000000000000000000e+00,4.485774958271514734e+00,0.000000000000000000e+00,0.000000000000000000e+00,0.000000000000000000e+00,1.219054517752751199e-01,-2.047332165967749518e+01,-7.850516185847710160e-01,3.542074091333284258e+01,1.173947761800645528e+00,1.042416074729705855e+01,4.034428093685482608e-09
1.170000000000000068e-01,0.000000000000000000e+00,-8.019343653768160607e-01,0.000000000000000000e+00,-2.842549275500700467e+00,0.000000000000000000e+00,2.799999999999999822e+00,7.850000000000000311e-01,0.000000000000000000e+00,-3.992427639425746300e-01,0.000000000000000000e+00,3.171128239315307851e-01,0.000000000000000000e+00,0.000000000000000000e+00,0.000000000000000000e+00,0.000000000000000000e+00,-5.668238536201978484e+00,0.000000000000000000e+00,4.502200894469002179e+00,0.000000000000000000e+00,0.000000000000000000e+00,0.000000000000000000e+00,1.228342392944510308e-01,-2.053556438781909321e+01,-7.853408331437546908e-01,3.547693471327627890e+01,1.174613078439284974e+00,1.045414070541148277e+01,4.149663142619108847e-09
1.180000000000000077e-01,0.000000000000000000e+00,-8.023364456540645895e-01,0.000000000000000000e+00,-2.842229908880485656e+00,0.000000000000000000e+00,2.799999999999999822e+00,7.850000000000000311e-01,0.000000000000000000e+00,-4.049211670761611037e-01,0.000000000000000000e+00,3.216230984204936361e-01,0.000000000000000000e+00,0.000000000000000000e+00,0.000000000000000000e+00,0.000000000000000000e+00,-5.688497689641502042e+00,0.000000000000000000e+00,4.518292450629538770e+00,0.000000000000000000e+00,0.000000000000000000e+00,0.000000000000000000e+00,1.237649400967169022e-01,-2.059658680243118667e+01,-7.856198959679644434e-01,3.553201330775279843e+01,1.175269836292754944e+00,1.048351641076989438e+01,4.266959886117804857e-09
1.190000000000000085e-01,0.000000000000000000e+00,-8.027442143940433095e-01,0.000000000000000000e+00,-2.841906023995588004e+00,0.000000000000000000e+00,2.799999999999999822e+00,7.850000000000000311e-01,0.000000000000000000e+00,-4.106196194838944713e-01,0.000000000000000000e+00,3.261492977614933730e-01,0.000000000000000000e+00,0.000000000000000000e+00,0.000000000000000000e+00,0.000000000000000000e+00,-5.708337329191442322e+00,0.000000000000000000e+00,4.534050792900633731e+00,0.000000000000000000e+00,0.000000000000000000e+00,0.000000000000000000e+00,1.246976066218925538e-01,-2.065639311551403878e+01,-7.858888072372163247e-01,3.558598002918138548e+01,1.175918042984250844e+00,1.051228992393576789e+01,4.386327448827054276e-09
1.199999999999999956e-01,0.000000000000000000e+00,-8.031576914365141651e-01,0.000000000000000000e+00,-2.841577605087568514e+00,0.000000000000000000e+00,2.799999999999999822e+00,7.850000000000000311e-01,0.000000000000000000e+00,-4.163377023859711201e-01,0.000000000000000000e+00,3.306910893237142157e-01,0.000000000000000000e+00,0.000000000000000000e+00,0.000000000000000000e+00,0.000000000000000000e+00,-5.727758923023121618e+00,0.000000000000000000e+00,4.549477087429794508e+00,0.000000000000000000e+00,0.000000000000000000e+00,0.000000000000000000e+00,1.256322890446734952e-01,-2.071498751159752061e+01,-7.861475677670323181e-01,3.563883820033314720e+01,1.176557705811692944e+00,1.054046330377092033e+01,4.507774389872487575e-09
1.209999999999999964e-01,0.000000000000000000e+00,-8.035768962031931695e-01,0.000000000000000000e+00,-2.841244636730035023e+00,0.000000000000000000e+00,2.799999999999999822e+00,7.850000000000000311e-01,0.000000000000000000e+00,-4.220749984707583558e-01,0.000000000000000000e+00,3.352481416424881178e-01,0.000000000000000000e+00,0.000000000000000000e+00,0.000000000000000000e+00,0.000000000000000000e+00,-5.746763939307864888e+00,0.000000000000000000e+00,4.564572500364534768e+00,0.000000000000000000e+00,0.000000000000000000e+00,0.000000000000000000e+00,1.265690352622665937e-01,-2.077237414754665679e+01,-7.863961790163407350e-01,3.569059113434929742e+01,1.177188831751324605e+00,1.056803860743289114e+01,4.631308994293426018e-09
1.219999999999999973e-01,0.000000000000000000e+00,-8.040018476992191188e-01,0.000000000000000000e+00,-2.840907103827476909e+00,0.000000000000000000e+00,2.799999999999999822e+00,7.850000000000000311e-01,0.000000000000000000e+00,-4.278310918947949570e-01,0.000000000000000000e+00,3.398201244192943782e-01,0.000000000000000000e+00,0.000000000000000000e+00,0.000000000000000000e+00,0.000000000000000000e+00,-5.765353846216998868e+00,0.000000000000000000e+00,4.579338197852360182e+00,0.000000000000000000e+00,0.000000000000000000e+00,0.000000000000000000e+00,1.275078908825584278e-01,-2.082855715237485228e+01,-7.866346430950003077e-01,3.574124213476059708e+01,1.177811427461262772e+00,1.059501789037263997e+01,4.756939120387215780e-09
1.229999999999999982e-01,0.000000000000000000e+00,-8.044325645146210846e-01,0.000000000000000000e+00,-2.840564991614100698e+00,0.000000000000000000e+00,2.799999999999999822e+00,7.850000000000000311e-01,0.000000000000000000e+00,-4.336055682827910096e-01,0.000000000000000000e+00,3.444067085217596969e-01,0.000000000000000000e+00,0.000000000000000000e+00,0.000000000000000000e+00,0.000000000000000000e+00,-5.783530111921845851e+00,0.000000000000000000e+00,4.593775346040781749e+00,0.000000000000000000e+00,0.000000000000000000e+00,0.000000000000000000e+00,1.284488992128116625e-01,-2.088354062706544667e+01,-7.868629627711460905e-01,3.579079449550826553e+01,1.178425499284989852e+00,1.062140320633271529e+01,4.884672241342591370e-09
1.239999999999999991e-01,0.000000000000000000e+00,-8.048690648257872393e-01,0.000000000000000000e+00,-2.840218285652660324e+00,0.000000000000000000e+00,2.799999999999999822e+00,7.850000000000000311e-01,0.000000000000000000e+00,-4.393980147276276282e-01,0.000000000000000000e+00,3.490075659836585631e-01,0.000000000000000000e+00,0.000000000000000000e+00,0.000000000000000000e+00,0.000000000000000000e+00,-5.801294204593732573e+00,0.000000000000000000e+00,4.607885111077308693e+00,0.000000000000000000e+00,0.000000000000000000e+00,0.000000000000000000e+00,1.293921012488961075e-01,-2.093732864440108088e+01,-7.870811414783592808e-01,3.583925150096647627e+01,1.179031053254809169e+00,1.064719660734579065e+01,5.014515344625714022e-09
1.250000000000000000e-01,0.000000000000000000e+00,-8.053113663969326819e-01,0.000000000000000000e+00,-2.839866971833293174e+00,0.000000000000000000e+00,2.799999999999999822e+00,7.850000000000000311e-01,0.000000000000000000e+00,-4.452080197903578451e-01,0.000000000000000000e+00,3.536223700049128671e-01,0.000000000000000000e+00,0.000000000000000000e+00,0.000000000000000000e+00,0.000000000000000000e+00,-5.818647592403982216e+00,0.000000000000000000e+00,4.621668659109450239e+00,0.000000000000000000e+00,0.000000000000000000e+00,0.000000000000000000e+00,1.303375356650326999e-01,-2.098992524880091182e+01,-7.872891833226693947e-01,3.588661642596635204e+01,1.179628095095241136e+00,1.067240014373361134e+01,5.146475060349708919e-09
1.260000000000000009e-01,0.000000000000000000e+00,-8.057594865815673746e-01,0.000000000000000000e+00,-2.839511036372354802e+00,0.000000000000000000e+00,2.799999999999999822e+00,7.850000000000000311e-01,0.000000000000000000e+00,-4.510351735002056106e-01,0.000000000000000000e+00,3.582507949515919554e-01,0.000000000000000000e+00,0.000000000000000000e+00,0.000000000000000000e+00,0.000000000000000000e+00,-5.835591743523920627e+00,0.000000000000000000e+00,4.635127156284715610e+00,0.000000000000000000e+00,0.000000000000000000e+00,0.000000000000000000e+00,1.312852388040606222e-01,-2.104133445616559328e+01,-7.874870930893936860e-01,3.593289253582150877e+01,1.180216630226391006e+00,1.069701586410634064e+01,5.280557734133051184e-09
1.270000000000000018e-01,0.000000000000000000e+00,-8.062134423239648573e-01,0.000000000000000000e+00,-2.839150465811250967e+00,0.000000000000000000e+00,2.799999999999999822e+00,7.850000000000000311e-01,0.000000000000000000e+00,-4.568790673545661263e-01,0.000000000000000000e+00,3.628925163559125755e-01,0.000000000000000000e+00,0.000000000000000000e+00,0.000000000000000000e+00,0.000000000000000000e+00,-5.852128126124872765e+00,0.000000000000000000e+00,4.648261768750614920e+00,0.000000000000000000e+00,0.000000000000000000e+00,0.000000000000000000e+00,1.322352446682200089e-01,-2.109156025372997689e+01,-7.876748762498123613e-01,3.597808308635526231e+01,1.180796663767267107e+00,1.072104581536232359e+01,5.416768977806185603e-09
1.280000000000000027e-01,0.000000000000000000e+00,-8.066732501606302952e-01,0.000000000000000000e+00,-2.838785247015270574e+00,0.000000000000000000e+00,2.799999999999999822e+00,7.850000000000000311e-01,0.000000000000000000e+00,-4.627392943190060115e-01,0.000000000000000000e+00,3.675472109162390977e-01,0.000000000000000000e+00,0.000000000000000000e+00,0.000000000000000000e+00,0.000000000000000000e+00,-5.868258208378161811e+00,0.000000000000000000e+00,4.661073662654657390e+00,0.000000000000000000e+00,0.000000000000000000e+00,0.000000000000000000e+00,1.331875849104304788e-01,-2.114060659992339808e+01,-7.878525389676865887e-01,3.602219132392931300e+01,1.181368200539063995e+00,1.074449204268820779e+01,5.555114373709257869e-09
1.290000000000000036e-01,0.000000000000000000e+00,-8.071389262217679716e-01,0.000000000000000000e+00,-2.838415367172424375e+00,0.000000000000000000e+00,2.799999999999999822e+00,7.850000000000000311e-01,0.000000000000000000e+00,-4.686154488272635810e-01,0.000000000000000000e+00,3.722145564970836817e-01,0.000000000000000000e+00,0.000000000000000000e+00,0.000000000000000000e+00,0.000000000000000000e+00,-5.883983458455115390e+00,0.000000000000000000e+00,4.673564004144350470e+00,0.000000000000000000e+00,0.000000000000000000e+00,0.000000000000000000e+00,1.341422888260896951e-01,-2.118847742423733749e+01,-7.880200881056194095e-01,3.606522048547405745e+01,1.181931245068404746e+00,1.076735658955951891e+01,5.695598825905534568e-09
1.300000000000000044e-01,0.000000000000000000e+00,-8.076104862327504463e-01,0.000000000000000000e+00,-2.838040813792272576e+00,0.000000000000000000e+00,2.799999999999999822e+00,7.850000000000000311e-01,0.000000000000000000e+00,-4.745071267812479565e-01,0.000000000000000000e+00,3.768942321291056108e-01,0.000000000000000000e+00,0.000000000000000000e+00,0.000000000000000000e+00,0.000000000000000000e+00,-5.899305344527054018e+00,0.000000000000000000e+00,4.685733959367205159e+00,0.000000000000000000e+00,0.000000000000000000e+00,0.000000000000000000e+00,1.350993833453608683e-01,-2.123517662710085219e+01,-7.881775312312755410e-01,3.610717379852069087e+01,1.182485801590559049e+00,1.078964149774158976e+01,5.838226962637249606e-09
1.310000000000000053e-01,0.000000000000000000e+00,-8.080879455155860480e-01,0.000000000000000000e+00,-2.837661574704763101e+00,0.000000000000000000e+00,2.799999999999999822e+00,7.850000000000000311e-01,0.000000000000000000e+00,-4.804139255510398998e-01,0.000000000000000000e+00,3.815859180091117908e-01,0.000000000000000000e+00,0.000000000000000000e+00,0.000000000000000000e+00,0.000000000000000000e+00,-5.914225334765306208e+00,0.000000000000000000e+00,4.697584694470731570e+00,0.000000000000000000e+00,0.000000000000000000e+00,0.000000000000000000e+00,1.360588930259665208e-01,-2.128070807976303414e+01,-7.883248766234363103e-01,3.614805448123468778e+01,1.183031874052618226e+00,1.081134880729093517e+01,5.983002907342105381e-09
1.320000000000000062e-01,0.000000000000000000e+00,-8.085713189903875886e-01,0.000000000000000000e+00,-2.837277638059063190e+00,0.000000000000000000e+00,2.799999999999999822e+00,7.850000000000000311e-01,0.000000000000000000e+00,-4.863354439748910907e-01,0.000000000000000000e+00,3.862892955000564177e-01,0.000000000000000000e+00,0.000000000000000000e+00,0.000000000000000000e+00,0.000000000000000000e+00,-5.928744897341195141e+00,0.000000000000000000e+00,4.709117375602437150e+00,0.000000000000000000e+00,0.000000000000000000e+00,0.000000000000000000e+00,1.370208400464700826e-01,-2.132507562418296843e+01,-7.884621332779333525e-01,3.618786574245120136e+01,1.183569466116652480e+00,1.083248055655695907e+01,6.129930434778385617e-09
1.330000000000000071e-01,0.000000000000000000e+00,-8.090606211768396339e-01,0.000000000000000000e+00,-2.836888992322395886e+00,0.000000000000000000e+00,2.799999999999999822e+00,7.850000000000000311e-01,0.000000000000000000e+00,-4.922712823592253484e-01,0.000000000000000000e+00,3.910040471310419208e-01,0.000000000000000000e+00,0.000000000000000000e+00,0.000000000000000000e+00,0.000000000000000000e+00,-5.942865500426045777e+00,0.000000000000000000e+00,4.720333168909832011e+00,0.000000000000000000e+00,0.000000000000000000e+00,0.000000000000000000e+00,1.379852442000415458e-01,-2.136828307292684315e+01,-7.885893109134142209e-01,3.622661078171189075e+01,1.184098581162824182e+00,1.085303878218411988e+01,6.279012873880440715e-09
1.340000000000000080e-01,0.000000000000000000e+00,-8.095558661956679947e-01,0.000000000000000000e+00,-2.836495626278869864e+00,0.000000000000000000e+00,2.799999999999999822e+00,7.850000000000000311e-01,0.000000000000000000e+00,-4.982210424786367442e-01,0.000000000000000000e+00,3.957298565973172422e-01,0.000000000000000000e+00,0.000000000000000000e+00,0.000000000000000000e+00,0.000000000000000000e+00,-5.956588612191183074e+00,0.000000000000000000e+00,4.731233240540427154e+00,0.000000000000000000e+00,0.000000000000000000e+00,0.000000000000000000e+00,1.389521228887196092e-01,-2.141033420907221085e+01,-7.887064199769977524e-01,3.626429278930368127e+01,1.184619222292496721e+00,1.087302551911447779e+01,6.430253178882350262e-09
1.350000000000000089e-01,0.000000000000000000e+00,-8.100570677701066646e-01,0.000000000000000000e+00,-2.836097529028315023e+00,0.000000000000000000e+00,2.799999999999999822e+00,7.850000000000000311e-01,0.000000000000000000e+00,-5.041843275758913778e-01,0.000000000000000000e+00,4.004664087602795575e-01,0.000000000000000000e+00,0.000000000000000000e+00,0.000000000000000000e+00,0.000000000000000000e+00,-5.969915700807931991e+00,0.000000000000000000e+00,4.741818756641730914e+00,0.000000000000000000e+00,0.000000000000000000e+00,0.000000000000000000e+00,1.399214911181578813e-01,-2.145123278611931639e+01,-7.888134716497715582e-01,3.630091494629896687e+01,1.185131392331305600e+00,1.089244280059060621e+01,6.583653840847025762e-09
